P3
400 225
255
0 0 0
0 0 0
0 0 0
0 0 0
0 0 0
0 0 0
0 0 0
0 0 0
0 0 0
0 0 0
0 0 0
0 0 0
0 0 0
0 0 0
0 0 0
0 0 0
0 0 0
0 0 0
0 0 0
0 0 0
0 0 0
0 0 0
0 0 0
0 0 0
0 0 0
0 0 0
0 0 0
0 0 0
0 0 0
0 0 0
0 0 0
0 0 0
0 0 0
0 0 0
0 0 0
0 0 0
0 0 0
0 0 0
0 0 0
0 0 0
0 0 0
0 0 0
0 0 0
0 0 0
0 0 0
0 0 0
0 0 0
0 0 0
0 0 0
0 0 0
0 0 0
0 0 0
0 0 0
0 0 0
0 0 0
0 0 0
0 0 0
0 0 0
0 0 0
0 0 0
0 0 0
0 0 0
0 0 0
0 0 0
0 0 0
0 0 0
0 0 0
0 0 0
0 0 0
0 0 0
0 0 0
0 0 0
0 0 0
0 0 0
0 0 0
0 0 0
0 0 0
0 0 0
0 0 0
0 0 0
0 0 0
0 0 0
0 0 0
0 0 0
0 0 0
0 0 0
0 0 0
0 0 0
0 0 0
0 0 0
0 0 0
0 0 0
0 0 0
0 0 0
0 0 0
0 0 0
0 0 0
0 0 0
0 0 0
0 0 0
0 0 0
0 0 0
0 0 0
0 0 0
0 0 0
0 0 0
0 0 0
0 0 0
0 0 0
0 0 0
0 0 0
0 0 0
0 0 0
0 0 0
0 0 0
0 0 0
0 0 0
0 0 0
0 0 0
0 0 0
0 0 0
0 0 0
0 0 0
0 0 0
0 0 0
0 0 0
0 0 0
0 0 0
0 0 0
0 0 0
0 0 0
0 0 0
0 0 0
0 0 0
0 0 0
0 0 0
0 0 0
0 0 0
0 0 0
114 114 114
255 255 255
255 255 255
255 255 255
255 255 255
255 255 255
255 255 255
255 255 255
255 255 255
255 255 255
255 255 255
255 255 255
255 255 255
255 255 255
255 255 255
255 255 255
255 255 255
255 255 255
255 255 255
255 255 255
255 255 255
255 255 255
255 255 255
255 255 255
255 255 255
255 255 255
255 255 255
255 255 255
255 255 255
255 255 255
255 255 255
255 255 255
255 255 255
255 255 255
255 255 255
255 255 255
255 255 255
255 255 255
255 255 255
255 255 255
255 255 255
255 255 255
255 255 255
255 255 255
255 255 255
255 255 255
255 255 255
255 255 255
255 255 255
255 255 255
255 255 255
255 255 255
255 255 255
255 255 255
255 255 255
255 255 255
255 255 255
255 255 255
255 255 255
255 255 255
255 255 255
255 255 255
255 255 255
255 255 255
255 255 255
255 255 255
255 255 255
255 255 255
255 255 255
255 255 255
255 255 255
255 255 255
255 255 255
255 255 255
255 255 255
255 255 255
255 255 255
255 255 255
255 255 255
255 255 255
255 255 255
255 255 255
255 255 255
255 255 255
255 255 255
255 255 255
255 255 255
255 255 255
255 255 255
255 255 255
255 255 255
255 255 255
255 255 255
255 255 255
255 255 255
255 255 255
255 255 255
255 255 255
255 255 255
255 255 255
255 255 255
255 255 255
255 255 255
255 255 255
255 255 255
255 255 255
255 255 255
255 255 255
255 255 255
255 255 255
255 255 255
255 255 255
255 255 255
255 255 255
255 255 255
255 255 255
255 255 255
255 255 255
255 255 255
255 255 255
255 255 255
102 102 102
0 0 0
0 0 0
0 0 0
0 0 0
0 0 0
0 0 0
0 0 0
0 0 0
0 0 0
0 0 0
0 0 0
0 0 0
0 0 0
0 0 0
0 0 0
0 0 0
0 0 0
0 0 0
0 0 0
0 0 0
0 0 0
0 0 0
0 0 0
0 0 0
0 0 0
0 0 0
0 0 0
0 0 0
0 0 0
0 0 0
0 0 0
0 0 0
0 0 0
0 0 0
0 0 0
0 0 0
0 0 0
0 0 0
0 0 0
0 0 0
0 0 0
0 0 0
0 0 0
0 0 0
0 0 0
0 0 0
0 0 0
0 0 0
0 0 0
0 0 0
0 0 0
0 0 0
0 0 0
0 0 0
0 0 0
0 0 0
0 0 0
0 0 0
0 0 0
0 0 0
0 0 0
0 0 0
0 0 0
0 0 0
0 0 0
0 0 0
0 0 0
0 0 0
0 0 0
0 0 0
0 0 0
0 0 0
0 0 0
0 0 0
0 0 0
0 0 0
0 0 0
0 0 0
0 0 0
0 0 0
0 0 0
0 0 0
0 0 0
0 0 0
0 0 0
0 0 0
0 0 0
0 0 0
0 0 0
0 0 0
0 0 0
0 0 0
0 0 0
0 0 0
0 0 0
0 0 0
0 0 0
0 0 0
0 0 0
0 0 0
0 0 0
0 0 0
0 0 0
0 0 0
0 0 0
0 0 0
0 0 0
0 0 0
0 0 0
0 0 0
0 0 0
0 0 0
0 0 0
0 0 0
0 0 0
0 0 0
0 0 0
0 0 0
0 0 0
0 0 0
0 0 0
0 0 0
0 0 0
0 0 0
0 0 0
0 0 0
0 0 0
0 0 0
0 0 0
0 0 0
0 0 0
0 0 0
0 0 0
0 0 0
0 0 0
0 0 0
0 0 0
0 0 0
0 0 0
0 0 0
0 0 0
0 0 0
0 0 0
0 0 0
0 0 0
0 0 0
0 0 0
0 0 0
0 0 0
0 0 0
0 0 0
0 0 0
0 0 0
0 0 0
0 0 0
0 0 0
0 0 0
0 0 0
0 0 0
0 0 0
0 0 0
0 0 0
0 0 0
0 0 0
0 0 0
0 0 0
0 0 0
0 0 0
0 0 0
0 0 0
0 0 0
0 0 0
0 0 0
0 0 0
0 0 0
0 0 0
0 0 0
0 0 0
0 0 0
0 0 0
0 0 0
0 0 0
0 0 0
0 0 0
0 0 0
0 0 0
0 0 0
0 0 0
0 0 0
0 0 0
0 0 0
0 0 0
0 0 0
0 0 0
0 0 0
0 0 0
0 0 0
0 0 0
0 0 0
0 0 0
0 0 0
0 0 0
0 0 0
0 0 0
0 0 0
0 0 0
0 0 0
0 0 0
0 0 0
0 0 0
0 0 0
0 0 0
0 0 0
0 0 0
0 0 0
0 0 0
0 0 0
0 0 0
0 0 0
0 0 0
0 0 0
0 0 0
0 0 0
0 0 0
0 0 0
0 0 0
0 0 0
0 0 0
0 0 0
0 0 0
0 0 0
0 0 0
0 0 0
0 0 0
0 0 0
0 0 0
0 0 0
0 0 0
0 0 0
0 0 0
0 0 0
0 0 0
0 0 0
0 0 0
0 0 0
0 0 0
0 0 0
0 0 0
0 0 0
0 0 0
0 0 0
0 0 0
0 0 0
0 0 0
0 0 0
0 0 0
0 0 0
0 0 0
0 0 0
0 0 0
0 0 0
0 0 0
0 0 0
0 0 0
0 0 0
0 0 0
0 0 0
0 0 0
0 0 0
0 0 0
0 0 0
0 0 0
0 0 0
0 0 0
0 0 0
0 0 0
0 0 0
0 0 0
0 0 0
255 255 255
255 255 255
255 255 255
255 255 255
255 255 255
255 255 255
255 255 255
255 255 255
255 255 255
255 255 255
255 255 255
255 255 255
255 255 255
255 255 255
255 255 255
255 255 255
255 255 255
255 255 255
255 255 255
255 255 255
255 255 255
255 255 255
255 255 255
255 255 255
255 255 255
255 255 255
255 255 255
255 255 255
255 255 255
255 255 255
255 255 255
255 255 255
255 255 255
255 255 255
255 255 255
255 255 255
255 255 255
255 255 255
255 255 255
255 255 255
255 255 255
255 255 255
255 255 255
255 255 255
255 255 255
255 255 255
255 255 255
255 255 255
255 255 255
255 255 255
255 255 255
255 255 255
255 255 255
255 255 255
255 255 255
255 255 255
255 255 255
255 255 255
255 255 255
255 255 255
255 255 255
255 255 255
255 255 255
255 255 255
255 255 255
255 255 255
255 255 255
255 255 255
255 255 255
255 255 255
255 255 255
255 255 255
255 255 255
255 255 255
255 255 255
255 255 255
255 255 255
255 255 255
255 255 255
255 255 255
255 255 255
255 255 255
255 255 255
255 255 255
255 255 255
255 255 255
255 255 255
255 255 255
255 255 255
255 255 255
255 255 255
255 255 255
255 255 255
255 255 255
255 255 255
255 255 255
255 255 255
255 255 255
255 255 255
255 255 255
255 255 255
255 255 255
255 255 255
255 255 255
255 255 255
255 255 255
255 255 255
255 255 255
255 255 255
255 255 255
255 255 255
255 255 255
255 255 255
255 255 255
255 255 255
255 255 255
255 255 255
255 255 255
255 255 255
255 255 255
0 0 0
0 0 0
0 0 0
0 0 0
0 0 0
0 0 0
0 0 0
0 0 0
0 0 0
0 0 0
0 0 0
0 0 0
0 0 0
0 0 0
0 0 0
0 0 0
0 0 0
0 0 0
0 0 0
0 0 0
0 0 0
0 0 0
0 0 0
0 0 0
0 0 0
0 0 0
0 0 0
0 0 0
0 0 0
0 0 0
0 0 0
0 0 0
0 0 0
0 0 0
0 0 0
0 0 0
0 0 0
0 0 0
0 0 0
0 0 0
0 0 0
0 0 0
0 0 0
0 0 0
0 0 0
0 0 0
0 0 0
0 0 0
0 0 0
0 0 0
0 0 0
0 0 0
0 0 0
0 0 0
0 0 0
0 0 0
0 0 0
0 0 0
0 0 0
0 0 0
0 0 0
0 0 0
0 0 0
0 0 0
0 0 0
0 0 0
0 0 0
0 0 0
0 0 0
0 0 0
0 0 0
0 0 0
0 0 0
0 0 0
0 0 0
0 0 0
0 0 0
0 0 0
0 0 0
0 0 0
0 0 0
0 0 0
0 0 0
0 0 0
0 0 0
0 0 0
0 0 0
0 0 0
0 0 0
0 0 0
0 0 0
0 0 0
0 0 0
0 0 0
0 0 0
0 0 0
0 0 0
0 0 0
0 0 0
0 0 0
0 0 0
0 0 0
0 0 0
0 0 0
0 0 0
0 0 0
0 0 0
0 0 0
0 0 0
0 0 0
0 0 0
0 0 0
0 0 0
0 0 0
0 0 0
0 0 0
0 0 0
0 0 0
0 0 0
0 0 0
0 0 0
0 0 0
0 0 0
0 0 0
0 0 0
0 0 0
0 0 0
0 0 0
0 0 0
0 0 0
0 0 0
0 0 0
0 0 0
0 0 0
0 0 0
0 0 0
0 0 0
0 0 0
0 0 0
0 0 0
0 0 0
0 0 0
0 0 0
0 0 0
0 0 0
0 0 0
0 0 0
0 0 0
0 0 0
0 0 0
0 0 0
0 0 0
0 0 0
0 0 0
0 0 0
0 0 0
0 0 0
0 0 0
0 0 0
0 0 0
0 0 0
0 0 0
0 0 0
0 0 0
0 0 0
0 0 0
0 0 0
0 0 0
0 0 0
0 0 0
0 0 0
0 0 0
0 0 0
0 0 0
0 0 0
0 0 0
0 0 0
0 0 0
0 0 0
0 0 0
0 0 0
0 0 0
0 0 0
0 0 0
0 0 0
0 0 0
0 0 0
0 0 0
0 0 0
0 0 0
0 0 0
0 0 0
0 0 0
0 0 0
0 0 0
0 0 0
0 0 0
0 0 0
0 0 0
0 0 0
0 0 0
0 0 0
0 0 0
0 0 0
0 0 0
0 0 0
0 0 0
0 0 0
0 0 0
0 0 0
0 0 0
0 0 0
0 0 0
0 0 0
0 0 0
0 0 0
0 0 0
0 0 0
0 0 0
0 0 0
0 0 0
0 0 0
0 0 0
0 0 0
0 0 0
0 0 0
0 0 0
0 0 0
0 0 0
0 0 0
0 0 0
0 0 0
0 0 0
0 0 0
0 0 0
0 0 0
0 0 0
0 0 0
0 0 0
0 0 0
0 0 0
0 0 0
0 0 0
0 0 0
0 0 0
0 0 0
0 0 0
0 0 0
0 0 0
0 0 0
0 0 0
0 0 0
0 0 0
0 0 0
0 0 0
0 0 0
0 0 0
0 0 0
0 0 0
0 0 0
0 0 0
0 0 0
0 0 0
0 0 0
0 0 0
0 0 0
0 0 0
0 0 0
0 0 0
0 0 0
0 0 0
0 0 0
0 0 0
0 0 0
0 0 0
0 0 0
0 0 0
0 0 0
0 0 0
0 0 0
255 255 255
255 255 255
255 255 255
255 255 255
255 255 255
255 255 255
255 255 255
255 255 255
255 255 255
255 255 255
255 255 255
255 255 255
255 255 255
255 255 255
255 255 255
255 255 255
255 255 255
255 255 255
255 255 255
255 255 255
255 255 255
255 255 255
255 255 255
255 255 255
255 255 255
255 255 255
255 255 255
255 255 255
255 255 255
255 255 255
255 255 255
255 255 255
255 255 255
255 255 255
255 255 255
255 255 255
255 255 255
255 255 255
255 255 255
255 255 255
255 255 255
255 255 255
255 255 255
255 255 255
255 255 255
255 255 255
255 255 255
255 255 255
255 255 255
255 255 255
255 255 255
255 255 255
255 255 255
255 255 255
255 255 255
255 255 255
255 255 255
255 255 255
255 255 255
255 255 255
255 255 255
255 255 255
255 255 255
255 255 255
255 255 255
255 255 255
255 255 255
255 255 255
255 255 255
255 255 255
255 255 255
255 255 255
255 255 255
255 255 255
255 255 255
255 255 255
255 255 255
255 255 255
255 255 255
255 255 255
255 255 255
255 255 255
255 255 255
255 255 255
255 255 255
255 255 255
255 255 255
255 255 255
255 255 255
255 255 255
255 255 255
255 255 255
255 255 255
255 255 255
255 255 255
255 255 255
255 255 255
255 255 255
255 255 255
255 255 255
255 255 255
255 255 255
255 255 255
255 255 255
255 255 255
255 255 255
255 255 255
255 255 255
255 255 255
255 255 255
255 255 255
255 255 255
255 255 255
255 255 255
255 255 255
255 255 255
255 255 255
255 255 255
255 255 255
255 255 255
0 0 0
0 0 0
0 0 0
0 0 0
0 0 0
0 0 0
0 0 0
0 0 0
0 0 0
0 0 0
0 0 0
0 0 0
0 0 0
0 0 0
0 0 0
0 0 0
0 0 0
0 0 0
0 0 0
0 0 0
0 0 0
0 0 0
0 0 0
0 0 0
0 0 0
0 0 0
0 0 0
0 0 0
0 0 0
0 0 0
0 0 0
0 0 0
0 0 0
0 0 0
0 0 0
0 0 0
0 0 0
0 0 0
0 0 0
0 0 0
0 0 0
0 0 0
0 0 0
0 0 0
0 0 0
0 0 0
0 0 0
0 0 0
0 0 0
0 0 0
0 0 0
0 0 0
0 0 0
0 0 0
0 0 0
0 0 0
0 0 0
0 0 0
0 0 0
0 0 0
0 0 0
0 0 0
0 0 0
0 0 0
0 0 0
0 0 0
0 0 0
0 0 0
0 0 0
0 0 0
0 0 0
0 0 0
0 0 0
0 0 0
0 0 0
0 0 0
0 0 0
0 0 0
0 0 0
0 0 0
0 0 0
0 0 0
0 0 0
0 0 0
0 0 0
0 0 0
0 0 0
0 0 0
0 0 0
0 0 0
0 0 0
0 0 0
0 0 0
0 0 0
0 0 0
0 0 0
0 0 0
0 0 0
0 0 0
0 0 0
0 0 0
0 0 0
0 0 0
0 0 0
0 0 0
0 0 0
0 0 0
0 0 0
0 0 0
0 0 0
0 0 0
0 0 0
0 0 0
0 0 0
0 0 0
0 0 0
0 0 0
0 0 0
0 0 0
0 0 0
0 0 0
0 0 0
0 0 0
0 0 0
0 0 0
0 0 0
0 0 0
0 0 0
0 0 0
0 0 0
0 0 0
0 0 0
0 0 0
0 0 0
0 0 0
0 0 0
0 0 0
0 0 0
0 0 0
0 0 0
0 0 0
0 0 0
0 0 0
0 0 0
0 0 0
0 0 0
0 0 0
0 0 0
0 0 0
0 0 0
0 0 0
0 0 0
0 0 0
0 0 0
0 0 0
0 0 0
0 0 0
0 0 0
0 0 0
0 0 0
0 0 0
0 0 0
0 0 0
0 0 0
0 0 0
0 0 0
0 0 0
0 0 0
0 0 0
0 0 0
0 0 0
0 0 0
0 0 0
0 0 0
0 0 0
0 0 0
0 0 0
0 0 0
0 0 0
0 0 0
0 0 0
0 0 0
0 0 0
0 0 0
0 0 0
0 0 0
0 0 0
0 0 0
0 0 0
0 0 0
0 0 0
0 0 0
0 0 0
0 0 0
0 0 0
0 0 0
0 0 0
0 0 0
0 0 0
0 0 0
0 0 0
0 0 0
0 0 0
0 0 0
0 0 0
0 0 0
0 0 0
0 0 0
0 0 0
0 0 0
0 0 0
0 0 0
0 0 0
0 0 0
0 0 0
0 0 0
0 0 0
0 0 0
0 0 0
0 0 0
0 0 0
0 0 0
0 0 0
0 0 0
0 0 0
0 0 0
0 0 0
0 0 0
0 0 0
0 0 0
0 0 0
0 0 0
0 0 0
0 0 0
0 0 0
0 0 0
0 0 0
0 0 0
0 0 0
0 0 0
0 0 0
0 0 0
0 0 0
0 0 0
0 0 0
0 0 0
0 0 0
0 0 0
0 0 0
0 0 0
0 0 0
0 0 0
0 0 0
0 0 0
0 0 0
0 0 0
0 0 0
0 0 0
0 0 0
0 0 0
0 0 0
0 0 0
0 0 0
0 0 0
0 0 0
0 0 0
0 0 0
0 0 0
0 0 0
0 0 0
0 0 0
0 0 0
0 0 0
0 0 0
0 0 0
0 0 0
0 0 0
0 0 0
0 0 0
0 0 0
211 211 211
255 255 255
255 255 255
255 255 255
255 255 255
255 255 255
255 255 255
255 255 255
255 255 255
255 255 255
255 255 255
255 255 255
255 255 255
255 255 255
255 255 255
255 255 255
255 255 255
255 255 255
255 255 255
255 255 255
255 255 255
255 255 255
255 255 255
255 255 255
255 255 255
255 255 255
255 255 255
255 255 255
255 255 255
255 255 255
255 255 255
255 255 255
255 255 255
255 255 255
255 255 255
255 255 255
255 255 255
255 255 255
255 255 255
255 255 255
255 255 255
255 255 255
255 255 255
255 255 255
255 255 255
255 255 255
255 255 255
255 255 255
255 255 255
255 255 255
255 255 255
255 255 255
255 255 255
255 255 255
255 255 255
255 255 255
255 255 255
255 255 255
255 255 255
255 255 255
255 255 255
255 255 255
255 255 255
255 255 255
255 255 255
255 255 255
255 255 255
255 255 255
255 255 255
255 255 255
255 255 255
255 255 255
255 255 255
255 255 255
255 255 255
255 255 255
255 255 255
255 255 255
255 255 255
255 255 255
255 255 255
255 255 255
255 255 255
255 255 255
255 255 255
255 255 255
255 255 255
255 255 255
255 255 255
255 255 255
255 255 255
255 255 255
255 255 255
255 255 255
255 255 255
255 255 255
255 255 255
255 255 255
255 255 255
255 255 255
255 255 255
255 255 255
255 255 255
255 255 255
255 255 255
255 255 255
255 255 255
255 255 255
255 255 255
255 255 255
255 255 255
255 255 255
255 255 255
255 255 255
255 255 255
255 255 255
255 255 255
255 255 255
255 255 255
223 223 223
0 0 0
0 0 0
0 0 0
0 0 0
0 0 0
0 0 0
0 0 0
0 0 0
0 0 0
0 0 0
0 0 0
0 0 0
0 0 0
0 0 0
0 0 0
0 0 0
0 0 0
0 0 0
0 0 0
0 0 0
0 0 0
0 0 0
0 0 0
0 0 0
0 0 0
0 0 0
0 0 0
0 0 0
0 0 0
0 0 0
0 0 0
0 0 0
0 0 0
0 0 0
0 0 0
0 0 0
0 0 0
0 0 0
0 0 0
0 0 0
0 0 0
0 0 0
0 0 0
0 0 0
0 0 0
0 0 0
0 0 0
0 0 0
0 0 0
0 0 0
0 0 0
0 0 0
0 0 0
0 0 0
0 0 0
0 0 0
0 0 0
0 0 0
0 0 0
0 0 0
0 0 0
0 0 0
0 0 0
0 0 0
0 0 0
0 0 0
0 0 0
0 0 0
0 0 0
0 0 0
0 0 0
0 0 0
0 0 0
0 0 0
0 0 0
0 0 0
0 0 0
0 0 0
0 0 0
0 0 0
0 0 0
0 0 0
0 0 0
0 0 0
0 0 0
0 0 0
0 0 0
0 0 0
0 0 0
0 0 0
0 0 0
0 0 0
0 0 0
0 0 0
0 0 0
0 0 0
0 0 0
0 0 0
0 0 0
0 0 0
0 0 0
0 0 0
0 0 0
0 0 0
0 0 0
0 0 0
0 0 0
0 0 0
0 0 0
0 0 0
0 0 0
0 0 0
0 0 0
0 0 0
0 0 0
0 0 0
0 0 0
0 0 0
0 0 0
0 0 0
0 0 0
0 0 0
0 0 0
0 0 0
0 0 0
0 0 0
0 0 0
0 0 0
0 0 0
0 0 0
0 0 0
0 0 0
0 0 0
0 0 0
0 0 0
0 0 0
0 0 0
0 0 0
0 0 0
0 0 0
0 0 0
0 0 0
0 0 0
0 0 0
0 0 0
0 0 0
0 0 0
0 0 0
0 0 0
0 0 0
0 0 0
0 0 0
0 0 0
0 0 0
0 0 0
0 0 0
0 0 0
0 0 0
0 0 0
0 0 0
0 0 0
0 0 0
0 0 0
0 0 0
0 0 0
0 0 0
0 0 0
0 0 0
0 0 0
0 0 0
0 0 0
0 0 0
0 0 0
0 0 0
0 0 0
0 0 0
0 0 0
0 0 0
0 0 0
0 0 0
0 0 0
0 0 0
0 0 0
0 0 0
0 0 0
0 0 0
0 0 0
0 0 0
0 0 0
0 0 0
0 0 0
0 0 0
0 0 0
0 0 0
0 0 0
0 0 0
0 0 0
0 0 0
0 0 0
0 0 0
0 0 0
0 0 0
0 0 0
0 0 0
0 0 0
0 0 0
0 0 0
0 0 0
0 0 0
0 0 0
0 0 0
0 0 0
0 0 0
0 0 0
0 0 0
0 0 0
0 0 0
0 0 0
0 0 0
0 0 0
0 0 0
0 0 0
0 0 0
0 0 0
0 0 0
0 0 0
0 0 0
0 0 0
0 0 0
0 0 0
0 0 0
0 0 0
0 0 0
0 0 0
0 0 0
0 0 0
0 0 0
0 0 0
0 0 0
0 0 0
0 0 0
0 0 0
0 0 0
0 0 0
0 0 0
0 0 0
0 0 0
0 0 0
0 0 0
0 0 0
0 0 0
0 0 0
0 0 0
0 0 0
0 0 0
0 0 0
0 0 0
0 0 0
0 0 0
0 0 0
0 0 0
0 0 0
0 0 0
0 0 0
0 0 0
0 0 0
0 0 0
0 0 0
0 0 0
0 0 0
0 0 0
0 0 0
0 0 0
0 0 0
0 0 0
0 0 0
0 0 0
0 0 0
0 0 0
0 0 0
0 0 0
255 255 255
255 255 255
255 255 255
255 255 255
255 255 255
255 255 255
255 255 255
255 255 255
255 255 255
255 255 255
255 255 255
255 255 255
255 255 255
255 255 255
255 255 255
255 255 255
255 255 255
255 255 255
255 255 255
255 255 255
255 255 255
255 255 255
255 255 255
255 255 255
255 255 255
255 255 255
255 255 255
255 255 255
255 255 255
255 255 255
255 255 255
255 255 255
255 255 255
255 255 255
255 255 255
255 255 255
255 255 255
255 255 255
255 255 255
255 255 255
255 255 255
255 255 255
255 255 255
255 255 255
255 255 255
255 255 255
255 255 255
255 255 255
255 255 255
255 255 255
255 255 255
255 255 255
255 255 255
255 255 255
255 255 255
255 255 255
255 255 255
255 255 255
255 255 255
255 255 255
255 255 255
255 255 255
255 255 255
255 255 255
255 255 255
255 255 255
255 255 255
255 255 255
255 255 255
255 255 255
255 255 255
255 255 255
255 255 255
255 255 255
255 255 255
255 255 255
255 255 255
255 255 255
255 255 255
255 255 255
255 255 255
255 255 255
255 255 255
255 255 255
255 255 255
255 255 255
255 255 255
255 255 255
255 255 255
255 255 255
255 255 255
255 255 255
255 255 255
255 255 255
255 255 255
255 255 255
255 255 255
255 255 255
255 255 255
255 255 255
255 255 255
255 255 255
255 255 255
255 255 255
255 255 255
255 255 255
255 255 255
255 255 255
255 255 255
255 255 255
255 255 255
255 255 255
255 255 255
255 255 255
255 255 255
255 255 255
255 255 255
255 255 255
0 0 0
0 0 0
0 0 0
0 0 0
0 0 0
0 0 0
0 0 0
0 0 0
0 0 0
0 0 0
0 0 0
0 0 0
0 0 0
0 0 0
0 0 0
0 0 0
0 0 0
0 0 0
0 0 0
0 0 0
0 0 0
0 0 0
0 0 0
0 0 0
0 0 0
0 0 0
0 0 0
0 0 0
0 0 0
0 0 0
0 0 0
0 0 0
0 0 0
0 0 0
0 0 0
0 0 0
0 0 0
0 0 0
0 0 0
0 0 0
0 0 0
0 0 0
0 0 0
0 0 0
0 0 0
0 0 0
0 0 0
0 0 0
0 0 0
0 0 0
0 0 0
0 0 0
0 0 0
0 0 0
0 0 0
0 0 0
0 0 0
0 0 0
0 0 0
0 0 0
0 0 0
0 0 0
0 0 0
0 0 0
0 0 0
0 0 0
0 0 0
0 0 0
0 0 0
0 0 0
0 0 0
0 0 0
0 0 0
0 0 0
0 0 0
0 0 0
0 0 0
0 0 0
0 0 0
0 0 0
0 0 0
0 0 0
0 0 0
0 0 0
0 0 0
0 0 0
0 0 0
0 0 0
0 0 0
0 0 0
0 0 0
0 0 0
0 0 0
0 0 0
0 0 0
0 0 0
0 0 0
0 0 0
0 0 0
0 0 0
0 0 0
0 0 0
0 0 0
0 0 0
0 0 0
0 0 0
0 0 0
0 0 0
0 0 0
0 0 0
0 0 0
0 0 0
0 0 0
0 0 0
0 0 0
0 0 0
0 0 0
0 0 0
0 0 0
0 0 0
0 0 0
0 0 0
0 0 0
0 0 0
0 0 0
0 0 0
0 0 0
0 0 0
0 0 0
0 0 0
0 0 0
0 0 0
0 0 0
0 0 0
0 0 0
0 0 0
0 0 0
0 0 0
0 0 0
0 0 0
0 0 0
0 0 0
0 0 0
0 0 0
0 0 0
0 0 0
0 0 0
0 0 0
0 0 0
0 0 0
0 0 0
0 0 0
0 0 0
0 0 0
0 0 0
0 0 0
0 0 0
0 0 0
0 0 0
0 0 0
0 0 0
0 0 0
0 0 0
0 0 0
0 0 0
0 0 0
0 0 0
0 0 0
0 0 0
0 0 0
0 0 0
0 0 0
0 0 0
0 0 0
0 0 0
0 0 0
0 0 0
0 0 0
0 0 0
0 0 0
0 0 0
0 0 0
0 0 0
0 0 0
0 0 0
0 0 0
0 0 0
0 0 0
0 0 0
0 0 0
0 0 0
0 0 0
0 0 0
0 0 0
0 0 0
0 0 0
0 0 0
0 0 0
0 0 0
0 0 0
0 0 0
0 0 0
0 0 0
0 0 0
0 0 0
0 0 0
0 0 0
0 0 0
0 0 0
0 0 0
0 0 0
0 0 0
0 0 0
0 0 0
0 0 0
0 0 0
0 0 0
0 0 0
0 0 0
0 0 0
0 0 0
0 0 0
0 0 0
0 0 0
0 0 0
0 0 0
0 0 0
0 0 0
0 0 0
0 0 0
0 0 0
0 0 0
0 0 0
0 0 0
0 0 0
0 0 0
0 0 0
0 0 0
0 0 0
0 0 0
0 0 0
0 0 0
0 0 0
0 0 0
0 0 0
0 0 0
0 0 0
0 0 0
0 0 0
0 0 0
0 0 0
0 0 0
0 0 0
0 0 0
0 0 0
0 0 0
0 0 0
0 0 0
0 0 0
0 0 0
0 0 0
0 0 0
0 0 0
0 0 0
0 0 0
0 0 0
0 0 0
0 0 0
0 0 0
0 0 0
0 0 0
0 0 0
0 0 0
0 0 0
0 0 0
0 0 0
0 0 0
0 0 0
0 0 0
0 0 0
0 0 0
0 0 0
255 255 255
255 255 255
255 255 255
255 255 255
255 255 255
255 255 255
255 255 255
255 255 255
255 255 255
255 255 255
255 255 255
255 255 255
255 255 255
255 255 255
255 255 255
255 255 255
255 255 255
255 255 255
255 255 255
255 255 255
255 255 255
255 255 255
255 255 255
255 255 255
255 255 255
255 255 255
255 255 255
255 255 255
255 255 255
255 255 255
255 255 255
255 255 255
255 255 255
255 255 255
255 255 255
255 255 255
255 255 255
255 255 255
255 255 255
255 255 255
255 255 255
255 255 255
255 255 255
255 255 255
255 255 255
255 255 255
255 255 255
255 255 255
255 255 255
255 255 255
255 255 255
255 255 255
255 255 255
255 255 255
255 255 255
255 255 255
255 255 255
255 255 255
255 255 255
255 255 255
255 255 255
255 255 255
255 255 255
255 255 255
255 255 255
255 255 255
255 255 255
255 255 255
255 255 255
255 255 255
255 255 255
255 255 255
255 255 255
255 255 255
255 255 255
255 255 255
255 255 255
255 255 255
255 255 255
255 255 255
255 255 255
255 255 255
255 255 255
255 255 255
255 255 255
255 255 255
255 255 255
255 255 255
255 255 255
255 255 255
255 255 255
255 255 255
255 255 255
255 255 255
255 255 255
255 255 255
255 255 255
255 255 255
255 255 255
255 255 255
255 255 255
255 255 255
255 255 255
255 255 255
255 255 255
255 255 255
255 255 255
255 255 255
255 255 255
255 255 255
255 255 255
255 255 255
255 255 255
255 255 255
255 255 255
255 255 255
255 255 255
255 255 255
0 0 0
0 0 0
0 0 0
0 0 0
0 0 0
0 0 0
0 0 0
0 0 0
0 0 0
0 0 0
0 0 0
0 0 0
0 0 0
0 0 0
0 0 0
0 0 0
0 0 0
0 0 0
0 0 0
0 0 0
0 0 0
0 0 0
0 0 0
0 0 0
0 0 0
0 0 0
0 0 0
0 0 0
0 0 0
0 0 0
0 0 0
0 0 0
0 0 0
0 0 0
0 0 0
0 0 0
0 0 0
0 0 0
0 0 0
0 0 0
0 0 0
0 0 0
0 0 0
0 0 0
0 0 0
0 0 0
0 0 0
0 0 0
0 0 0
0 0 0
0 0 0
0 0 0
0 0 0
0 0 0
0 0 0
0 0 0
0 0 0
0 0 0
0 0 0
0 0 0
0 0 0
0 0 0
0 0 0
0 0 0
0 0 0
0 0 0
0 0 0
0 0 0
0 0 0
0 0 0
0 0 0
0 0 0
0 0 0
0 0 0
0 0 0
0 0 0
0 0 0
0 0 0
0 0 0
0 0 0
0 0 0
0 0 0
0 0 0
0 0 0
0 0 0
0 0 0
0 0 0
0 0 0
0 0 0
0 0 0
0 0 0
0 0 0
0 0 0
0 0 0
0 0 0
0 0 0
0 0 0
0 0 0
0 0 0
0 0 0
0 0 0
0 0 0
0 0 0
0 0 0
0 0 0
0 0 0
0 0 0
0 0 0
0 0 0
0 0 0
0 0 0
0 0 0
0 0 0
0 0 0
0 0 0
0 0 0
0 0 0
0 0 0
0 0 0
0 0 0
0 0 0
0 0 0
0 0 0
0 0 0
0 0 0
0 0 0
0 0 0
0 0 0
0 0 0
0 0 0
0 0 0
0 0 0
0 0 0
0 0 0
0 0 0
0 0 0
0 0 0
0 0 0
0 0 0
0 0 0
0 0 0
0 0 0
0 0 0
0 0 0
0 0 0
0 0 0
0 0 0
0 0 0
0 0 0
0 0 0
0 0 0
0 0 0
0 0 0
0 0 0
0 0 0
0 0 0
0 0 0
0 0 0
0 0 0
0 0 0
0 0 0
0 0 0
0 0 0
0 0 0
0 0 0
0 0 0
0 0 0
0 0 0
0 0 0
0 0 0
0 0 0
0 0 0
0 0 0
0 0 0
0 0 0
0 0 0
0 0 0
0 0 0
0 0 0
0 0 0
0 0 0
0 0 0
0 0 0
0 0 0
0 0 0
0 0 0
0 0 0
0 0 0
0 0 0
0 0 0
0 0 0
0 0 0
0 0 0
0 0 0
0 0 0
0 0 0
0 0 0
0 0 0
0 0 0
0 0 0
0 0 0
0 0 0
0 0 0
0 0 0
0 0 0
0 0 0
0 0 0
0 0 0
0 0 0
0 0 0
0 0 0
0 0 0
0 0 0
0 0 0
0 0 0
0 0 0
0 0 0
0 0 0
0 0 0
0 0 0
0 0 0
0 0 0
0 0 0
0 0 0
0 0 0
0 0 0
0 0 0
0 0 0
0 0 0
0 0 0
0 0 0
0 0 0
0 0 0
0 0 0
0 0 0
0 0 0
0 0 0
0 0 0
0 0 0
0 0 0
0 0 0
0 0 0
0 0 0
0 0 0
0 0 0
0 0 0
0 0 0
0 0 0
0 0 0
0 0 0
0 0 0
0 0 0
0 0 0
0 0 0
0 0 0
0 0 0
0 0 0
0 0 0
0 0 0
0 0 0
0 0 0
0 0 0
0 0 0
0 0 0
0 0 0
0 0 0
0 0 0
0 0 0
0 0 0
0 0 0
0 0 0
0 0 0
0 0 0
0 0 0
0 0 0
0 0 0
0 0 0
0 0 0
0 0 0
0 0 0
0 0 0
0 0 0
245 245 245
255 255 255
255 255 255
255 255 255
255 255 255
255 255 255
255 255 255
255 255 255
255 255 255
255 255 255
255 255 255
255 255 255
255 255 255
255 255 255
255 255 255
255 255 255
255 255 255
255 255 255
255 255 255
255 255 255
255 255 255
255 255 255
255 255 255
255 255 255
255 255 255
255 255 255
255 255 255
255 255 255
255 255 255
255 255 255
255 255 255
255 255 255
255 255 255
255 255 255
255 255 255
255 255 255
255 255 255
255 255 255
255 255 255
255 255 255
255 255 255
255 255 255
255 255 255
255 255 255
255 255 255
255 255 255
255 255 255
255 255 255
255 255 255
255 255 255
255 255 255
255 255 255
255 255 255
255 255 255
255 255 255
255 255 255
255 255 255
255 255 255
255 255 255
255 255 255
255 255 255
255 255 255
255 255 255
255 255 255
255 255 255
255 255 255
255 255 255
255 255 255
255 255 255
255 255 255
255 255 255
255 255 255
255 255 255
255 255 255
255 255 255
255 255 255
255 255 255
255 255 255
255 255 255
255 255 255
255 255 255
255 255 255
255 255 255
255 255 255
255 255 255
255 255 255
255 255 255
255 255 255
255 255 255
255 255 255
255 255 255
255 255 255
255 255 255
255 255 255
255 255 255
255 255 255
255 255 255
255 255 255
255 255 255
255 255 255
255 255 255
255 255 255
255 255 255
255 255 255
255 255 255
255 255 255
255 255 255
255 255 255
255 255 255
255 255 255
255 255 255
255 255 255
255 255 255
255 255 255
255 255 255
255 255 255
255 255 255
211 211 211
0 0 0
0 0 0
0 0 0
0 0 0
0 0 0
0 0 0
0 0 0
0 0 0
0 0 0
0 0 0
0 0 0
0 0 0
0 0 0
0 0 0
0 0 0
0 0 0
0 0 0
0 0 0
0 0 0
0 0 0
0 0 0
0 0 0
0 0 0
0 0 0
0 0 0
0 0 0
0 0 0
0 0 0
0 0 0
0 0 0
0 0 0
0 0 0
0 0 0
0 0 0
0 0 0
0 0 0
0 0 0
0 0 0
0 0 0
0 0 0
0 0 0
0 0 0
0 0 0
0 0 0
0 0 0
0 0 0
0 0 0
0 0 0
0 0 0
0 0 0
0 0 0
0 0 0
0 0 0
0 0 0
0 0 0
0 0 0
0 0 0
0 0 0
0 0 0
0 0 0
0 0 0
0 0 0
0 0 0
0 0 0
0 0 0
0 0 0
0 0 0
0 0 0
0 0 0
0 0 0
0 0 0
0 0 0
0 0 0
0 0 0
0 0 0
0 0 0
0 0 0
0 0 0
0 0 0
0 0 0
0 0 0
0 0 0
0 0 0
0 0 0
0 0 0
0 0 0
0 0 0
0 0 0
0 0 0
0 0 0
0 0 0
0 0 0
0 0 0
0 0 0
0 0 0
0 0 0
0 0 0
0 0 0
0 0 0
0 0 0
0 0 0
0 0 0
0 0 0
0 0 0
0 0 0
0 0 0
0 0 0
0 0 0
0 0 0
0 0 0
0 0 0
0 0 0
0 0 0
0 0 0
0 0 0
0 0 0
0 0 0
0 0 0
0 0 0
0 0 0
0 0 0
0 0 0
0 0 0
0 0 0
0 0 0
0 0 0
0 0 0
0 0 0
0 0 0
0 0 0
0 0 0
0 0 0
0 0 0
0 0 0
0 0 0
0 0 0
0 0 0
0 0 0
0 0 0
0 0 0
0 0 0
0 0 0
0 0 0
0 0 0
0 0 0
0 0 0
0 0 0
0 0 0
0 0 0
0 0 0
0 0 0
0 0 0
0 0 0
0 0 0
0 0 0
0 0 0
0 0 0
0 0 0
0 0 0
0 0 0
0 0 0
0 0 0
0 0 0
0 0 0
0 0 0
0 0 0
0 0 0
0 0 0
0 0 0
0 0 0
0 0 0
0 0 0
0 0 0
0 0 0
0 0 0
0 0 0
0 0 0
0 0 0
0 0 0
0 0 0
0 0 0
0 0 0
0 0 0
0 0 0
0 0 0
0 0 0
0 0 0
0 0 0
0 0 0
0 0 0
0 0 0
0 0 0
0 0 0
0 0 0
0 0 0
0 0 0
0 0 0
0 0 0
0 0 0
0 0 0
0 0 0
0 0 0
0 0 0
0 0 0
0 0 0
0 0 0
0 0 0
0 0 0
0 0 0
0 0 0
0 0 0
0 0 0
0 0 0
0 0 0
0 0 0
0 0 0
0 0 0
0 0 0
0 0 0
0 0 0
0 0 0
0 0 0
0 0 0
0 0 0
0 0 0
0 0 0
0 0 0
0 0 0
0 0 0
0 0 0
0 0 0
0 0 0
0 0 0
0 0 0
0 0 0
0 0 0
0 0 0
0 0 0
0 0 0
0 0 0
0 0 0
0 0 0
0 0 0
0 0 0
0 0 0
0 0 0
0 0 0
0 0 0
0 0 0
0 0 0
0 0 0
0 0 0
0 0 0
0 0 0
0 0 0
0 0 0
0 0 0
0 0 0
0 0 0
0 0 0
0 0 0
0 0 0
0 0 0
0 0 0
0 0 0
0 0 0
0 0 0
0 0 0
0 0 0
0 0 0
0 0 0
0 0 0
0 0 0
0 0 0
0 0 0
0 0 0
0 0 0
0 0 0
0 0 0
0 0 0
0 0 0
0 0 0
0 0 0
255 255 255
255 255 255
255 255 255
255 255 255
255 255 255
255 255 255
255 255 255
255 255 255
255 255 255
255 255 255
255 255 255
255 255 255
255 255 255
255 255 255
255 255 255
255 255 255
255 255 255
255 255 255
255 255 255
255 255 255
255 255 255
255 255 255
255 255 255
255 255 255
255 255 255
255 255 255
255 255 255
255 255 255
255 255 255
255 255 255
255 255 255
255 255 255
255 255 255
255 255 255
255 255 255
255 255 255
255 255 255
255 255 255
255 255 255
255 255 255
255 255 255
255 255 255
255 255 255
255 255 255
255 255 255
255 255 255
255 255 255
255 255 255
255 255 255
255 255 255
255 255 255
255 255 255
255 255 255
255 255 255
255 255 255
255 255 255
255 255 255
255 255 255
255 255 255
255 255 255
255 255 255
255 255 255
255 255 255
255 255 255
255 255 255
255 255 255
255 255 255
255 255 255
255 255 255
255 255 255
255 255 255
255 255 255
255 255 255
255 255 255
255 255 255
255 255 255
255 255 255
255 255 255
255 255 255
255 255 255
255 255 255
255 255 255
255 255 255
255 255 255
255 255 255
255 255 255
255 255 255
255 255 255
255 255 255
255 255 255
255 255 255
255 255 255
255 255 255
255 255 255
255 255 255
255 255 255
255 255 255
255 255 255
255 255 255
255 255 255
255 255 255
255 255 255
255 255 255
255 255 255
255 255 255
255 255 255
255 255 255
255 255 255
255 255 255
255 255 255
255 255 255
255 255 255
255 255 255
255 255 255
255 255 255
255 255 255
0 0 0
0 0 0
0 0 0
0 0 0
0 0 0
0 0 0
0 0 0
0 0 0
0 0 0
0 0 0
0 0 0
0 0 0
0 0 0
0 0 0
0 0 0
0 0 0
0 0 0
0 0 0
0 0 0
0 0 0
0 0 0
0 0 0
0 0 0
0 0 0
0 0 0
0 0 0
0 0 0
0 0 0
0 0 0
0 0 0
0 0 0
0 0 0
0 0 0
0 0 0
0 0 0
0 0 0
0 0 0
0 0 0
0 0 0
0 0 0
0 0 0
0 0 0
0 0 0
0 0 0
0 0 0
0 0 0
0 0 0
0 0 0
0 0 0
0 0 0
0 0 0
0 0 0
0 0 0
0 0 0
0 0 0
0 0 0
0 0 0
0 0 0
0 0 0
0 0 0
0 0 0
0 0 0
0 0 0
0 0 0
0 0 0
0 0 0
0 0 0
0 0 0
0 0 0
0 0 0
0 0 0
0 0 0
0 0 0
0 0 0
0 0 0
0 0 0
0 0 0
0 0 0
0 0 0
0 0 0
0 0 0
0 0 0
0 0 0
0 0 0
0 0 0
0 0 0
0 0 0
0 0 0
0 0 0
0 0 0
0 0 0
0 0 0
0 0 0
0 0 0
0 0 0
0 0 0
0 0 0
0 0 0
0 0 0
0 0 0
0 0 0
0 0 0
0 0 0
0 0 0
0 0 0
0 0 0
0 0 0
0 0 0
0 0 0
0 0 0
0 0 0
0 0 0
0 0 0
0 0 0
0 0 0
0 0 0
0 0 0
0 0 0
0 0 0
0 0 0
0 0 0
0 0 0
0 0 0
0 0 0
0 0 0
0 0 0
0 0 0
0 0 0
0 0 0
0 0 0
0 0 0
0 0 0
0 0 0
0 0 0
0 0 0
0 0 0
0 0 0
0 0 0
0 0 0
0 0 0
0 0 0
0 0 0
0 0 0
0 0 0
0 0 0
0 0 0
0 0 0
0 0 0
0 0 0
0 0 0
0 0 0
0 0 0
0 0 0
0 0 0
0 0 0
0 0 0
0 0 0
0 0 0
0 0 0
0 0 0
0 0 0
0 0 0
0 0 0
0 0 0
0 0 0
0 0 0
0 0 0
0 0 0
0 0 0
0 0 0
0 0 0
0 0 0
0 0 0
0 0 0
0 0 0
0 0 0
0 0 0
0 0 0
0 0 0
0 0 0
0 0 0
0 0 0
0 0 0
0 0 0
0 0 0
0 0 0
0 0 0
0 0 0
0 0 0
0 0 0
0 0 0
0 0 0
0 0 0
0 0 0
0 0 0
0 0 0
0 0 0
0 0 0
0 0 0
0 0 0
0 0 0
0 0 0
0 0 0
0 0 0
0 0 0
0 0 0
0 0 0
0 0 0
0 0 0
0 0 0
0 0 0
0 0 0
0 0 0
0 0 0
0 0 0
0 0 0
0 0 0
0 0 0
0 0 0
0 0 0
0 0 0
0 0 0
0 0 0
0 0 0
0 0 0
0 0 0
0 0 0
0 0 0
0 0 0
0 0 0
0 0 0
0 0 0
0 0 0
0 0 0
0 0 0
0 0 0
0 0 0
0 0 0
0 0 0
0 0 0
0 0 0
0 0 0
0 0 0
0 0 0
0 0 0
0 0 0
0 0 0
0 0 0
0 0 0
0 0 0
0 0 0
0 0 0
0 0 0
0 0 0
0 0 0
0 0 0
0 0 0
0 0 0
0 0 0
0 0 0
0 0 0
0 0 0
0 0 0
0 0 0
0 0 0
0 0 0
0 0 0
0 0 0
0 0 0
0 0 0
0 0 0
0 0 0
0 0 0
0 0 0
0 0 0
0 0 0
0 0 0
0 0 0
0 0 0
0 0 0
0 0 0
0 0 0
0 0 0
0 0 0
255 255 255
255 255 255
255 255 255
255 255 255
255 255 255
255 255 255
255 255 255
255 255 255
255 255 255
255 255 255
255 255 255
255 255 255
255 255 255
255 255 255
255 255 255
255 255 255
255 255 255
255 255 255
255 255 255
255 255 255
255 255 255
255 255 255
255 255 255
255 255 255
255 255 255
255 255 255
255 255 255
255 255 255
255 255 255
255 255 255
255 255 255
255 255 255
255 255 255
255 255 255
255 255 255
255 255 255
255 255 255
255 255 255
255 255 255
255 255 255
255 255 255
255 255 255
255 255 255
255 255 255
255 255 255
255 255 255
255 255 255
255 255 255
255 255 255
255 255 255
255 255 255
255 255 255
255 255 255
255 255 255
255 255 255
255 255 255
255 255 255
255 255 255
255 255 255
255 255 255
255 255 255
255 255 255
255 255 255
255 255 255
255 255 255
255 255 255
255 255 255
255 255 255
255 255 255
255 255 255
255 255 255
255 255 255
255 255 255
255 255 255
255 255 255
255 255 255
255 255 255
255 255 255
255 255 255
255 255 255
255 255 255
255 255 255
255 255 255
255 255 255
255 255 255
255 255 255
255 255 255
255 255 255
255 255 255
255 255 255
255 255 255
255 255 255
255 255 255
255 255 255
255 255 255
255 255 255
255 255 255
255 255 255
255 255 255
255 255 255
255 255 255
255 255 255
255 255 255
255 255 255
255 255 255
255 255 255
255 255 255
255 255 255
255 255 255
255 255 255
255 255 255
255 255 255
255 255 255
255 255 255
255 255 255
255 255 255
0 0 0
0 0 0
0 0 0
0 0 0
0 0 0
0 0 0
0 0 0
0 0 0
0 0 0
0 0 0
0 0 0
0 0 0
0 0 0
0 0 0
0 0 0
0 0 0
0 0 0
0 0 0
0 0 0
0 0 0
0 0 0
0 0 0
0 0 0
0 0 0
0 0 0
0 0 0
0 0 0
0 0 0
0 0 0
0 0 0
0 0 0
0 0 0
0 0 0
0 0 0
0 0 0
0 0 0
0 0 0
0 0 0
0 0 0
0 0 0
0 0 0
0 0 0
0 0 0
0 0 0
0 0 0
0 0 0
0 0 0
0 0 0
0 0 0
0 0 0
0 0 0
0 0 0
0 0 0
0 0 0
0 0 0
0 0 0
0 0 0
0 0 0
0 0 0
0 0 0
0 0 0
0 0 0
0 0 0
0 0 0
0 0 0
0 0 0
0 0 0
0 0 0
0 0 0
0 0 0
0 0 0
0 0 0
0 0 0
0 0 0
0 0 0
0 0 0
0 0 0
0 0 0
0 0 0
0 0 0
0 0 0
0 0 0
0 0 0
0 0 0
0 0 0
0 0 0
0 0 0
0 0 0
0 0 0
0 0 0
0 0 0
0 0 0
0 0 0
0 0 0
0 0 0
0 0 0
0 0 0
0 0 0
0 0 0
0 0 0
0 0 0
0 0 0
0 0 0
0 0 0
0 0 0
0 0 0
0 0 0
0 0 0
0 0 0
0 0 0
0 0 0
0 0 0
0 0 0
0 0 0
0 0 0
0 0 0
0 0 0
0 0 0
0 0 0
0 0 0
0 0 0
0 0 0
0 0 0
0 0 0
0 0 0
0 0 0
0 0 0
0 0 0
0 0 0
0 0 0
0 0 0
0 0 0
0 0 0
0 0 0
0 0 0
0 0 0
0 0 0
0 0 0
0 0 0
0 0 0
0 0 0
0 0 0
0 0 0
0 0 0
0 0 0
0 0 0
0 0 0
0 0 0
0 0 0
0 0 0
0 0 0
0 0 0
0 0 0
0 0 0
0 0 0
0 0 0
0 0 0
0 0 0
0 0 0
0 0 0
0 0 0
0 0 0
0 0 0
0 0 0
0 0 0
0 0 0
0 0 0
0 0 0
0 0 0
0 0 0
0 0 0
0 0 0
0 0 0
0 0 0
0 0 0
0 0 0
0 0 0
0 0 0
0 0 0
0 0 0
0 0 0
0 0 0
0 0 0
0 0 0
0 0 0
0 0 0
0 0 0
0 0 0
0 0 0
0 0 0
0 0 0
0 0 0
0 0 0
0 0 0
0 0 0
0 0 0
0 0 0
0 0 0
0 0 0
0 0 0
0 0 0
0 0 0
0 0 0
0 0 0
0 0 0
0 0 0
0 0 0
0 0 0
0 0 0
0 0 0
0 0 0
0 0 0
0 0 0
0 0 0
0 0 0
0 0 0
0 0 0
0 0 0
0 0 0
0 0 0
0 0 0
0 0 0
0 0 0
0 0 0
0 0 0
0 0 0
0 0 0
0 0 0
0 0 0
0 0 0
0 0 0
0 0 0
0 0 0
0 0 0
0 0 0
0 0 0
0 0 0
0 0 0
0 0 0
0 0 0
0 0 0
0 0 0
0 0 0
0 0 0
0 0 0
0 0 0
0 0 0
0 0 0
0 0 0
0 0 0
0 0 0
0 0 0
0 0 0
0 0 0
0 0 0
0 0 0
0 0 0
0 0 0
0 0 0
0 0 0
0 0 0
0 0 0
0 0 0
0 0 0
0 0 0
0 0 0
0 0 0
0 0 0
0 0 0
0 0 0
0 0 0
0 0 0
0 0 0
0 0 0
0 0 0
0 0 0
0 0 0
0 0 0
0 0 0
0 0 0
0 0 0
0 0 0
0 0 0
0 0 0
255 255 255
255 255 255
255 255 255
255 255 255
255 255 255
255 255 255
255 255 255
255 255 255
255 255 255
255 255 255
255 255 255
255 255 255
255 255 255
255 255 255
255 255 255
255 255 255
255 255 255
255 255 255
255 255 255
255 255 255
255 255 255
255 255 255
255 255 255
255 255 255
255 255 255
255 255 255
255 255 255
255 255 255
255 255 255
255 255 255
255 255 255
255 255 255
255 255 255
255 255 255
255 255 255
255 255 255
255 255 255
255 255 255
255 255 255
255 255 255
255 255 255
255 255 255
255 255 255
255 255 255
255 255 255
255 255 255
255 255 255
255 255 255
255 255 255
255 255 255
255 255 255
255 255 255
255 255 255
255 255 255
255 255 255
255 255 255
255 255 255
255 255 255
255 255 255
255 255 255
255 255 255
255 255 255
255 255 255
255 255 255
255 255 255
255 255 255
255 255 255
255 255 255
255 255 255
255 255 255
255 255 255
255 255 255
255 255 255
255 255 255
255 255 255
255 255 255
255 255 255
255 255 255
255 255 255
255 255 255
255 255 255
255 255 255
255 255 255
255 255 255
255 255 255
255 255 255
255 255 255
255 255 255
255 255 255
255 255 255
255 255 255
255 255 255
255 255 255
255 255 255
255 255 255
255 255 255
255 255 255
255 255 255
255 255 255
255 255 255
255 255 255
255 255 255
255 255 255
255 255 255
255 255 255
255 255 255
255 255 255
255 255 255
255 255 255
255 255 255
255 255 255
255 255 255
255 255 255
255 255 255
255 255 255
223 223 223
0 0 0
0 0 0
0 0 0
0 0 0
0 0 0
0 0 0
0 0 0
0 0 0
0 0 0
0 0 0
0 0 0
0 0 0
0 0 0
0 0 0
0 0 0
0 0 0
0 0 0
0 0 0
0 0 0
0 0 0
0 0 0
0 0 0
0 0 0
0 0 0
0 0 0
0 0 0
0 0 0
0 0 0
0 0 0
0 0 0
0 0 0
0 0 0
0 0 0
0 0 0
0 0 0
0 0 0
0 0 0
0 0 0
0 0 0
0 0 0
0 0 0
0 0 0
0 0 0
0 0 0
0 0 0
0 0 0
0 0 0
0 0 0
0 0 0
0 0 0
0 0 0
0 0 0
0 0 0
0 0 0
0 0 0
0 0 0
0 0 0
0 0 0
0 0 0
0 0 0
0 0 0
0 0 0
0 0 0
0 0 0
0 0 0
0 0 0
0 0 0
0 0 0
0 0 0
0 0 0
0 0 0
0 0 0
0 0 0
0 0 0
0 0 0
0 0 0
0 0 0
0 0 0
0 0 0
0 0 0
0 0 0
0 0 0
0 0 0
0 0 0
0 0 0
0 0 0
0 0 0
0 0 0
0 0 0
0 0 0
0 0 0
0 0 0
0 0 0
0 0 0
0 0 0
0 0 0
0 0 0
0 0 0
0 0 0
0 0 0
0 0 0
0 0 0
0 0 0
0 0 0
0 0 0
0 0 0
0 0 0
0 0 0
0 0 0
0 0 0
0 0 0
0 0 0
0 0 0
0 0 0
0 0 0
0 0 0
0 0 0
0 0 0
0 0 0
0 0 0
0 0 0
0 0 0
0 0 0
0 0 0
0 0 0
0 0 0
0 0 0
0 0 0
0 0 0
0 0 0
0 0 0
0 0 0
0 0 0
0 0 0
0 0 0
0 0 0
0 0 0
0 0 0
0 0 0
0 0 0
0 0 0
0 0 0
0 0 0
0 0 0
0 0 0
0 0 0
0 0 0
0 0 0
0 0 0
0 0 0
0 0 0
0 0 0
0 0 0
0 0 0
0 0 0
0 0 0
0 0 0
0 0 0
0 0 0
0 0 0
0 0 0
0 0 0
0 0 0
0 0 0
0 0 0
0 0 0
0 0 0
0 0 0
0 0 0
0 0 0
0 0 0
0 0 0
0 0 0
0 0 0
0 0 0
0 0 0
0 0 0
0 0 0
0 0 0
0 0 0
0 0 0
0 0 0
0 0 0
0 0 0
0 0 0
0 0 0
0 0 0
0 0 0
0 0 0
0 0 0
0 0 0
0 0 0
0 0 0
0 0 0
0 0 0
0 0 0
0 0 0
0 0 0
0 0 0
0 0 0
0 0 0
0 0 0
0 0 0
0 0 0
0 0 0
0 0 0
0 0 0
0 0 0
0 0 0
0 0 0
0 0 0
0 0 0
0 0 0
0 0 0
0 0 0
0 0 0
0 0 0
0 0 0
0 0 0
0 0 0
0 0 0
0 0 0
0 0 0
0 0 0
0 0 0
0 0 0
0 0 0
0 0 0
0 0 0
0 0 0
0 0 0
0 0 0
0 0 0
0 0 0
0 0 0
0 0 0
0 0 0
0 0 0
0 0 0
0 0 0
0 0 0
0 0 0
0 0 0
0 0 0
0 0 0
0 0 0
0 0 0
0 0 0
0 0 0
0 0 0
0 0 0
0 0 0
0 0 0
0 0 0
0 0 0
0 0 0
0 0 0
0 0 0
0 0 0
0 0 0
0 0 0
0 0 0
0 0 0
0 0 0
0 0 0
0 0 0
0 0 0
0 0 0
0 0 0
0 0 0
0 0 0
0 0 0
0 0 0
0 0 0
0 0 0
0 0 0
0 0 0
0 0 0
0 0 0
0 0 0
0 0 0
0 0 0
0 0 0
0 0 0
0 0 0
255 255 255
255 255 255
255 255 255
255 255 255
255 255 255
255 255 255
255 255 255
255 255 255
255 255 255
255 255 255
255 255 255
255 255 255
255 255 255
255 255 255
255 255 255
255 255 255
255 255 255
255 255 255
255 255 255
255 255 255
255 255 255
255 255 255
255 255 255
255 255 255
255 255 255
255 255 255
255 255 255
255 255 255
255 255 255
255 255 255
255 255 255
255 255 255
255 255 255
255 255 255
255 255 255
255 255 255
255 255 255
255 255 255
255 255 255
255 255 255
255 255 255
255 255 255
255 255 255
255 255 255
255 255 255
255 255 255
255 255 255
255 255 255
255 255 255
255 255 255
255 255 255
255 255 255
255 255 255
255 255 255
255 255 255
255 255 255
255 255 255
255 255 255
255 255 255
255 255 255
255 255 255
255 255 255
255 255 255
255 255 255
255 255 255
255 255 255
255 255 255
255 255 255
255 255 255
255 255 255
255 255 255
255 255 255
255 255 255
255 255 255
255 255 255
255 255 255
255 255 255
255 255 255
255 255 255
255 255 255
255 255 255
255 255 255
255 255 255
255 255 255
255 255 255
255 255 255
255 255 255
255 255 255
255 255 255
255 255 255
255 255 255
255 255 255
255 255 255
255 255 255
255 255 255
255 255 255
255 255 255
255 255 255
255 255 255
255 255 255
255 255 255
255 255 255
255 255 255
255 255 255
255 255 255
255 255 255
255 255 255
255 255 255
255 255 255
255 255 255
255 255 255
255 255 255
255 255 255
255 255 255
0 0 0
0 0 0
0 0 0
0 0 0
0 0 0
0 0 0
0 0 0
0 0 0
0 0 0
0 0 0
0 0 0
0 0 0
0 0 0
0 0 0
0 0 0
0 0 0
0 0 0
0 0 0
0 0 0
0 0 0
0 0 0
0 0 0
0 0 0
0 0 0
0 0 0
0 0 0
0 0 0
0 0 0
0 0 0
0 0 0
0 0 0
0 0 0
0 0 0
0 0 0
0 0 0
0 0 0
0 0 0
0 0 0
0 0 0
0 0 0
0 0 0
0 0 0
0 0 0
0 0 0
0 0 0
0 0 0
0 0 0
0 0 0
0 0 0
0 0 0
0 0 0
0 0 0
0 0 0
0 0 0
0 0 0
0 0 0
0 0 0
0 0 0
0 0 0
0 0 0
0 0 0
0 0 0
0 0 0
0 0 0
0 0 0
0 0 0
0 0 0
0 0 0
0 0 0
0 0 0
0 0 0
0 0 0
0 0 0
0 0 0
0 0 0
0 0 0
0 0 0
0 0 0
0 0 0
0 0 0
0 0 0
0 0 0
0 0 0
0 0 0
0 0 0
0 0 0
0 0 0
0 0 0
0 0 0
0 0 0
0 0 0
0 0 0
0 0 0
0 0 0
0 0 0
0 0 0
0 0 0
0 0 0
0 0 0
0 0 0
0 0 0
0 0 0
0 0 0
0 0 0
0 0 0
0 0 0
0 0 0
0 0 0
0 0 0
0 0 0
0 0 0
0 0 0
0 0 0
0 0 0
0 0 0
0 0 0
0 0 0
0 0 0
0 0 0
0 0 0
0 0 0
0 0 0
0 0 0
0 0 0
0 0 0
0 0 0
0 0 0
0 0 0
0 0 0
0 0 0
0 0 0
0 0 0
0 0 0
0 0 0
0 0 0
0 0 0
0 0 0
0 0 0
0 0 0
0 0 0
0 0 0
0 0 0
0 0 0
0 0 0
0 0 0
0 0 0
0 0 0
0 0 0
0 0 0
0 0 0
0 0 0
0 0 0
0 0 0
0 0 0
0 0 0
0 0 0
0 0 0
0 0 0
0 0 0
0 0 0
0 0 0
0 0 0
0 0 0
0 0 0
0 0 0
0 0 0
0 0 0
0 0 0
0 0 0
0 0 0
0 0 0
0 0 0
0 0 0
0 0 0
0 0 0
0 0 0
0 0 0
0 0 0
0 0 0
0 0 0
0 0 0
0 0 0
0 0 0
0 0 0
0 0 0
0 0 0
0 0 0
0 0 0
0 0 0
0 0 0
0 0 0
0 0 0
0 0 0
0 0 0
0 0 0
0 0 0
0 0 0
0 0 0
0 0 0
0 0 0
0 0 0
0 0 0
0 0 0
0 0 0
0 0 0
0 0 0
0 0 0
0 0 0
0 0 0
0 0 0
0 0 0
0 0 0
0 0 0
0 0 0
0 0 0
0 0 0
0 0 0
0 0 0
0 0 0
0 0 0
0 0 0
0 0 0
0 0 0
0 0 0
0 0 0
0 0 0
0 0 0
0 0 0
0 0 0
0 0 0
0 0 0
0 0 0
0 0 0
0 0 0
0 0 0
0 0 0
0 0 0
0 0 0
0 0 0
0 0 0
0 0 0
0 0 0
0 0 0
0 0 0
0 0 0
0 0 0
0 0 0
0 0 0
0 0 0
0 0 0
0 0 0
0 0 0
0 0 0
0 0 0
0 0 0
0 0 0
0 0 0
0 0 0
0 0 0
0 0 0
0 0 0
0 0 0
0 0 0
0 0 0
0 0 0
0 0 0
0 0 0
0 0 0
0 0 0
0 0 0
0 0 0
0 0 0
0 0 0
0 0 0
0 0 0
0 0 0
0 0 0
0 0 0
0 0 0
0 0 0
0 0 0
0 0 0
0 0 0
0 0 0
0 0 0
0 0 0
255 255 255
255 255 255
255 255 255
255 255 255
255 255 255
255 255 255
255 255 255
255 255 255
255 255 255
255 255 255
255 255 255
255 255 255
255 255 255
255 255 255
255 255 255
255 255 255
255 255 255
255 255 255
255 255 255
255 255 255
255 255 255
255 255 255
255 255 255
255 255 255
255 255 255
255 255 255
255 255 255
255 255 255
255 255 255
255 255 255
255 255 255
255 255 255
255 255 255
255 255 255
255 255 255
255 255 255
255 255 255
255 255 255
255 255 255
255 255 255
255 255 255
255 255 255
255 255 255
255 255 255
255 255 255
255 255 255
255 255 255
255 255 255
255 255 255
255 255 255
255 255 255
255 255 255
255 255 255
255 255 255
255 255 255
255 255 255
255 255 255
255 255 255
255 255 255
255 255 255
255 255 255
255 255 255
255 255 255
255 255 255
255 255 255
255 255 255
255 255 255
255 255 255
255 255 255
255 255 255
255 255 255
255 255 255
255 255 255
255 255 255
255 255 255
255 255 255
255 255 255
255 255 255
255 255 255
255 255 255
255 255 255
255 255 255
255 255 255
255 255 255
255 255 255
255 255 255
255 255 255
255 255 255
255 255 255
255 255 255
255 255 255
255 255 255
255 255 255
255 255 255
255 255 255
255 255 255
255 255 255
255 255 255
255 255 255
255 255 255
255 255 255
255 255 255
255 255 255
255 255 255
255 255 255
255 255 255
255 255 255
255 255 255
255 255 255
255 255 255
255 255 255
255 255 255
255 255 255
255 255 255
0 0 0
0 0 0
0 0 0
0 0 0
0 0 0
0 0 0
0 0 0
0 0 0
0 0 0
0 0 0
0 0 0
0 0 0
0 0 0
0 0 0
0 0 0
0 0 0
0 0 0
0 0 0
0 0 0
0 0 0
0 0 0
0 0 0
0 0 0
0 0 0
0 0 0
0 0 0
0 0 0
0 0 0
0 0 0
0 0 0
0 0 0
0 0 0
0 0 0
0 0 0
0 0 0
0 0 0
0 0 0
0 0 0
0 0 0
0 0 0
0 0 0
0 0 0
0 0 0
0 0 0
0 0 0
0 0 0
0 0 0
0 0 0
0 0 0
0 0 0
0 0 0
0 0 0
0 0 0
0 0 0
0 0 0
0 0 0
0 0 0
0 0 0
0 0 0
0 0 0
0 0 0
0 0 0
0 0 0
0 0 0
0 0 0
0 0 0
0 0 0
0 0 0
0 0 0
0 0 0
0 0 0
0 0 0
0 0 0
0 0 0
0 0 0
0 0 0
0 0 0
0 0 0
0 0 0
0 0 0
0 0 0
0 0 0
0 0 0
0 0 0
0 0 0
0 0 0
0 0 0
0 0 0
0 0 0
0 0 0
0 0 0
0 0 0
0 0 0
0 0 0
0 0 0
0 0 0
0 0 0
0 0 0
0 0 0
0 0 0
0 0 0
0 0 0
0 0 0
0 0 0
0 0 0
0 0 0
0 0 0
0 0 0
0 0 0
0 0 0
0 0 0
0 0 0
0 0 0
0 0 0
0 0 0
0 0 0
0 0 0
0 0 0
0 0 0
0 0 0
0 0 0
0 0 0
0 0 0
0 0 0
0 0 0
0 0 0
0 0 0
0 0 0
0 0 0
0 0 0
0 0 0
0 0 0
0 0 0
0 0 0
0 0 0
0 0 0
0 0 0
0 0 0
0 0 0
0 0 0
0 0 0
0 0 0
0 0 0
0 0 0
0 0 0
0 0 0
0 0 0
0 0 0
0 0 0
0 0 0
0 0 0
0 0 0
0 0 0
0 0 0
0 0 0
0 0 0
0 0 0
0 0 0
0 0 0
0 0 0
0 0 0
0 0 0
0 0 0
0 0 0
0 0 0
0 0 0
0 0 0
0 0 0
0 0 0
0 0 0
0 0 0
0 0 0
0 0 0
0 0 0
0 0 0
0 0 0
0 0 0
0 0 0
0 0 0
0 0 0
0 0 0
0 0 0
0 0 0
0 0 0
0 0 0
0 0 0
0 0 0
0 0 0
0 0 0
0 0 0
0 0 0
0 0 0
0 0 0
0 0 0
0 0 0
0 0 0
0 0 0
0 0 0
0 0 0
0 0 0
0 0 0
0 0 0
0 0 0
0 0 0
0 0 0
0 0 0
0 0 0
0 0 0
0 0 0
0 0 0
0 0 0
0 0 0
0 0 0
0 0 0
0 0 0
0 0 0
0 0 0
0 0 0
0 0 0
0 0 0
0 0 0
0 0 0
0 0 0
0 0 0
0 0 0
0 0 0
0 0 0
0 0 0
0 0 0
0 0 0
0 0 0
0 0 0
0 0 0
0 0 0
0 0 0
0 0 0
0 0 0
0 0 0
0 0 0
0 0 0
0 0 0
0 0 0
0 0 0
0 0 0
0 0 0
0 0 0
0 0 0
0 0 0
0 0 0
0 0 0
0 0 0
0 0 0
0 0 0
0 0 0
0 0 0
0 0 0
0 0 0
0 0 0
0 0 0
0 0 0
0 0 0
0 0 0
0 0 0
0 0 0
0 0 0
0 0 0
0 0 0
0 0 0
0 0 0
0 0 0
0 0 0
0 0 0
0 0 0
0 0 0
0 0 0
0 0 0
0 0 0
0 0 0
0 0 0
0 0 0
0 0 0
0 0 0
0 0 0
0 0 0
0 0 0
0 0 0
169 169 169
255 255 255
255 255 255
255 255 255
255 255 255
255 255 255
255 255 255
255 255 255
255 255 255
255 255 255
255 255 255
255 255 255
255 255 255
255 255 255
255 255 255
255 255 255
255 255 255
255 255 255
255 255 255
255 255 255
255 255 255
255 255 255
255 255 255
255 255 255
255 255 255
255 255 255
255 255 255
255 255 255
255 255 255
255 255 255
255 255 255
255 255 255
255 255 255
255 255 255
255 255 255
255 255 255
255 255 255
255 255 255
255 255 255
255 255 255
255 255 255
255 255 255
255 255 255
255 255 255
255 255 255
255 255 255
255 255 255
255 255 255
255 255 255
255 255 255
255 255 255
255 255 255
255 255 255
255 255 255
255 255 255
255 255 255
255 255 255
255 255 255
255 255 255
255 255 255
255 255 255
255 255 255
255 255 255
255 255 255
255 255 255
255 255 255
255 255 255
255 255 255
255 255 255
255 255 255
255 255 255
255 255 255
255 255 255
255 255 255
255 255 255
255 255 255
255 255 255
255 255 255
255 255 255
255 255 255
255 255 255
255 255 255
255 255 255
255 255 255
255 255 255
255 255 255
255 255 255
255 255 255
255 255 255
255 255 255
255 255 255
255 255 255
255 255 255
255 255 255
255 255 255
255 255 255
255 255 255
255 255 255
255 255 255
255 255 255
255 255 255
255 255 255
255 255 255
255 255 255
255 255 255
255 255 255
255 255 255
255 255 255
255 255 255
255 255 255
255 255 255
255 255 255
255 255 255
169 169 169
0 0 0
0 0 0
0 0 0
0 0 0
0 0 0
0 0 0
0 0 0
0 0 0
0 0 0
0 0 0
0 0 0
0 0 0
0 0 0
0 0 0
0 0 0
0 0 0
0 0 0
0 0 0
0 0 0
0 0 0
0 0 0
0 0 0
0 0 0
0 0 0
0 0 0
0 0 0
0 0 0
0 0 0
0 0 0
0 0 0
0 0 0
0 0 0
0 0 0
0 0 0
0 0 0
0 0 0
0 0 0
0 0 0
0 0 0
0 0 0
0 0 0
0 0 0
0 0 0
0 0 0
0 0 0
0 0 0
0 0 0
0 0 0
0 0 0
0 0 0
0 0 0
0 0 0
0 0 0
0 0 0
0 0 0
0 0 0
0 0 0
0 0 0
0 0 0
0 0 0
0 0 0
0 0 0
0 0 0
0 0 0
0 0 0
0 0 0
0 0 0
0 0 0
0 0 0
0 0 0
0 0 0
0 0 0
0 0 0
0 0 0
0 0 0
0 0 0
0 0 0
0 0 0
0 0 0
0 0 0
0 0 0
0 0 0
0 0 0
0 0 0
0 0 0
0 0 0
0 0 0
0 0 0
0 0 0
0 0 0
0 0 0
0 0 0
0 0 0
0 0 0
0 0 0
0 0 0
0 0 0
0 0 0
0 0 0
0 0 0
0 0 0
0 0 0
0 0 0
0 0 0
0 0 0
0 0 0
0 0 0
0 0 0
0 0 0
0 0 0
0 0 0
0 0 0
0 0 0
0 0 0
0 0 0
0 0 0
0 0 0
0 0 0
0 0 0
0 0 0
0 0 0
0 0 0
0 0 0
0 0 0
0 0 0
0 0 0
0 0 0
0 0 0
0 0 0
0 0 0
0 0 0
0 0 0
0 0 0
0 0 0
0 0 0
0 0 0
0 0 0
0 0 0
0 0 0
0 0 0
0 0 0
0 0 0
0 0 0
0 0 0
0 0 0
0 0 0
0 0 0
0 0 0
0 0 0
0 0 0
0 0 0
0 0 0
0 0 0
0 0 0
0 0 0
0 0 0
0 0 0
0 0 0
0 0 0
0 0 0
0 0 0
0 0 0
0 0 0
0 0 0
0 0 0
0 0 0
0 0 0
0 0 0
0 0 0
0 0 0
0 0 0
0 0 0
0 0 0
0 0 0
0 0 0
0 0 0
0 0 0
0 0 0
0 0 0
0 0 0
0 0 0
0 0 0
0 0 0
0 0 0
0 0 0
0 0 0
0 0 0
0 0 0
0 0 0
0 0 0
0 0 0
0 0 0
0 0 0
0 0 0
0 0 0
0 0 0
0 0 0
0 0 0
0 0 0
0 0 0
0 0 0
0 0 0
0 0 0
0 0 0
0 0 0
0 0 0
0 0 0
0 0 0
0 0 0
0 0 0
0 0 0
0 0 0
0 0 0
0 0 0
0 0 0
0 0 0
0 0 0
0 0 0
0 0 0
0 0 0
0 0 0
0 0 0
0 0 0
0 0 0
0 0 0
0 0 0
0 0 0
0 0 0
0 0 0
0 0 0
0 0 0
0 0 0
0 0 0
0 0 0
0 0 0
0 0 0
0 0 0
0 0 0
0 0 0
0 0 0
0 0 0
0 0 0
0 0 0
0 0 0
0 0 0
0 0 0
0 0 0
0 0 0
0 0 0
0 0 0
0 0 0
0 0 0
0 0 0
0 0 0
0 0 0
0 0 0
0 0 0
0 0 0
0 0 0
0 0 0
0 0 0
0 0 0
0 0 0
0 0 0
0 0 0
0 0 0
0 0 0
0 0 0
0 0 0
0 0 0
0 0 0
0 0 0
0 0 0
0 0 0
0 0 0
0 0 0
0 0 0
0 0 0
0 0 0
0 0 0
0 0 0
0 0 0
0 0 0
0 0 0
0 0 0
0 0 0
0 0 0
255 255 255
255 255 255
255 255 255
255 255 255
255 255 255
255 255 255
255 255 255
255 255 255
255 255 255
255 255 255
255 255 255
255 255 255
255 255 255
255 255 255
255 255 255
255 255 255
255 255 255
255 255 255
255 255 255
255 255 255
255 255 255
255 255 255
255 255 255
255 255 255
255 255 255
255 255 255
255 255 255
255 255 255
255 255 255
255 255 255
255 255 255
255 255 255
255 255 255
255 255 255
255 255 255
255 255 255
255 255 255
255 255 255
255 255 255
255 255 255
255 255 255
255 255 255
255 255 255
255 255 255
255 255 255
255 255 255
255 255 255
255 255 255
255 255 255
255 255 255
255 255 255
255 255 255
255 255 255
255 255 255
255 255 255
255 255 255
255 255 255
255 255 255
255 255 255
255 255 255
255 255 255
255 255 255
255 255 255
255 255 255
255 255 255
255 255 255
255 255 255
255 255 255
255 255 255
255 255 255
255 255 255
255 255 255
255 255 255
255 255 255
255 255 255
255 255 255
255 255 255
255 255 255
255 255 255
255 255 255
255 255 255
255 255 255
255 255 255
255 255 255
255 255 255
255 255 255
255 255 255
255 255 255
255 255 255
255 255 255
255 255 255
255 255 255
255 255 255
255 255 255
255 255 255
255 255 255
255 255 255
255 255 255
255 255 255
255 255 255
255 255 255
255 255 255
255 255 255
255 255 255
255 255 255
255 255 255
255 255 255
255 255 255
255 255 255
255 255 255
255 255 255
255 255 255
0 0 0
0 0 0
0 0 0
0 0 0
0 0 0
0 0 0
0 0 0
0 0 0
0 0 0
0 0 0
0 0 0
0 0 0
0 0 0
0 0 0
0 0 0
0 0 0
0 0 0
0 0 0
0 0 0
0 0 0
0 0 0
0 0 0
0 0 0
0 0 0
0 0 0
0 0 0
0 0 0
0 0 0
0 0 0
0 0 0
0 0 0
0 0 0
0 0 0
0 0 0
0 0 0
0 0 0
0 0 0
0 0 0
0 0 0
0 0 0
0 0 0
0 0 0
0 0 0
0 0 0
0 0 0
0 0 0
0 0 0
0 0 0
0 0 0
0 0 0
0 0 0
0 0 0
0 0 0
0 0 0
0 0 0
0 0 0
0 0 0
0 0 0
0 0 0
0 0 0
0 0 0
0 0 0
0 0 0
0 0 0
0 0 0
0 0 0
0 0 0
0 0 0
0 0 0
0 0 0
0 0 0
0 0 0
0 0 0
0 0 0
0 0 0
0 0 0
0 0 0
0 0 0
0 0 0
0 0 0
0 0 0
0 0 0
0 0 0
0 0 0
0 0 0
0 0 0
0 0 0
0 0 0
0 0 0
0 0 0
0 0 0
0 0 0
0 0 0
0 0 0
0 0 0
0 0 0
0 0 0
0 0 0
0 0 0
0 0 0
0 0 0
0 0 0
0 0 0
0 0 0
0 0 0
0 0 0
0 0 0
0 0 0
0 0 0
0 0 0
0 0 0
0 0 0
0 0 0
0 0 0
0 0 0
0 0 0
0 0 0
0 0 0
0 0 0
0 0 0
0 0 0
0 0 0
0 0 0
0 0 0
0 0 0
0 0 0
0 0 0
0 0 0
0 0 0
0 0 0
0 0 0
0 0 0
0 0 0
0 0 0
0 0 0
0 0 0
0 0 0
0 0 0
0 0 0
0 0 0
0 0 0
0 0 0
0 0 0
0 0 0
0 0 0
0 0 0
0 0 0
0 0 0
0 0 0
0 0 0
0 0 0
0 0 0
0 0 0
0 0 0
0 0 0
0 0 0
0 0 0
0 0 0
0 0 0
0 0 0
0 0 0
0 0 0
0 0 0
0 0 0
0 0 0
0 0 0
0 0 0
0 0 0
0 0 0
0 0 0
0 0 0
0 0 0
0 0 0
0 0 0
0 0 0
0 0 0
0 0 0
0 0 0
0 0 0
0 0 0
0 0 0
0 0 0
0 0 0
0 0 0
0 0 0
0 0 0
0 0 0
0 0 0
0 0 0
0 0 0
0 0 0
0 0 0
0 0 0
0 0 0
0 0 0
0 0 0
0 0 0
0 0 0
0 0 0
0 0 0
0 0 0
0 0 0
0 0 0
0 0 0
0 0 0
0 0 0
0 0 0
0 0 0
0 0 0
0 0 0
0 0 0
0 0 0
0 0 0
0 0 0
0 0 0
0 0 0
0 0 0
0 0 0
0 0 0
0 0 0
0 0 0
0 0 0
0 0 0
0 0 0
0 0 0
0 0 0
0 0 0
0 0 0
0 0 0
0 0 0
0 0 0
0 0 0
0 0 0
0 0 0
0 0 0
0 0 0
0 0 0
0 0 0
0 0 0
0 0 0
0 0 0
0 0 0
0 0 0
0 0 0
0 0 0
0 0 0
0 0 0
0 0 0
0 0 0
0 0 0
0 0 0
0 0 0
0 0 0
0 0 0
0 0 0
0 0 0
0 0 0
0 0 0
0 0 0
0 0 0
0 0 0
0 0 0
0 0 0
0 0 0
0 0 0
0 0 0
0 0 0
0 0 0
0 0 0
0 0 0
0 0 0
0 0 0
0 0 0
0 0 0
0 0 0
0 0 0
0 0 0
0 0 0
0 0 0
0 0 0
0 0 0
0 0 0
0 0 0
0 0 0
0 0 0
0 0 0
0 0 0
0 0 0
255 255 255
255 255 255
255 255 255
255 255 255
255 255 255
255 255 255
255 255 255
255 255 255
255 255 255
255 255 255
255 255 255
255 255 255
255 255 255
255 255 255
255 255 255
255 255 255
255 255 255
255 255 255
255 255 255
255 255 255
255 255 255
255 255 255
255 255 255
255 255 255
255 255 255
255 255 255
255 255 255
255 255 255
255 255 255
255 255 255
255 255 255
255 255 255
255 255 255
255 255 255
255 255 255
255 255 255
255 255 255
255 255 255
255 255 255
255 255 255
255 255 255
255 255 255
255 255 255
255 255 255
255 255 255
255 255 255
255 255 255
255 255 255
255 255 255
255 255 255
255 255 255
255 255 255
255 255 255
255 255 255
255 255 255
255 255 255
255 255 255
255 255 255
255 255 255
255 255 255
255 255 255
255 255 255
255 255 255
255 255 255
255 255 255
255 255 255
255 255 255
255 255 255
255 255 255
255 255 255
255 255 255
255 255 255
255 255 255
255 255 255
255 255 255
255 255 255
255 255 255
255 255 255
255 255 255
255 255 255
255 255 255
255 255 255
255 255 255
255 255 255
255 255 255
255 255 255
255 255 255
255 255 255
255 255 255
255 255 255
255 255 255
255 255 255
255 255 255
255 255 255
255 255 255
255 255 255
255 255 255
255 255 255
255 255 255
255 255 255
255 255 255
255 255 255
255 255 255
255 255 255
255 255 255
255 255 255
255 255 255
255 255 255
255 255 255
255 255 255
255 255 255
255 255 255
0 0 0
0 0 0
0 0 0
0 0 0
0 0 0
0 0 0
0 0 0
0 0 0
0 0 0
0 0 0
0 0 0
0 0 0
0 0 0
0 0 0
0 0 0
0 0 0
0 0 0
0 0 0
0 0 0
0 0 0
0 0 0
0 0 0
0 0 0
0 0 0
0 0 0
0 0 0
0 0 0
0 0 0
0 0 0
0 0 0
0 0 0
0 0 0
0 0 0
0 0 0
0 0 0
0 0 0
0 0 0
0 0 0
0 0 0
0 0 0
0 0 0
0 0 0
0 0 0
0 0 0
0 0 0
0 0 0
0 0 0
0 0 0
0 0 0
0 0 0
0 0 0
0 0 0
0 0 0
0 0 0
0 0 0
0 0 0
0 0 0
0 0 0
0 0 0
0 0 0
0 0 0
0 0 0
0 0 0
0 0 0
0 0 0
0 0 0
0 0 0
0 0 0
0 0 0
0 0 0
0 0 0
0 0 0
0 0 0
0 0 0
0 0 0
0 0 0
0 0 0
0 0 0
0 0 0
0 0 0
0 0 0
0 0 0
0 0 0
0 0 0
0 0 0
0 0 0
0 0 0
0 0 0
0 0 0
0 0 0
0 0 0
0 0 0
0 0 0
0 0 0
0 0 0
0 0 0
0 0 0
0 0 0
0 0 0
0 0 0
0 0 0
0 0 0
0 0 0
0 0 0
0 0 0
0 0 0
0 0 0
0 0 0
0 0 0
0 0 0
0 0 0
0 0 0
0 0 0
0 0 0
0 0 0
0 0 0
0 0 0
0 0 0
0 0 0
0 0 0
0 0 0
0 0 0
0 0 0
0 0 0
0 0 0
0 0 0
0 0 0
0 0 0
0 0 0
0 0 0
0 0 0
0 0 0
0 0 0
0 0 0
0 0 0
0 0 0
0 0 0
0 0 0
0 0 0
0 0 0
0 0 0
0 0 0
0 0 0
0 0 0
0 0 0
0 0 0
0 0 0
0 0 0
0 0 0
0 0 0
0 0 0
0 0 0
0 0 0
0 0 0
0 0 0
0 0 0
0 0 0
0 0 0
0 0 0
0 0 0
0 0 0
0 0 0
0 0 0
0 0 0
0 0 0
0 0 0
0 0 0
0 0 0
0 0 0
0 0 0
0 0 0
0 0 0
0 0 0
0 0 0
0 0 0
0 0 0
0 0 0
0 0 0
0 0 0
0 0 0
0 0 0
0 0 0
0 0 0
0 0 0
0 0 0
0 0 0
0 0 0
0 0 0
0 0 0
0 0 0
0 0 0
0 0 0
0 0 0
0 0 0
0 0 0
0 0 0
0 0 0
0 0 0
0 0 0
0 0 0
0 0 0
0 0 0
0 0 0
0 0 0
0 0 0
0 0 0
0 0 0
0 0 0
0 0 0
0 0 0
0 0 0
0 0 0
0 0 0
0 0 0
0 0 0
0 0 0
0 0 0
0 0 0
0 0 0
0 0 0
0 0 0
0 0 0
0 0 0
0 0 0
0 0 0
0 0 0
0 0 0
0 0 0
0 0 0
0 0 0
0 0 0
0 0 0
0 0 0
0 0 0
0 0 0
0 0 0
0 0 0
0 0 0
0 0 0
0 0 0
0 0 0
0 0 0
0 0 0
0 0 0
0 0 0
0 0 0
0 0 0
0 0 0
0 0 0
0 0 0
0 0 0
0 0 0
0 0 0
0 0 0
0 0 0
0 0 0
0 0 0
0 0 0
0 0 0
0 0 0
0 0 0
0 0 0
0 0 0
0 0 0
0 0 0
0 0 0
0 0 0
0 0 0
0 0 0
0 0 0
0 0 0
0 0 0
0 0 0
0 0 0
0 0 0
0 0 0
0 0 0
0 0 0
0 0 0
0 0 0
0 0 0
0 0 0
0 0 0
0 0 0
0 0 0
0 0 0
0 0 0
0 0 0
72 72 72
255 255 255
255 255 255
255 255 255
255 255 255
255 255 255
255 255 255
255 255 255
255 255 255
255 255 255
255 255 255
255 255 255
255 255 255
255 255 255
255 255 255
255 255 255
255 255 255
255 255 255
255 255 255
255 255 255
255 255 255
255 255 255
255 255 255
255 255 255
255 255 255
255 255 255
255 255 255
255 255 255
255 255 255
255 255 255
255 255 255
255 255 255
255 255 255
255 255 255
255 255 255
255 255 255
255 255 255
255 255 255
255 255 255
255 255 255
255 255 255
255 255 255
255 255 255
255 255 255
255 255 255
255 255 255
255 255 255
255 255 255
255 255 255
255 255 255
255 255 255
255 255 255
255 255 255
255 255 255
255 255 255
255 255 255
255 255 255
255 255 255
255 255 255
255 255 255
255 255 255
255 255 255
255 255 255
255 255 255
255 255 255
255 255 255
255 255 255
255 255 255
255 255 255
255 255 255
255 255 255
255 255 255
255 255 255
255 255 255
255 255 255
255 255 255
255 255 255
255 255 255
255 255 255
255 255 255
255 255 255
255 255 255
255 255 255
255 255 255
255 255 255
255 255 255
255 255 255
255 255 255
255 255 255
255 255 255
255 255 255
255 255 255
255 255 255
255 255 255
255 255 255
255 255 255
255 255 255
255 255 255
255 255 255
255 255 255
255 255 255
255 255 255
255 255 255
255 255 255
255 255 255
255 255 255
255 255 255
255 255 255
255 255 255
255 255 255
255 255 255
0 0 0
0 0 0
0 0 0
0 0 0
0 0 0
0 0 0
0 0 0
0 0 0
0 0 0
0 0 0
0 0 0
0 0 0
0 0 0
0 0 0
0 0 0
0 0 0
0 0 0
0 0 0
0 0 0
0 0 0
0 0 0
0 0 0
0 0 0
0 0 0
0 0 0
0 0 0
0 0 0
0 0 0
0 0 0
0 0 0
0 0 0
0 0 0
0 0 0
0 0 0
0 0 0
0 0 0
0 0 0
0 0 0
0 0 0
0 0 0
0 0 0
0 0 0
0 0 0
0 0 0
0 0 0
0 0 0
0 0 0
0 0 0
0 0 0
0 0 0
0 0 0
0 0 0
0 0 0
0 0 0
0 0 0
0 0 0
0 0 0
0 0 0
0 0 0
0 0 0
0 0 0
0 0 0
0 0 0
0 0 0
0 0 0
0 0 0
0 0 0
0 0 0
0 0 0
0 0 0
0 0 0
0 0 0
0 0 0
0 0 0
0 0 0
0 0 0
0 0 0
0 0 0
0 0 0
0 0 0
0 0 0
0 0 0
0 0 0
0 0 0
0 0 0
0 0 0
0 0 0
0 0 0
0 0 0
0 0 0
0 0 0
0 0 0
0 0 0
0 0 0
0 0 0
0 0 0
0 0 0
0 0 0
0 0 0
0 0 0
0 0 0
0 0 0
0 0 0
0 0 0
0 0 0
0 0 0
0 0 0
0 0 0
0 0 0
0 0 0
0 0 0
0 0 0
0 0 0
0 0 0
0 0 0
0 0 0
0 0 0
0 0 0
0 0 0
0 0 0
0 0 0
0 0 0
0 0 0
0 0 0
0 0 0
0 0 0
0 0 0
0 0 0
0 0 0
0 0 0
0 0 0
0 0 0
0 0 0
0 0 0
0 0 0
0 0 0
0 0 0
0 0 0
0 0 0
0 0 0
0 0 0
0 0 0
0 0 0
0 0 0
0 0 0
0 0 0
0 0 0
0 0 0
0 0 0
0 0 0
0 0 0
0 0 0
0 0 0
0 0 0
0 0 0
0 0 0
0 0 0
0 0 0
0 0 0
0 0 0
0 0 0
0 0 0
0 0 0
0 0 0
0 0 0
0 0 0
0 0 0
0 0 0
0 0 0
0 0 0
0 0 0
0 0 0
0 0 0
0 0 0
0 0 0
0 0 0
0 0 0
0 0 0
0 0 0
0 0 0
0 0 0
0 0 0
0 0 0
0 0 0
0 0 0
0 0 0
0 0 0
0 0 0
0 0 0
0 0 0
0 0 0
0 0 0
0 0 0
0 0 0
0 0 0
0 0 0
0 0 0
0 0 0
0 0 0
0 0 0
0 0 0
0 0 0
0 0 0
0 0 0
0 0 0
0 0 0
0 0 0
0 0 0
0 0 0
0 0 0
0 0 0
0 0 0
0 0 0
0 0 0
0 0 0
0 0 0
0 0 0
0 0 0
0 0 0
0 0 0
0 0 0
0 0 0
0 0 0
0 0 0
0 0 0
0 0 0
0 0 0
0 0 0
0 0 0
0 0 0
0 0 0
0 0 0
0 0 0
0 0 0
0 0 0
0 0 0
0 0 0
0 0 0
0 0 0
0 0 0
0 0 0
0 0 0
0 0 0
0 0 0
0 0 0
0 0 0
0 0 0
0 0 0
0 0 0
0 0 0
0 0 0
0 0 0
0 0 0
0 0 0
0 0 0
0 0 0
0 0 0
0 0 0
0 0 0
0 0 0
0 0 0
0 0 0
0 0 0
0 0 0
0 0 0
0 0 0
0 0 0
0 0 0
0 0 0
0 0 0
0 0 0
0 0 0
0 0 0
0 0 0
0 0 0
0 0 0
0 0 0
0 0 0
0 0 0
0 0 0
0 0 0
0 0 0
0 0 0
0 0 0
0 0 0
0 0 0
0 0 0
0 0 0
0 0 0
0 0 0
255 255 255
255 255 255
255 255 255
255 255 255
255 255 255
255 255 255
255 255 255
255 255 255
255 255 255
255 255 255
255 255 255
255 255 255
255 255 255
255 255 255
255 255 255
255 255 255
255 255 255
255 255 255
255 255 255
255 255 255
255 255 255
255 255 255
255 255 255
255 255 255
255 255 255
255 255 255
255 255 255
255 255 255
255 255 255
255 255 255
255 255 255
255 255 255
255 255 255
255 255 255
255 255 255
255 255 255
255 255 255
255 255 255
255 255 255
255 255 255
255 255 255
255 255 255
255 255 255
255 255 255
255 255 255
255 255 255
255 255 255
255 255 255
255 255 255
255 255 255
255 255 255
255 255 255
255 255 255
255 255 255
255 255 255
255 255 255
255 255 255
255 255 255
255 255 255
255 255 255
255 255 255
255 255 255
255 255 255
255 255 255
255 255 255
255 255 255
255 255 255
255 255 255
255 255 255
255 255 255
255 255 255
255 255 255
255 255 255
255 255 255
255 255 255
255 255 255
255 255 255
255 255 255
255 255 255
255 255 255
255 255 255
255 255 255
255 255 255
255 255 255
255 255 255
255 255 255
255 255 255
255 255 255
255 255 255
255 255 255
255 255 255
255 255 255
255 255 255
255 255 255
255 255 255
255 255 255
255 255 255
255 255 255
255 255 255
255 255 255
255 255 255
255 255 255
255 255 255
255 255 255
255 255 255
255 255 255
255 255 255
255 255 255
255 255 255
255 255 255
0 0 0
0 0 0
0 0 0
0 0 0
0 0 0
0 0 0
0 0 0
0 0 0
0 0 0
0 0 0
0 0 0
0 0 0
0 0 0
0 0 0
0 0 0
0 0 0
0 0 0
0 0 0
0 0 0
0 0 0
0 0 0
0 0 0
0 0 0
0 0 0
0 0 0
0 0 0
0 0 0
0 0 0
0 0 0
0 0 0
0 0 0
0 0 0
0 0 0
0 0 0
0 0 0
0 0 0
0 0 0
0 0 0
0 0 0
0 0 0
0 0 0
0 0 0
0 0 0
0 0 0
0 0 0
0 0 0
0 0 0
0 0 0
0 0 0
0 0 0
0 0 0
0 0 0
0 0 0
0 0 0
0 0 0
0 0 0
0 0 0
0 0 0
0 0 0
0 0 0
0 0 0
0 0 0
0 0 0
0 0 0
0 0 0
0 0 0
0 0 0
0 0 0
0 0 0
0 0 0
0 0 0
0 0 0
0 0 0
0 0 0
0 0 0
0 0 0
0 0 0
0 0 0
0 0 0
0 0 0
0 0 0
0 0 0
0 0 0
0 0 0
0 0 0
0 0 0
0 0 0
0 0 0
0 0 0
0 0 0
0 0 0
0 0 0
0 0 0
0 0 0
0 0 0
0 0 0
0 0 0
0 0 0
0 0 0
0 0 0
0 0 0
0 0 0
0 0 0
0 0 0
0 0 0
0 0 0
0 0 0
0 0 0
0 0 0
0 0 0
0 0 0
0 0 0
0 0 0
0 0 0
0 0 0
0 0 0
0 0 0
0 0 0
0 0 0
0 0 0
0 0 0
0 0 0
0 0 0
0 0 0
0 0 0
0 0 0
0 0 0
0 0 0
0 0 0
0 0 0
0 0 0
0 0 0
0 0 0
0 0 0
0 0 0
0 0 0
0 0 0
0 0 0
0 0 0
0 0 0
0 0 0
0 0 0
0 0 0
0 0 0
0 0 0
0 0 0
0 0 0
0 0 0
0 0 0
0 0 0
0 0 0
0 0 0
0 0 0
0 0 0
0 0 0
0 0 0
0 0 0
0 0 0
0 0 0
0 0 0
0 0 0
0 0 0
0 0 0
0 0 0
0 0 0
0 0 0
0 0 0
0 0 0
0 0 0
0 0 0
0 0 0
0 0 0
0 0 0
0 0 0
0 0 0
0 0 0
0 0 0
0 0 0
0 0 0
0 0 0
0 0 0
0 0 0
0 0 0
0 0 0
0 0 0
0 0 0
0 0 0
0 0 0
0 0 0
0 0 0
0 0 0
0 0 0
0 0 0
0 0 0
0 0 0
0 0 0
0 0 0
0 0 0
0 0 0
0 0 0
0 0 0
0 0 0
0 0 0
0 0 0
0 0 0
0 0 0
0 0 0
0 0 0
0 0 0
0 0 0
0 0 0
0 0 0
0 0 0
0 0 0
0 0 0
0 0 0
0 0 0
0 0 0
0 0 0
0 0 0
0 0 0
0 0 0
0 0 0
0 0 0
0 0 0
0 0 0
0 0 0
0 0 0
0 0 0
0 0 0
0 0 0
0 0 0
0 0 0
0 0 0
0 0 0
0 0 0
0 0 0
0 0 0
0 0 0
0 0 0
0 0 0
0 0 0
0 0 0
0 0 0
0 0 0
0 0 0
0 0 0
0 0 0
0 0 0
0 0 0
0 0 0
0 0 0
0 0 0
0 0 0
0 0 0
0 0 0
0 0 0
0 0 0
0 0 0
0 0 0
0 0 0
0 0 0
0 0 0
0 0 0
0 0 0
0 0 0
0 0 0
0 0 0
0 0 0
0 0 0
0 0 0
0 0 0
0 0 0
0 0 0
0 0 0
0 0 0
0 0 0
0 0 0
0 0 0
0 0 0
0 0 0
0 0 0
0 0 0
0 0 0
0 0 0
0 0 0
0 0 0
0 0 0
0 0 0
0 0 0
161 161 161
255 255 255
255 255 255
255 255 255
255 255 255
255 255 255
255 255 255
255 255 255
255 255 255
255 255 255
255 255 255
255 255 255
255 255 255
255 255 255
255 255 255
255 255 255
255 255 255
255 255 255
255 255 255
255 255 255
255 255 255
255 255 255
255 255 255
255 255 255
255 255 255
255 255 255
255 255 255
255 255 255
255 255 255
255 255 255
255 255 255
255 255 255
255 255 255
255 255 255
255 255 255
255 255 255
255 255 255
255 255 255
255 255 255
255 255 255
255 255 255
255 255 255
255 255 255
255 255 255
255 255 255
255 255 255
255 255 255
255 255 255
255 255 255
255 255 255
255 255 255
255 255 255
255 255 255
255 255 255
255 255 255
255 255 255
255 255 255
255 255 255
255 255 255
255 255 255
255 255 255
255 255 255
255 255 255
255 255 255
255 255 255
255 255 255
255 255 255
255 255 255
255 255 255
255 255 255
255 255 255
255 255 255
255 255 255
255 255 255
255 255 255
255 255 255
255 255 255
255 255 255
255 255 255
255 255 255
255 255 255
255 255 255
255 255 255
255 255 255
255 255 255
255 255 255
255 255 255
255 255 255
255 255 255
255 255 255
255 255 255
255 255 255
255 255 255
255 255 255
255 255 255
255 255 255
255 255 255
255 255 255
255 255 255
255 255 255
255 255 255
255 255 255
255 255 255
255 255 255
255 255 255
255 255 255
255 255 255
255 255 255
255 255 255
184 184 184
0 0 0
0 0 0
0 0 0
0 0 0
0 0 0
0 0 0
0 0 0
0 0 0
0 0 0
0 0 0
0 0 0
0 0 0
0 0 0
0 0 0
0 0 0
0 0 0
0 0 0
0 0 0
0 0 0
0 0 0
0 0 0
0 0 0
0 0 0
0 0 0
0 0 0
0 0 0
0 0 0
0 0 0
0 0 0
0 0 0
0 0 0
0 0 0
0 0 0
0 0 0
0 0 0
0 0 0
0 0 0
0 0 0
0 0 0
0 0 0
0 0 0
0 0 0
0 0 0
0 0 0
0 0 0
0 0 0
0 0 0
0 0 0
0 0 0
0 0 0
0 0 0
0 0 0
0 0 0
0 0 0
0 0 0
0 0 0
0 0 0
0 0 0
0 0 0
0 0 0
0 0 0
0 0 0
0 0 0
0 0 0
0 0 0
0 0 0
0 0 0
0 0 0
0 0 0
0 0 0
0 0 0
0 0 0
0 0 0
0 0 0
0 0 0
0 0 0
0 0 0
0 0 0
0 0 0
0 0 0
0 0 0
0 0 0
0 0 0
0 0 0
0 0 0
0 0 0
0 0 0
0 0 0
0 0 0
0 0 0
0 0 0
0 0 0
0 0 0
0 0 0
0 0 0
0 0 0
0 0 0
0 0 0
0 0 0
0 0 0
0 0 0
0 0 0
0 0 0
0 0 0
0 0 0
0 0 0
0 0 0
0 0 0
0 0 0
0 0 0
0 0 0
0 0 0
0 0 0
0 0 0
0 0 0
0 0 0
0 0 0
0 0 0
0 0 0
0 0 0
0 0 0
0 0 0
0 0 0
0 0 0
0 0 0
0 0 0
0 0 0
0 0 0
0 0 0
0 0 0
0 0 0
0 0 0
0 0 0
0 0 0
0 0 0
0 0 0
0 0 0
0 0 0
0 0 0
0 0 0
0 0 0
0 0 0
0 0 0
0 0 0
0 0 0
0 0 0
0 0 0
0 0 0
0 0 0
0 0 0
0 0 0
0 0 0
0 0 0
0 0 0
0 0 0
0 0 0
0 0 0
0 0 0
0 0 0
0 0 0
0 0 0
0 0 0
0 0 0
0 0 0
0 0 0
0 0 0
0 0 0
0 0 0
0 0 0
0 0 0
0 0 0
0 0 0
0 0 0
0 0 0
0 0 0
0 0 0
0 0 0
0 0 0
0 0 0
0 0 0
0 0 0
0 0 0
0 0 0
0 0 0
0 0 0
0 0 0
0 0 0
0 0 0
0 0 0
0 0 0
0 0 0
0 0 0
0 0 0
0 0 0
0 0 0
0 0 0
0 0 0
0 0 0
0 0 0
0 0 0
0 0 0
0 0 0
0 0 0
0 0 0
0 0 0
0 0 0
0 0 0
0 0 0
0 0 0
0 0 0
0 0 0
0 0 0
0 0 0
0 0 0
0 0 0
0 0 0
0 0 0
0 0 0
0 0 0
0 0 0
0 0 0
0 0 0
0 0 0
0 0 0
0 0 0
0 0 0
0 0 0
0 0 0
0 0 0
0 0 0
0 0 0
0 0 0
0 0 0
0 0 0
0 0 0
0 0 0
0 0 0
0 0 0
0 0 0
0 0 0
0 0 0
0 0 0
0 0 0
0 0 0
0 0 0
0 0 0
0 0 0
0 0 0
0 0 0
0 0 0
0 0 0
0 0 0
0 0 0
0 0 0
0 0 0
0 0 0
0 0 0
0 0 0
0 0 0
0 0 0
0 0 0
0 0 0
0 0 0
0 0 0
0 0 0
0 0 0
0 0 0
0 0 0
0 0 0
0 0 0
0 0 0
0 0 0
0 0 0
0 0 0
0 0 0
0 0 0
0 0 0
0 0 0
0 0 0
0 0 0
0 0 0
0 0 0
0 0 0
0 0 0
0 0 0
0 0 0
0 0 0
0 0 0
0 0 0
0 0 0
0 0 0
255 255 255
255 255 255
255 255 255
255 255 255
255 255 255
255 255 255
255 255 255
255 255 255
255 255 255
255 255 255
255 255 255
255 255 255
255 255 255
255 255 255
255 255 255
255 255 255
255 255 255
255 255 255
255 255 255
255 255 255
255 255 255
255 255 255
255 255 255
255 255 255
255 255 255
255 255 255
255 255 255
255 255 255
255 255 255
255 255 255
255 255 255
255 255 255
255 255 255
255 255 255
255 255 255
255 255 255
255 255 255
255 255 255
255 255 255
255 255 255
255 255 255
255 255 255
255 255 255
255 255 255
255 255 255
255 255 255
255 255 255
255 255 255
255 255 255
255 255 255
255 255 255
255 255 255
255 255 255
255 255 255
255 255 255
255 255 255
255 255 255
255 255 255
255 255 255
255 255 255
255 255 255
255 255 255
255 255 255
255 255 255
255 255 255
255 255 255
255 255 255
255 255 255
255 255 255
255 255 255
255 255 255
255 255 255
255 255 255
255 255 255
255 255 255
255 255 255
255 255 255
255 255 255
255 255 255
255 255 255
255 255 255
255 255 255
255 255 255
255 255 255
255 255 255
255 255 255
255 255 255
255 255 255
255 255 255
255 255 255
255 255 255
255 255 255
255 255 255
255 255 255
255 255 255
255 255 255
255 255 255
255 255 255
255 255 255
255 255 255
255 255 255
255 255 255
255 255 255
255 255 255
255 255 255
255 255 255
255 255 255
255 255 255
0 0 0
0 0 0
0 0 0
0 0 0
0 0 0
0 0 0
0 0 0
0 0 0
0 0 0
0 0 0
0 0 0
0 0 0
0 0 0
0 0 0
0 0 0
0 0 0
0 0 0
0 0 0
0 0 0
0 0 0
0 0 0
0 0 0
0 0 0
0 0 0
0 0 0
0 0 0
0 0 0
0 0 0
0 0 0
0 0 0
0 0 0
0 0 0
0 0 0
0 0 0
0 0 0
0 0 0
0 0 0
0 0 0
0 0 0
0 0 0
0 0 0
0 0 0
0 0 0
0 0 0
0 0 0
0 0 0
0 0 0
0 0 0
0 0 0
0 0 0
0 0 0
0 0 0
0 0 0
0 0 0
0 0 0
0 0 0
0 0 0
0 0 0
0 0 0
0 0 0
0 0 0
0 0 0
0 0 0
0 0 0
0 0 0
0 0 0
0 0 0
0 0 0
0 0 0
0 0 0
0 0 0
0 0 0
0 0 0
0 0 0
0 0 0
0 0 0
0 0 0
0 0 0
0 0 0
0 0 0
0 0 0
0 0 0
0 0 0
0 0 0
0 0 0
0 0 0
0 0 0
0 0 0
0 0 0
0 0 0
0 0 0
0 0 0
0 0 0
0 0 0
0 0 0
0 0 0
0 0 0
0 0 0
0 0 0
0 0 0
0 0 0
0 0 0
0 0 0
0 0 0
0 0 0
0 0 0
0 0 0
0 0 0
0 0 0
0 0 0
0 0 0
0 0 0
0 0 0
0 0 0
0 0 0
0 0 0
0 0 0
0 0 0
0 0 0
0 0 0
0 0 0
0 0 0
0 0 0
0 0 0
0 0 0
0 0 0
0 0 0
0 0 0
0 0 0
0 0 0
0 0 0
0 0 0
0 0 0
0 0 0
0 0 0
0 0 0
0 0 0
0 0 0
0 0 0
0 0 0
0 0 0
0 0 0
0 0 0
0 0 0
0 0 0
0 0 0
0 0 0
0 0 0
0 0 0
0 0 0
0 0 0
0 0 0
0 0 0
0 0 0
0 0 0
0 0 0
0 0 0
0 0 0
0 0 0
0 0 0
0 0 0
0 0 0
0 0 0
0 0 0
0 0 0
0 0 0
0 0 0
0 0 0
0 0 0
0 0 0
0 0 0
0 0 0
0 0 0
0 0 0
0 0 0
0 0 0
0 0 0
0 0 0
0 0 0
0 0 0
0 0 0
0 0 0
0 0 0
0 0 0
0 0 0
0 0 0
0 0 0
0 0 0
0 0 0
0 0 0
0 0 0
0 0 0
0 0 0
0 0 0
0 0 0
0 0 0
0 0 0
0 0 0
0 0 0
0 0 0
0 0 0
0 0 0
0 0 0
0 0 0
0 0 0
0 0 0
0 0 0
0 0 0
0 0 0
0 0 0
0 0 0
0 0 0
0 0 0
0 0 0
0 0 0
0 0 0
0 0 0
0 0 0
0 0 0
0 0 0
0 0 0
0 0 0
0 0 0
0 0 0
0 0 0
0 0 0
0 0 0
0 0 0
0 0 0
0 0 0
0 0 0
0 0 0
0 0 0
0 0 0
0 0 0
0 0 0
0 0 0
0 0 0
0 0 0
0 0 0
0 0 0
0 0 0
0 0 0
0 0 0
0 0 0
0 0 0
0 0 0
0 0 0
0 0 0
0 0 0
0 0 0
0 0 0
0 0 0
0 0 0
0 0 0
0 0 0
0 0 0
0 0 0
0 0 0
0 0 0
0 0 0
0 0 0
0 0 0
0 0 0
0 0 0
0 0 0
0 0 0
0 0 0
0 0 0
0 0 0
0 0 0
0 0 0
0 0 0
0 0 0
0 0 0
0 0 0
0 0 0
0 0 0
0 0 0
0 0 0
0 0 0
0 0 0
0 0 0
0 0 0
0 0 0
0 0 0
0 0 0
0 0 0
0 0 0
0 0 0
0 0 0
0 0 0
211 211 211
255 255 255
255 255 255
255 255 255
255 255 255
255 255 255
255 255 255
255 255 255
255 255 255
255 255 255
255 255 255
255 255 255
255 255 255
255 255 255
255 255 255
255 255 255
255 255 255
255 255 255
255 255 255
255 255 255
255 255 255
255 255 255
255 255 255
255 255 255
255 255 255
255 255 255
255 255 255
255 255 255
255 255 255
255 255 255
255 255 255
255 255 255
255 255 255
255 255 255
255 255 255
255 255 255
255 255 255
255 255 255
255 255 255
255 255 255
255 255 255
255 255 255
255 255 255
255 255 255
255 255 255
255 255 255
255 255 255
255 255 255
255 255 255
255 255 255
255 255 255
255 255 255
255 255 255
255 255 255
255 255 255
255 255 255
255 255 255
255 255 255
255 255 255
255 255 255
255 255 255
255 255 255
255 255 255
255 255 255
255 255 255
255 255 255
255 255 255
255 255 255
255 255 255
255 255 255
255 255 255
255 255 255
255 255 255
255 255 255
255 255 255
255 255 255
255 255 255
255 255 255
255 255 255
255 255 255
255 255 255
255 255 255
255 255 255
255 255 255
255 255 255
255 255 255
255 255 255
255 255 255
255 255 255
255 255 255
255 255 255
255 255 255
255 255 255
255 255 255
255 255 255
255 255 255
255 255 255
255 255 255
255 255 255
255 255 255
255 255 255
255 255 255
255 255 255
255 255 255
255 255 255
255 255 255
255 255 255
204 204 204
0 0 0
0 0 0
0 0 0
0 0 0
0 0 0
0 0 0
0 0 0
0 0 0
0 0 0
0 0 0
0 0 0
0 0 0
0 0 0
0 0 0
0 0 0
0 0 0
0 0 0
0 0 0
0 0 0
0 0 0
0 0 0
0 0 0
0 0 0
0 0 0
0 0 0
0 0 0
0 0 0
0 0 0
0 0 0
0 0 0
0 0 0
0 0 0
0 0 0
0 0 0
0 0 0
0 0 0
0 0 0
0 0 0
0 0 0
0 0 0
0 0 0
0 0 0
0 0 0
0 0 0
0 0 0
0 0 0
0 0 0
0 0 0
0 0 0
0 0 0
0 0 0
0 0 0
0 0 0
0 0 0
0 0 0
0 0 0
0 0 0
0 0 0
0 0 0
0 0 0
0 0 0
0 0 0
0 0 0
0 0 0
0 0 0
0 0 0
0 0 0
0 0 0
0 0 0
0 0 0
0 0 0
0 0 0
0 0 0
0 0 0
0 0 0
0 0 0
0 0 0
0 0 0
0 0 0
0 0 0
0 0 0
0 0 0
0 0 0
0 0 0
0 0 0
0 0 0
0 0 0
0 0 0
0 0 0
0 0 0
0 0 0
0 0 0
0 0 0
0 0 0
0 0 0
0 0 0
0 0 0
0 0 0
0 0 0
0 0 0
0 0 0
0 0 0
0 0 0
0 0 0
0 0 0
0 0 0
0 0 0
0 0 0
0 0 0
0 0 0
0 0 0
0 0 0
0 0 0
0 0 0
0 0 0
0 0 0
0 0 0
0 0 0
0 0 0
0 0 0
0 0 0
0 0 0
0 0 0
0 0 0
0 0 0
0 0 0
0 0 0
0 0 0
0 0 0
0 0 0
0 0 0
0 0 0
0 0 0
0 0 0
0 0 0
0 0 0
0 0 0
0 0 0
0 0 0
0 0 0
0 0 0
0 0 0
0 0 0
0 0 0
0 0 0
0 0 0
0 0 0
0 0 0
0 0 0
0 0 0
0 0 0
0 0 0
0 0 0
0 0 0
0 0 0
0 0 0
0 0 0
0 0 0
0 0 0
0 0 0
0 0 0
0 0 0
0 0 0
0 0 0
0 0 0
0 0 0
0 0 0
0 0 0
0 0 0
0 0 0
0 0 0
0 0 0
0 0 0
0 0 0
0 0 0
0 0 0
0 0 0
0 0 0
0 0 0
0 0 0
0 0 0
0 0 0
0 0 0
0 0 0
0 0 0
0 0 0
0 0 0
0 0 0
0 0 0
0 0 0
0 0 0
0 0 0
0 0 0
0 0 0
0 0 0
0 0 0
0 0 0
0 0 0
0 0 0
0 0 0
0 0 0
0 0 0
0 0 0
0 0 0
0 0 0
0 0 0
0 0 0
0 0 0
0 0 0
0 0 0
0 0 0
0 0 0
0 0 0
0 0 0
0 0 0
0 0 0
0 0 0
0 0 0
0 0 0
0 0 0
0 0 0
0 0 0
0 0 0
0 0 0
0 0 0
0 0 0
0 0 0
0 0 0
0 0 0
0 0 0
0 0 0
0 0 0
0 0 0
0 0 0
0 0 0
0 0 0
0 0 0
0 0 0
0 0 0
0 0 0
0 0 0
0 0 0
0 0 0
0 0 0
0 0 0
0 0 0
0 0 0
0 0 0
0 0 0
0 0 0
0 0 0
0 0 0
0 0 0
0 0 0
0 0 0
0 0 0
0 0 0
0 0 0
0 0 0
0 0 0
0 0 0
0 0 0
0 0 0
0 0 0
0 0 0
0 0 0
0 0 0
0 0 0
0 0 0
0 0 0
0 0 0
0 0 0
0 0 0
0 0 0
0 0 0
0 0 0
0 0 0
0 0 0
0 0 0
0 0 0
0 0 0
0 0 0
0 0 0
0 0 0
0 0 0
0 0 0
0 0 0
0 0 0
0 0 0
0 0 0
0 0 0
0 0 0
0 0 0
255 255 255
255 255 255
255 255 255
255 255 255
255 255 255
255 255 255
255 255 255
255 255 255
255 255 255
255 255 255
255 255 255
255 255 255
255 255 255
255 255 255
255 255 255
255 255 255
255 255 255
255 255 255
255 255 255
255 255 255
255 255 255
255 255 255
255 255 255
255 255 255
255 255 255
255 255 255
255 255 255
255 255 255
255 255 255
255 255 255
255 255 255
255 255 255
255 255 255
255 255 255
255 255 255
255 255 255
255 255 255
255 255 255
255 255 255
255 255 255
255 255 255
255 255 255
255 255 255
255 255 255
255 255 255
255 255 255
255 255 255
255 255 255
255 255 255
255 255 255
255 255 255
255 255 255
255 255 255
255 255 255
255 255 255
255 255 255
255 255 255
255 255 255
255 255 255
255 255 255
255 255 255
255 255 255
255 255 255
255 255 255
255 255 255
255 255 255
255 255 255
255 255 255
255 255 255
255 255 255
255 255 255
255 255 255
255 255 255
255 255 255
255 255 255
255 255 255
255 255 255
255 255 255
255 255 255
255 255 255
255 255 255
255 255 255
255 255 255
255 255 255
255 255 255
255 255 255
255 255 255
255 255 255
255 255 255
255 255 255
255 255 255
255 255 255
255 255 255
255 255 255
255 255 255
255 255 255
255 255 255
255 255 255
255 255 255
255 255 255
255 255 255
255 255 255
255 255 255
255 255 255
255 255 255
255 255 255
0 0 0
0 0 0
0 0 0
0 0 0
0 0 0
0 0 0
0 0 0
0 0 0
0 0 0
0 0 0
0 0 0
0 0 0
0 0 0
0 0 0
0 0 0
0 0 0
0 0 0
0 0 0
0 0 0
0 0 0
0 0 0
0 0 0
0 0 0
0 0 0
0 0 0
0 0 0
0 0 0
0 0 0
0 0 0
0 0 0
0 0 0
0 0 0
0 0 0
0 0 0
0 0 0
0 0 0
0 0 0
0 0 0
0 0 0
0 0 0
0 0 0
0 0 0
0 0 0
0 0 0
0 0 0
0 0 0
0 0 0
0 0 0
0 0 0
0 0 0
0 0 0
0 0 0
0 0 0
0 0 0
0 0 0
0 0 0
0 0 0
0 0 0
0 0 0
0 0 0
0 0 0
0 0 0
0 0 0
0 0 0
0 0 0
0 0 0
0 0 0
0 0 0
0 0 0
0 0 0
0 0 0
0 0 0
0 0 0
0 0 0
0 0 0
0 0 0
0 0 0
0 0 0
0 0 0
0 0 0
0 0 0
0 0 0
0 0 0
0 0 0
0 0 0
0 0 0
0 0 0
0 0 0
0 0 0
0 0 0
0 0 0
0 0 0
0 0 0
0 0 0
0 0 0
0 0 0
0 0 0
0 0 0
0 0 0
0 0 0
0 0 0
0 0 0
0 0 0
0 0 0
0 0 0
0 0 0
0 0 0
0 0 0
0 0 0
0 0 0
0 0 0
0 0 0
0 0 0
0 0 0
0 0 0
0 0 0
0 0 0
0 0 0
0 0 0
0 0 0
0 0 0
0 0 0
0 0 0
0 0 0
0 0 0
0 0 0
0 0 0
0 0 0
0 0 0
0 0 0
0 0 0
0 0 0
0 0 0
0 0 0
0 0 0
0 0 0
0 0 0
0 0 0
0 0 0
0 0 0
0 0 0
0 0 0
0 0 0
0 0 0
0 0 0
0 0 0
0 0 0
0 0 0
0 0 0
0 0 0
0 0 0
0 0 0
0 0 0
0 0 0
0 0 0
0 0 0
0 0 0
0 0 0
0 0 0
0 0 0
0 0 0
0 0 0
0 0 0
0 0 0
0 0 0
0 0 0
0 0 0
0 0 0
0 0 0
0 0 0
0 0 0
0 0 0
0 0 0
0 0 0
0 0 0
0 0 0
0 0 0
0 0 0
0 0 0
0 0 0
0 0 0
0 0 0
0 0 0
0 0 0
0 0 0
0 0 0
0 0 0
0 0 0
0 0 0
0 0 0
0 0 0
0 0 0
0 0 0
0 0 0
0 0 0
0 0 0
0 0 0
0 0 0
0 0 0
0 0 0
0 0 0
0 0 0
0 0 0
0 0 0
0 0 0
0 0 0
0 0 0
0 0 0
0 0 0
0 0 0
0 0 0
0 0 0
0 0 0
0 0 0
0 0 0
0 0 0
0 0 0
0 0 0
0 0 0
0 0 0
0 0 0
0 0 0
0 0 0
0 0 0
0 0 0
0 0 0
0 0 0
0 0 0
0 0 0
0 0 0
0 0 0
0 0 0
0 0 0
0 0 0
0 0 0
0 0 0
0 0 0
0 0 0
0 0 0
0 0 0
0 0 0
0 0 0
0 0 0
0 0 0
0 0 0
0 0 0
0 0 0
0 0 0
0 0 0
0 0 0
0 0 0
0 0 0
0 0 0
0 0 0
0 0 0
0 0 0
0 0 0
0 0 0
0 0 0
0 0 0
0 0 0
0 0 0
0 0 0
0 0 0
0 0 0
0 0 0
0 0 0
0 0 0
0 0 0
0 0 0
0 0 0
0 0 0
0 0 0
0 0 0
0 0 0
0 0 0
0 0 0
0 0 0
0 0 0
0 0 0
0 0 0
0 0 0
0 0 0
0 0 0
0 0 0
0 0 0
0 0 0
0 0 0
0 0 0
0 0 0
0 0 0
0 0 0
0 0 0
0 0 0
234 234 234
255 255 255
255 255 255
255 255 255
255 255 255
255 255 255
255 255 255
255 255 255
255 255 255
255 255 255
255 255 255
255 255 255
255 255 255
255 255 255
255 255 255
255 255 255
255 255 255
255 255 255
255 255 255
255 255 255
255 255 255
255 255 255
255 255 255
255 255 255
255 255 255
255 255 255
255 255 255
255 255 255
255 255 255
255 255 255
255 255 255
255 255 255
255 255 255
255 255 255
255 255 255
255 255 255
255 255 255
255 255 255
255 255 255
255 255 255
255 255 255
255 255 255
255 255 255
255 255 255
255 255 255
255 255 255
255 255 255
255 255 255
255 255 255
255 255 255
255 255 255
255 255 255
255 255 255
255 255 255
255 255 255
255 255 255
255 255 255
255 255 255
255 255 255
255 255 255
255 255 255
255 255 255
255 255 255
255 255 255
255 255 255
255 255 255
255 255 255
255 255 255
255 255 255
255 255 255
255 255 255
255 255 255
255 255 255
255 255 255
255 255 255
255 255 255
255 255 255
255 255 255
255 255 255
255 255 255
255 255 255
255 255 255
255 255 255
255 255 255
255 255 255
255 255 255
255 255 255
255 255 255
255 255 255
255 255 255
255 255 255
255 255 255
255 255 255
255 255 255
255 255 255
255 255 255
255 255 255
255 255 255
255 255 255
255 255 255
255 255 255
255 255 255
255 255 255
255 255 255
255 255 255
234 234 234
0 0 0
0 0 0
0 0 0
0 0 0
0 0 0
0 0 0
0 0 0
0 0 0
0 0 0
0 0 0
0 0 0
0 0 0
0 0 0
0 0 0
0 0 0
0 0 0
0 0 0
0 0 0
0 0 0
0 0 0
0 0 0
0 0 0
0 0 0
0 0 0
0 0 0
0 0 0
0 0 0
0 0 0
0 0 0
0 0 0
0 0 0
0 0 0
0 0 0
0 0 0
0 0 0
0 0 0
0 0 0
0 0 0
0 0 0
0 0 0
0 0 0
0 0 0
0 0 0
0 0 0
0 0 0
0 0 0
0 0 0
0 0 0
0 0 0
0 0 0
0 0 0
0 0 0
0 0 0
0 0 0
0 0 0
0 0 0
0 0 0
0 0 0
0 0 0
0 0 0
0 0 0
0 0 0
0 0 0
0 0 0
0 0 0
0 0 0
0 0 0
0 0 0
0 0 0
0 0 0
0 0 0
0 0 0
0 0 0
0 0 0
0 0 0
0 0 0
0 0 0
0 0 0
0 0 0
0 0 0
0 0 0
0 0 0
0 0 0
0 0 0
0 0 0
0 0 0
0 0 0
0 0 0
0 0 0
0 0 0
0 0 0
0 0 0
0 0 0
0 0 0
0 0 0
0 0 0
0 0 0
0 0 0
0 0 0
0 0 0
0 0 0
0 0 0
0 0 0
0 0 0
0 0 0
0 0 0
0 0 0
0 0 0
0 0 0
0 0 0
0 0 0
0 0 0
0 0 0
0 0 0
0 0 0
0 0 0
0 0 0
0 0 0
0 0 0
0 0 0
0 0 0
0 0 0
0 0 0
0 0 0
0 0 0
0 0 0
0 0 0
0 0 0
0 0 0
0 0 0
0 0 0
0 0 0
0 0 0
0 0 0
0 0 0
0 0 0
0 0 0
0 0 0
0 0 0
0 0 0
0 0 0
0 0 0
0 0 0
0 0 0
0 0 0
0 0 0
0 0 0
0 0 0
0 0 0
0 0 0
0 0 0
0 0 0
0 0 0
0 0 0
0 0 0
0 0 0
0 0 0
0 0 0
0 0 0
0 0 0
0 0 0
0 0 0
0 0 0
0 0 0
0 0 0
0 0 0
0 0 0
0 0 0
0 0 0
0 0 0
0 0 0
0 0 0
0 0 0
0 0 0
0 0 0
0 0 0
0 0 0
0 0 0
0 0 0
0 0 0
0 0 0
0 0 0
0 0 0
0 0 0
0 0 0
0 0 0
0 0 0
0 0 0
0 0 0
0 0 0
0 0 0
0 0 0
0 0 0
0 0 0
0 0 0
0 0 0
0 0 0
0 0 0
0 0 0
0 0 0
0 0 0
0 0 0
0 0 0
0 0 0
0 0 0
0 0 0
0 0 0
0 0 0
0 0 0
0 0 0
0 0 0
0 0 0
0 0 0
0 0 0
0 0 0
0 0 0
0 0 0
0 0 0
0 0 0
0 0 0
0 0 0
0 0 0
0 0 0
0 0 0
0 0 0
0 0 0
0 0 0
0 0 0
0 0 0
0 0 0
0 0 0
0 0 0
0 0 0
0 0 0
0 0 0
0 0 0
0 0 0
0 0 0
0 0 0
0 0 0
0 0 0
0 0 0
0 0 0
0 0 0
0 0 0
0 0 0
0 0 0
0 0 0
0 0 0
0 0 0
0 0 0
0 0 0
0 0 0
0 0 0
0 0 0
0 0 0
0 0 0
0 0 0
0 0 0
0 0 0
0 0 0
0 0 0
0 0 0
0 0 0
0 0 0
0 0 0
0 0 0
0 0 0
0 0 0
0 0 0
0 0 0
0 0 0
0 0 0
0 0 0
0 0 0
0 0 0
0 0 0
0 0 0
0 0 0
0 0 0
0 0 0
0 0 0
0 0 0
0 0 0
0 0 0
0 0 0
0 0 0
0 0 0
0 0 0
0 0 0
0 0 0
0 0 0
0 0 0
0 0 0
0 0 0
255 255 255
255 255 255
255 255 255
255 255 255
255 255 255
255 255 255
255 255 255
255 255 255
255 255 255
255 255 255
255 255 255
255 255 255
255 255 255
255 255 255
255 255 255
255 255 255
255 255 255
255 255 255
255 255 255
255 255 255
255 255 255
255 255 255
255 255 255
255 255 255
255 255 255
255 255 255
255 255 255
255 255 255
255 255 255
255 255 255
255 255 255
255 255 255
255 255 255
255 255 255
255 255 255
255 255 255
255 255 255
255 255 255
255 255 255
255 255 255
255 255 255
255 255 255
255 255 255
255 255 255
255 255 255
255 255 255
255 255 255
255 255 255
255 255 255
255 255 255
255 255 255
255 255 255
255 255 255
255 255 255
255 255 255
255 255 255
255 255 255
255 255 255
255 255 255
255 255 255
255 255 255
255 255 255
255 255 255
255 255 255
255 255 255
255 255 255
255 255 255
255 255 255
255 255 255
255 255 255
255 255 255
255 255 255
255 255 255
255 255 255
255 255 255
255 255 255
255 255 255
255 255 255
255 255 255
255 255 255
255 255 255
255 255 255
255 255 255
255 255 255
255 255 255
255 255 255
255 255 255
255 255 255
255 255 255
255 255 255
255 255 255
255 255 255
255 255 255
255 255 255
255 255 255
255 255 255
255 255 255
255 255 255
255 255 255
255 255 255
255 255 255
255 255 255
255 255 255
255 255 255
0 0 0
0 0 0
0 0 0
0 0 0
0 0 0
0 0 0
0 0 0
0 0 0
0 0 0
0 0 0
0 0 0
0 0 0
0 0 0
0 0 0
0 0 0
0 0 0
0 0 0
0 0 0
0 0 0
0 0 0
0 0 0
0 0 0
0 0 0
0 0 0
0 0 0
0 0 0
0 0 0
0 0 0
0 0 0
0 0 0
0 0 0
0 0 0
0 0 0
0 0 0
0 0 0
0 0 0
0 0 0
0 0 0
0 0 0
0 0 0
0 0 0
0 0 0
0 0 0
0 0 0
0 0 0
0 0 0
0 0 0
0 0 0
0 0 0
0 0 0
0 0 0
0 0 0
0 0 0
0 0 0
0 0 0
0 0 0
0 0 0
0 0 0
0 0 0
0 0 0
0 0 0
0 0 0
0 0 0
0 0 0
0 0 0
0 0 0
0 0 0
0 0 0
0 0 0
0 0 0
0 0 0
0 0 0
0 0 0
0 0 0
0 0 0
0 0 0
0 0 0
0 0 0
0 0 0
0 0 0
0 0 0
0 0 0
0 0 0
0 0 0
0 0 0
0 0 0
0 0 0
0 0 0
0 0 0
0 0 0
0 0 0
0 0 0
0 0 0
0 0 0
0 0 0
0 0 0
0 0 0
0 0 0
0 0 0
0 0 0
0 0 0
0 0 0
0 0 0
0 0 0
0 0 0
0 0 0
0 0 0
0 0 0
0 0 0
0 0 0
0 0 0
0 0 0
0 0 0
0 0 0
0 0 0
0 0 0
0 0 0
0 0 0
0 0 0
0 0 0
0 0 0
0 0 0
0 0 0
0 0 0
0 0 0
0 0 0
0 0 0
0 0 0
0 0 0
0 0 0
0 0 0
0 0 0
0 0 0
0 0 0
0 0 0
0 0 0
0 0 0
0 0 0
0 0 0
0 0 0
0 0 0
0 0 0
0 0 0
0 0 0
0 0 0
0 0 0
0 0 0
0 0 0
0 0 0
0 0 0
0 0 0
0 0 0
0 0 0
0 0 0
0 0 0
0 0 0
0 0 0
0 0 0
0 0 0
0 0 0
0 0 0
0 0 0
0 0 0
0 0 0
0 0 0
0 0 0
0 0 0
0 0 0
0 0 0
0 0 0
0 0 0
0 0 0
0 0 0
0 0 0
0 0 0
0 0 0
0 0 0
0 0 0
0 0 0
0 0 0
0 0 0
0 0 0
0 0 0
0 0 0
0 0 0
0 0 0
0 0 0
0 0 0
0 0 0
0 0 0
0 0 0
0 0 0
0 0 0
0 0 0
0 0 0
0 0 0
0 0 0
0 0 0
0 0 0
0 0 0
0 0 0
0 0 0
0 0 0
0 0 0
0 0 0
0 0 0
0 0 0
0 0 0
0 0 0
0 0 0
0 0 0
0 0 0
0 0 0
0 0 0
0 0 0
0 0 0
0 0 0
0 0 0
0 0 0
0 0 0
0 0 0
0 0 0
0 0 0
0 0 0
0 0 0
0 0 0
0 0 0
0 0 0
0 0 0
0 0 0
0 0 0
0 0 0
0 0 0
0 0 0
0 0 0
0 0 0
0 0 0
0 0 0
0 0 0
0 0 0
0 0 0
0 0 0
0 0 0
0 0 0
0 0 0
0 0 0
0 0 0
0 0 0
0 0 0
0 0 0
0 0 0
0 0 0
0 0 0
0 0 0
0 0 0
0 0 0
0 0 0
0 0 0
0 0 0
0 0 0
0 0 0
0 0 0
0 0 0
0 0 0
0 0 0
0 0 0
0 0 0
0 0 0
0 0 0
0 0 0
0 0 0
0 0 0
0 0 0
0 0 0
0 0 0
0 0 0
0 0 0
0 0 0
0 0 0
0 0 0
0 0 0
0 0 0
0 0 0
0 0 0
0 0 0
0 0 0
0 0 0
0 0 0
0 0 0
0 0 0
0 0 0
0 0 0
0 0 0
0 0 0
0 0 0
0 0 0
204 204 204
255 255 255
255 255 255
255 255 255
255 255 255
255 255 255
255 255 255
255 255 255
255 255 255
255 255 255
255 255 255
255 255 255
255 255 255
255 255 255
255 255 255
255 255 255
255 255 255
255 255 255
255 255 255
255 255 255
255 255 255
255 255 255
255 255 255
255 255 255
255 255 255
255 255 255
255 255 255
255 255 255
255 255 255
255 255 255
255 255 255
255 255 255
255 255 255
255 255 255
255 255 255
255 255 255
255 255 255
255 255 255
255 255 255
255 255 255
255 255 255
255 255 255
255 255 255
255 255 255
255 255 255
255 255 255
255 255 255
255 255 255
255 255 255
255 255 255
255 255 255
255 255 255
255 255 255
255 255 255
255 255 255
255 255 255
255 255 255
255 255 255
255 255 255
255 255 255
255 255 255
255 255 255
255 255 255
255 255 255
255 255 255
255 255 255
255 255 255
255 255 255
255 255 255
255 255 255
255 255 255
255 255 255
255 255 255
255 255 255
255 255 255
255 255 255
255 255 255
255 255 255
255 255 255
255 255 255
255 255 255
255 255 255
255 255 255
255 255 255
255 255 255
255 255 255
255 255 255
255 255 255
255 255 255
255 255 255
255 255 255
255 255 255
255 255 255
255 255 255
255 255 255
255 255 255
255 255 255
255 255 255
255 255 255
255 255 255
255 255 255
255 255 255
255 255 255
245 245 245
0 0 0
0 0 0
0 0 0
0 0 0
0 0 0
0 0 0
0 0 0
0 0 0
0 0 0
0 0 0
0 0 0
0 0 0
0 0 0
0 0 0
0 0 0
0 0 0
0 0 0
0 0 0
0 0 0
0 0 0
0 0 0
0 0 0
0 0 0
0 0 0
0 0 0
0 0 0
0 0 0
0 0 0
0 0 0
0 0 0
0 0 0
0 0 0
0 0 0
0 0 0
0 0 0
0 0 0
0 0 0
0 0 0
0 0 0
0 0 0
0 0 0
0 0 0
0 0 0
0 0 0
0 0 0
0 0 0
0 0 0
0 0 0
0 0 0
0 0 0
0 0 0
0 0 0
0 0 0
0 0 0
0 0 0
0 0 0
0 0 0
0 0 0
0 0 0
0 0 0
0 0 0
0 0 0
0 0 0
0 0 0
0 0 0
0 0 0
0 0 0
0 0 0
0 0 0
0 0 0
0 0 0
0 0 0
0 0 0
0 0 0
0 0 0
0 0 0
0 0 0
0 0 0
0 0 0
0 0 0
0 0 0
0 0 0
0 0 0
0 0 0
0 0 0
0 0 0
0 0 0
0 0 0
0 0 0
0 0 0
0 0 0
0 0 0
0 0 0
0 0 0
0 0 0
0 0 0
0 0 0
0 0 0
0 0 0
0 0 0
0 0 0
0 0 0
0 0 0
0 0 0
0 0 0
0 0 0
0 0 0
0 0 0
0 0 0
0 0 0
0 0 0
0 0 0
0 0 0
0 0 0
0 0 0
0 0 0
0 0 0
0 0 0
0 0 0
0 0 0
0 0 0
0 0 0
0 0 0
0 0 0
0 0 0
0 0 0
0 0 0
0 0 0
0 0 0
0 0 0
0 0 0
0 0 0
0 0 0
0 0 0
0 0 0
0 0 0
0 0 0
0 0 0
0 0 0
0 0 0
0 0 0
0 0 0
0 0 0
0 0 0
0 0 0
0 0 0
0 0 0
0 0 0
0 0 0
0 0 0
0 0 0
0 0 0
0 0 0
0 0 0
0 0 0
0 0 0
0 0 0
0 0 0
0 0 0
0 0 0
0 0 0
0 0 0
0 0 0
0 0 0
0 0 0
0 0 0
0 0 0
0 0 0
0 0 0
0 0 0
0 0 0
0 0 0
0 0 0
0 0 0
0 0 0
0 0 0
0 0 0
0 0 0
0 0 0
0 0 0
0 0 0
0 0 0
0 0 0
0 0 0
0 0 0
0 0 0
0 0 0
0 0 0
0 0 0
0 0 0
0 0 0
0 0 0
0 0 0
0 0 0
0 0 0
0 0 0
0 0 0
0 0 0
0 0 0
0 0 0
0 0 0
0 0 0
0 0 0
0 0 0
0 0 0
0 0 0
0 0 0
0 0 0
0 0 0
0 0 0
0 0 0
0 0 0
0 0 0
0 0 0
0 0 0
0 0 0
0 0 0
0 0 0
0 0 0
0 0 0
0 0 0
0 0 0
0 0 0
0 0 0
0 0 0
0 0 0
0 0 0
0 0 0
0 0 0
0 0 0
0 0 0
0 0 0
0 0 0
0 0 0
0 0 0
0 0 0
0 0 0
0 0 0
0 0 0
0 0 0
0 0 0
0 0 0
0 0 0
0 0 0
0 0 0
0 0 0
0 0 0
0 0 0
0 0 0
0 0 0
0 0 0
0 0 0
0 0 0
0 0 0
0 0 0
0 0 0
0 0 0
0 0 0
0 0 0
0 0 0
0 0 0
0 0 0
0 0 0
0 0 0
0 0 0
0 0 0
0 0 0
0 0 0
0 0 0
0 0 0
0 0 0
0 0 0
0 0 0
0 0 0
0 0 0
0 0 0
0 0 0
0 0 0
0 0 0
0 0 0
0 0 0
0 0 0
0 0 0
0 0 0
0 0 0
0 0 0
0 0 0
0 0 0
0 0 0
0 0 0
0 0 0
0 0 0
0 0 0
0 0 0
0 0 0
0 0 0
0 0 0
255 255 255
255 255 255
255 255 255
255 255 255
255 255 255
255 255 255
255 255 255
255 255 255
255 255 255
255 255 255
255 255 255
255 255 255
255 255 255
255 255 255
255 255 255
255 255 255
255 255 255
255 255 255
255 255 255
255 255 255
255 255 255
255 255 255
255 255 255
255 255 255
255 255 255
255 255 255
255 255 255
255 255 255
255 255 255
255 255 255
255 255 255
255 255 255
255 255 255
255 255 255
255 255 255
255 255 255
255 255 255
255 255 255
255 255 255
255 255 255
255 255 255
255 255 255
255 255 255
255 255 255
255 255 255
255 255 255
255 255 255
255 255 255
255 255 255
255 255 255
255 255 255
255 255 255
255 255 255
255 255 255
255 255 255
255 255 255
255 255 255
255 255 255
255 255 255
255 255 255
255 255 255
255 255 255
255 255 255
255 255 255
255 255 255
255 255 255
255 255 255
255 255 255
255 255 255
255 255 255
255 255 255
255 255 255
255 255 255
255 255 255
255 255 255
255 255 255
255 255 255
255 255 255
255 255 255
255 255 255
255 255 255
255 255 255
255 255 255
255 255 255
255 255 255
255 255 255
255 255 255
255 255 255
255 255 255
255 255 255
255 255 255
255 255 255
255 255 255
255 255 255
255 255 255
255 255 255
255 255 255
255 255 255
255 255 255
255 255 255
255 255 255
255 255 255
0 0 0
0 0 0
0 0 0
0 0 0
0 0 0
0 0 0
0 0 0
0 0 0
0 0 0
0 0 0
0 0 0
0 0 0
0 0 0
0 0 0
0 0 0
0 0 0
0 0 0
0 0 0
0 0 0
0 0 0
0 0 0
0 0 0
0 0 0
0 0 0
0 0 0
0 0 0
0 0 0
0 0 0
0 0 0
0 0 0
0 0 0
0 0 0
0 0 0
0 0 0
0 0 0
0 0 0
0 0 0
0 0 0
0 0 0
0 0 0
0 0 0
0 0 0
0 0 0
0 0 0
0 0 0
0 0 0
0 0 0
0 0 0
0 0 0
0 0 0
0 0 0
0 0 0
0 0 0
0 0 0
0 0 0
0 0 0
0 0 0
0 0 0
0 0 0
0 0 0
0 0 0
0 0 0
0 0 0
0 0 0
0 0 0
0 0 0
0 0 0
0 0 0
0 0 0
0 0 0
0 0 0
0 0 0
0 0 0
0 0 0
0 0 0
0 0 0
0 0 0
0 0 0
0 0 0
0 0 0
0 0 0
0 0 0
0 0 0
0 0 0
0 0 0
0 0 0
0 0 0
0 0 0
0 0 0
0 0 0
0 0 0
0 0 0
0 0 0
0 0 0
0 0 0
0 0 0
0 0 0
0 0 0
0 0 0
0 0 0
0 0 0
0 0 0
0 0 0
0 0 0
0 0 0
0 0 0
0 0 0
0 0 0
0 0 0
0 0 0
0 0 0
0 0 0
0 0 0
0 0 0
0 0 0
0 0 0
0 0 0
0 0 0
0 0 0
0 0 0
0 0 0
0 0 0
0 0 0
0 0 0
0 0 0
0 0 0
0 0 0
0 0 0
0 0 0
0 0 0
0 0 0
0 0 0
0 0 0
0 0 0
0 0 0
0 0 0
0 0 0
0 0 0
0 0 0
0 0 0
0 0 0
0 0 0
0 0 0
0 0 0
0 0 0
0 0 0
0 0 0
0 0 0
0 0 0
0 0 0
0 0 0
0 0 0
0 0 0
0 0 0
0 0 0
0 0 0
0 0 0
0 0 0
0 0 0
0 0 0
0 0 0
0 0 0
0 0 0
0 0 0
0 0 0
0 0 0
0 0 0
0 0 0
0 0 0
0 0 0
0 0 0
0 0 0
0 0 0
0 0 0
0 0 0
0 0 0
0 0 0
0 0 0
0 0 0
0 0 0
0 0 0
0 0 0
0 0 0
0 0 0
0 0 0
0 0 0
0 0 0
0 0 0
0 0 0
0 0 0
0 0 0
0 0 0
0 0 0
0 0 0
0 0 0
0 0 0
0 0 0
0 0 0
0 0 0
0 0 0
0 0 0
0 0 0
0 0 0
0 0 0
0 0 0
0 0 0
0 0 0
0 0 0
0 0 0
0 0 0
0 0 0
0 0 0
0 0 0
0 0 0
0 0 0
0 0 0
0 0 0
0 0 0
0 0 0
0 0 0
0 0 0
0 0 0
0 0 0
0 0 0
0 0 0
0 0 0
0 0 0
0 0 0
0 0 0
0 0 0
0 0 0
0 0 0
0 0 0
0 0 0
0 0 0
0 0 0
0 0 0
0 0 0
0 0 0
0 0 0
0 0 0
0 0 0
0 0 0
0 0 0
0 0 0
0 0 0
0 0 0
0 0 0
0 0 0
0 0 0
0 0 0
0 0 0
0 0 0
0 0 0
0 0 0
0 0 0
0 0 0
0 0 0
0 0 0
0 0 0
0 0 0
0 0 0
0 0 0
0 0 0
0 0 0
0 0 0
0 0 0
0 0 0
0 0 0
0 0 0
0 0 0
0 0 0
0 0 0
0 0 0
0 0 0
0 0 0
0 0 0
0 0 0
0 0 0
0 0 0
0 0 0
0 0 0
0 0 0
0 0 0
0 0 0
0 0 0
0 0 0
0 0 0
0 0 0
0 0 0
0 0 0
0 0 0
0 0 0
0 0 0
0 0 0
0 0 0
0 0 0
0 0 0
255 255 255
255 255 255
255 255 255
255 255 255
255 255 255
255 255 255
255 255 255
255 255 255
255 255 255
255 255 255
255 255 255
255 255 255
255 255 255
255 255 255
255 255 255
255 255 255
255 255 255
255 255 255
255 255 255
255 255 255
255 255 255
255 255 255
255 255 255
255 255 255
255 255 255
255 255 255
255 255 255
255 255 255
255 255 255
255 255 255
255 255 255
255 255 255
255 255 255
255 255 255
255 255 255
255 255 255
255 255 255
255 255 255
255 255 255
255 255 255
255 255 255
255 255 255
255 255 255
255 255 255
255 255 255
255 255 255
255 255 255
255 255 255
255 255 255
255 255 255
255 255 255
255 255 255
255 255 255
255 255 255
255 255 255
255 255 255
255 255 255
255 255 255
255 255 255
255 255 255
255 255 255
255 255 255
255 255 255
255 255 255
255 255 255
255 255 255
255 255 255
255 255 255
255 255 255
255 255 255
255 255 255
255 255 255
255 255 255
255 255 255
255 255 255
255 255 255
255 255 255
255 255 255
255 255 255
255 255 255
255 255 255
255 255 255
255 255 255
255 255 255
255 255 255
255 255 255
255 255 255
255 255 255
255 255 255
255 255 255
255 255 255
255 255 255
255 255 255
255 255 255
255 255 255
255 255 255
255 255 255
255 255 255
255 255 255
255 255 255
255 255 255
211 211 211
0 0 0
0 0 0
0 0 0
0 0 0
0 0 0
0 0 0
0 0 0
0 0 0
0 0 0
0 0 0
0 0 0
0 0 0
0 0 0
0 0 0
0 0 0
0 0 0
0 0 0
0 0 0
0 0 0
0 0 0
0 0 0
0 0 0
0 0 0
0 0 0
0 0 0
0 0 0
0 0 0
0 0 0
0 0 0
0 0 0
0 0 0
0 0 0
0 0 0
0 0 0
0 0 0
0 0 0
0 0 0
0 0 0
0 0 0
0 0 0
0 0 0
0 0 0
0 0 0
0 0 0
0 0 0
0 0 0
0 0 0
0 0 0
0 0 0
0 0 0
0 0 0
0 0 0
0 0 0
0 0 0
0 0 0
0 0 0
0 0 0
0 0 0
0 0 0
0 0 0
0 0 0
0 0 0
0 0 0
0 0 0
0 0 0
0 0 0
0 0 0
0 0 0
0 0 0
0 0 0
0 0 0
0 0 0
0 0 0
0 0 0
0 0 0
0 0 0
0 0 0
0 0 0
0 0 0
0 0 0
0 0 0
0 0 0
0 0 0
0 0 0
0 0 0
0 0 0
0 0 0
0 0 0
0 0 0
0 0 0
0 0 0
0 0 0
0 0 0
0 0 0
0 0 0
0 0 0
0 0 0
0 0 0
0 0 0
0 0 0
0 0 0
0 0 0
0 0 0
0 0 0
0 0 0
0 0 0
0 0 0
0 0 0
0 0 0
0 0 0
0 0 0
0 0 0
0 0 0
0 0 0
0 0 0
0 0 0
0 0 0
0 0 0
0 0 0
0 0 0
0 0 0
0 0 0
0 0 0
0 0 0
0 0 0
0 0 0
0 0 0
0 0 0
0 0 0
0 0 0
0 0 0
0 0 0
0 0 0
0 0 0
0 0 0
0 0 0
0 0 0
0 0 0
0 0 0
0 0 0
0 0 0
0 0 0
0 0 0
0 0 0
0 0 0
0 0 0
0 0 0
0 0 0
0 0 0
0 0 0
0 0 0
0 0 0
0 0 0
0 0 0
0 0 0
0 0 0
0 0 0
0 0 0
0 0 0
0 0 0
0 0 0
0 0 0
0 0 0
0 0 0
0 0 0
0 0 0
0 0 0
0 0 0
0 0 0
0 0 0
0 0 0
0 0 0
0 0 0
0 0 0
0 0 0
0 0 0
0 0 0
0 0 0
0 0 0
0 0 0
0 0 0
0 0 0
0 0 0
0 0 0
0 0 0
0 0 0
0 0 0
0 0 0
0 0 0
0 0 0
0 0 0
0 0 0
0 0 0
0 0 0
0 0 0
0 0 0
0 0 0
0 0 0
0 0 0
0 0 0
0 0 0
0 0 0
0 0 0
0 0 0
0 0 0
0 0 0
0 0 0
0 0 0
0 0 0
0 0 0
0 0 0
0 0 0
0 0 0
0 0 0
0 0 0
0 0 0
0 0 0
0 0 0
0 0 0
0 0 0
0 0 0
0 0 0
0 0 0
0 0 0
0 0 0
0 0 0
0 0 0
0 0 0
0 0 0
0 0 0
0 0 0
0 0 0
0 0 0
0 0 0
0 0 0
0 0 0
0 0 0
0 0 0
0 0 0
0 0 0
0 0 0
0 0 0
0 0 0
0 0 0
0 0 0
0 0 0
0 0 0
0 0 0
0 0 0
0 0 0
0 0 0
0 0 0
0 0 0
0 0 0
0 0 0
0 0 0
0 0 0
0 0 0
0 0 0
0 0 0
0 0 0
0 0 0
0 0 0
0 0 0
0 0 0
0 0 0
0 0 0
0 0 0
0 0 0
0 0 0
0 0 0
0 0 0
0 0 0
0 0 0
0 0 0
0 0 0
0 0 0
0 0 0
0 0 0
0 0 0
0 0 0
0 0 0
0 0 0
0 0 0
0 0 0
0 0 0
0 0 0
0 0 0
0 0 0
0 0 0
0 0 0
0 0 0
0 0 0
0 0 0
0 0 0
0 0 0
0 0 0
0 0 0
0 0 0
255 255 255
255 255 255
255 255 255
255 255 255
255 255 255
255 255 255
255 255 255
255 255 255
255 255 255
255 255 255
255 255 255
255 255 255
255 255 255
255 255 255
255 255 255
255 255 255
255 255 255
255 255 255
255 255 255
255 255 255
255 255 255
255 255 255
255 255 255
255 255 255
255 255 255
255 255 255
255 255 255
255 255 255
255 255 255
255 255 255
255 255 255
255 255 255
255 255 255
255 255 255
255 255 255
255 255 255
255 255 255
255 255 255
255 255 255
255 255 255
255 255 255
255 255 255
255 255 255
255 255 255
255 255 255
255 255 255
255 255 255
255 255 255
255 255 255
255 255 255
255 255 255
255 255 255
255 255 255
255 255 255
255 255 255
255 255 255
255 255 255
255 255 255
255 255 255
255 255 255
255 255 255
255 255 255
255 255 255
255 255 255
255 255 255
255 255 255
255 255 255
255 255 255
255 255 255
255 255 255
255 255 255
255 255 255
255 255 255
255 255 255
255 255 255
255 255 255
255 255 255
255 255 255
255 255 255
255 255 255
255 255 255
255 255 255
255 255 255
255 255 255
255 255 255
255 255 255
255 255 255
255 255 255
255 255 255
255 255 255
255 255 255
255 255 255
255 255 255
255 255 255
255 255 255
255 255 255
255 255 255
255 255 255
255 255 255
255 255 255
0 0 0
0 0 0
0 0 0
0 0 0
0 0 0
0 0 0
0 0 0
0 0 0
0 0 0
0 0 0
0 0 0
0 0 0
0 0 0
0 0 0
0 0 0
0 0 0
0 0 0
0 0 0
0 0 0
0 0 0
0 0 0
0 0 0
0 0 0
0 0 0
0 0 0
0 0 0
0 0 0
0 0 0
0 0 0
0 0 0
0 0 0
0 0 0
0 0 0
0 0 0
0 0 0
0 0 0
0 0 0
0 0 0
0 0 0
0 0 0
0 0 0
0 0 0
0 0 0
0 0 0
0 0 0
0 0 0
0 0 0
0 0 0
0 0 0
0 0 0
0 0 0
0 0 0
0 0 0
0 0 0
0 0 0
0 0 0
0 0 0
0 0 0
0 0 0
0 0 0
0 0 0
0 0 0
0 0 0
0 0 0
0 0 0
0 0 0
0 0 0
0 0 0
0 0 0
0 0 0
0 0 0
0 0 0
0 0 0
0 0 0
0 0 0
0 0 0
0 0 0
0 0 0
0 0 0
0 0 0
0 0 0
0 0 0
0 0 0
0 0 0
0 0 0
0 0 0
0 0 0
0 0 0
0 0 0
0 0 0
0 0 0
0 0 0
0 0 0
0 0 0
0 0 0
0 0 0
0 0 0
0 0 0
0 0 0
0 0 0
0 0 0
0 0 0
0 0 0
0 0 0
0 0 0
0 0 0
0 0 0
0 0 0
0 0 0
0 0 0
0 0 0
0 0 0
0 0 0
0 0 0
0 0 0
0 0 0
0 0 0
0 0 0
0 0 0
0 0 0
0 0 0
0 0 0
0 0 0
0 0 0
0 0 0
0 0 0
0 0 0
0 0 0
0 0 0
0 0 0
0 0 0
0 0 0
0 0 0
0 0 0
0 0 0
0 0 0
0 0 0
0 0 0
0 0 0
0 0 0
0 0 0
0 0 0
0 0 0
0 0 0
0 0 0
0 0 0
0 0 0
0 0 0
0 0 0
0 0 0
0 0 0
0 0 0
0 0 0
0 0 0
0 0 0
0 0 0
0 0 0
0 0 0
0 0 0
0 0 0
0 0 0
0 0 0
0 0 0
0 0 0
0 0 0
0 0 0
0 0 0
0 0 0
0 0 0
0 0 0
0 0 0
0 0 0
0 0 0
0 0 0
0 0 0
0 0 0
0 0 0
0 0 0
0 0 0
0 0 0
0 0 0
0 0 0
0 0 0
0 0 0
0 0 0
0 0 0
0 0 0
0 0 0
0 0 0
0 0 0
0 0 0
0 0 0
0 0 0
0 0 0
0 0 0
0 0 0
0 0 0
0 0 0
0 0 0
0 0 0
0 0 0
0 0 0
0 0 0
0 0 0
0 0 0
0 0 0
0 0 0
0 0 0
0 0 0
0 0 0
0 0 0
0 0 0
0 0 0
0 0 0
0 0 0
0 0 0
0 0 0
0 0 0
0 0 0
0 0 0
0 0 0
0 0 0
0 0 0
0 0 0
0 0 0
0 0 0
0 0 0
0 0 0
0 0 0
0 0 0
0 0 0
0 0 0
0 0 0
0 0 0
0 0 0
0 0 0
0 0 0
0 0 0
0 0 0
0 0 0
0 0 0
0 0 0
0 0 0
0 0 0
0 0 0
0 0 0
0 0 0
0 0 0
0 0 0
0 0 0
0 0 0
0 0 0
0 0 0
0 0 0
0 0 0
0 0 0
0 0 0
0 0 0
0 0 0
0 0 0
0 0 0
0 0 0
0 0 0
0 0 0
0 0 0
0 0 0
0 0 0
0 0 0
0 0 0
0 0 0
0 0 0
0 0 0
0 0 0
0 0 0
0 0 0
0 0 0
0 0 0
0 0 0
0 0 0
0 0 0
0 0 0
0 0 0
0 0 0
0 0 0
0 0 0
0 0 0
0 0 0
0 0 0
0 0 0
0 0 0
0 0 0
0 0 0
0 0 0
0 0 0
0 0 0
0 0 0
0 0 0
0 0 0
0 0 0
0 0 0
161 161 161
255 255 255
255 255 255
255 255 255
255 255 255
255 255 255
255 255 255
255 255 255
255 255 255
255 255 255
255 255 255
255 255 255
255 255 255
255 255 255
255 255 255
255 255 255
255 255 255
255 255 255
255 255 255
255 255 255
255 255 255
255 255 255
255 255 255
255 255 255
255 255 255
255 255 255
255 255 255
255 255 255
255 255 255
255 255 255
255 255 255
255 255 255
255 255 255
255 255 255
255 255 255
255 255 255
255 255 255
255 255 255
255 255 255
255 255 255
255 255 255
255 255 255
255 255 255
255 255 255
255 255 255
255 255 255
255 255 255
255 255 255
255 255 255
255 255 255
255 255 255
255 255 255
255 255 255
255 255 255
255 255 255
255 255 255
255 255 255
255 255 255
255 255 255
255 255 255
255 255 255
255 255 255
255 255 255
255 255 255
255 255 255
255 255 255
255 255 255
255 255 255
255 255 255
255 255 255
255 255 255
255 255 255
255 255 255
255 255 255
255 255 255
255 255 255
255 255 255
255 255 255
255 255 255
255 255 255
255 255 255
255 255 255
255 255 255
255 255 255
255 255 255
255 255 255
255 255 255
255 255 255
255 255 255
255 255 255
255 255 255
255 255 255
255 255 255
255 255 255
255 255 255
255 255 255
255 255 255
255 255 255
255 255 255
204 204 204
0 0 0
0 0 0
0 0 0
0 0 0
0 0 0
0 0 0
0 0 0
0 0 0
0 0 0
0 0 0
0 0 0
0 0 0
0 0 0
0 0 0
0 0 0
0 0 0
0 0 0
0 0 0
0 0 0
0 0 0
0 0 0
0 0 0
0 0 0
0 0 0
0 0 0
0 0 0
0 0 0
0 0 0
0 0 0
0 0 0
0 0 0
0 0 0
0 0 0
0 0 0
0 0 0
0 0 0
0 0 0
0 0 0
0 0 0
0 0 0
0 0 0
0 0 0
0 0 0
0 0 0
0 0 0
0 0 0
0 0 0
0 0 0
0 0 0
0 0 0
0 0 0
0 0 0
0 0 0
0 0 0
0 0 0
0 0 0
0 0 0
0 0 0
0 0 0
0 0 0
0 0 0
0 0 0
0 0 0
0 0 0
0 0 0
0 0 0
0 0 0
0 0 0
0 0 0
0 0 0
0 0 0
0 0 0
0 0 0
0 0 0
0 0 0
0 0 0
0 0 0
0 0 0
0 0 0
0 0 0
0 0 0
0 0 0
0 0 0
0 0 0
0 0 0
0 0 0
0 0 0
0 0 0
0 0 0
0 0 0
0 0 0
0 0 0
0 0 0
0 0 0
0 0 0
0 0 0
0 0 0
0 0 0
0 0 0
0 0 0
0 0 0
0 0 0
0 0 0
0 0 0
0 0 0
0 0 0
0 0 0
0 0 0
0 0 0
0 0 0
0 0 0
0 0 0
0 0 0
0 0 0
0 0 0
0 0 0
0 0 0
0 0 0
0 0 0
0 0 0
0 0 0
0 0 0
0 0 0
0 0 0
0 0 0
0 0 0
0 0 0
0 0 0
0 0 0
0 0 0
0 0 0
0 0 0
0 0 0
0 0 0
0 0 0
0 0 0
0 0 0
0 0 0
0 0 0
0 0 0
0 0 0
0 0 0
0 0 0
0 0 0
0 0 0
0 0 0
0 0 0
0 0 0
0 0 0
0 0 0
0 0 0
0 0 0
0 0 0
0 0 0
0 0 0
0 0 0
0 0 0
0 0 0
0 0 0
0 0 0
0 0 0
0 0 0
0 0 0
0 0 0
0 0 0
0 0 0
0 0 0
0 0 0
0 0 0
0 0 0
0 0 0
0 0 0
0 0 0
0 0 0
0 0 0
0 0 0
0 0 0
0 0 0
0 0 0
0 0 0
0 0 0
0 0 0
0 0 0
0 0 0
0 0 0
0 0 0
0 0 0
0 0 0
0 0 0
0 0 0
0 0 0
0 0 0
0 0 0
0 0 0
0 0 0
0 0 0
0 0 0
0 0 0
0 0 0
0 0 0
0 0 0
0 0 0
0 0 0
0 0 0
0 0 0
0 0 0
0 0 0
0 0 0
0 0 0
0 0 0
0 0 0
0 0 0
0 0 0
0 0 0
0 0 0
0 0 0
0 0 0
0 0 0
0 0 0
0 0 0
0 0 0
0 0 0
0 0 0
0 0 0
0 0 0
0 0 0
0 0 0
0 0 0
0 0 0
0 0 0
0 0 0
0 0 0
0 0 0
0 0 0
0 0 0
0 0 0
0 0 0
0 0 0
0 0 0
0 0 0
0 0 0
0 0 0
0 0 0
0 0 0
0 0 0
0 0 0
0 0 0
0 0 0
0 0 0
0 0 0
0 0 0
0 0 0
0 0 0
0 0 0
0 0 0
0 0 0
0 0 0
0 0 0
0 0 0
0 0 0
0 0 0
0 0 0
0 0 0
0 0 0
0 0 0
0 0 0
0 0 0
0 0 0
0 0 0
0 0 0
0 0 0
0 0 0
0 0 0
0 0 0
0 0 0
0 0 0
0 0 0
0 0 0
0 0 0
0 0 0
0 0 0
0 0 0
0 0 0
0 0 0
0 0 0
0 0 0
0 0 0
0 0 0
0 0 0
0 0 0
0 0 0
0 0 0
0 0 0
0 0 0
0 0 0
0 0 0
0 0 0
0 0 0
0 0 0
0 0 0
0 0 0
255 255 255
255 255 255
255 255 255
255 255 255
255 255 255
255 255 255
255 255 255
255 255 255
255 255 255
255 255 255
255 255 255
255 255 255
255 255 255
255 255 255
255 255 255
255 255 255
255 255 255
255 255 255
255 255 255
255 255 255
255 255 255
255 255 255
255 255 255
255 255 255
255 255 255
255 255 255
255 255 255
255 255 255
255 255 255
255 255 255
255 255 255
255 255 255
255 255 255
255 255 255
255 255 255
255 255 255
255 255 255
255 255 255
255 255 255
255 255 255
255 255 255
255 255 255
255 255 255
255 255 255
255 255 255
255 255 255
255 255 255
255 255 255
255 255 255
255 255 255
255 255 255
255 255 255
255 255 255
255 255 255
255 255 255
255 255 255
255 255 255
255 255 255
255 255 255
255 255 255
255 255 255
255 255 255
255 255 255
255 255 255
255 255 255
255 255 255
255 255 255
255 255 255
255 255 255
255 255 255
255 255 255
255 255 255
255 255 255
255 255 255
255 255 255
255 255 255
255 255 255
255 255 255
255 255 255
255 255 255
255 255 255
255 255 255
255 255 255
255 255 255
255 255 255
255 255 255
255 255 255
255 255 255
255 255 255
255 255 255
255 255 255
255 255 255
255 255 255
255 255 255
255 255 255
255 255 255
255 255 255
255 255 255
0 0 0
0 0 0
0 0 0
0 0 0
0 0 0
0 0 0
0 0 0
0 0 0
0 0 0
0 0 0
0 0 0
0 0 0
0 0 0
0 0 0
0 0 0
0 0 0
0 0 0
0 0 0
0 0 0
0 0 0
0 0 0
0 0 0
0 0 0
0 0 0
0 0 0
0 0 0
0 0 0
0 0 0
0 0 0
0 0 0
0 0 0
0 0 0
0 0 0
0 0 0
0 0 0
0 0 0
0 0 0
0 0 0
0 0 0
0 0 0
0 0 0
0 0 0
0 0 0
0 0 0
0 0 0
0 0 0
0 0 0
0 0 0
0 0 0
0 0 0
0 0 0
0 0 0
0 0 0
0 0 0
0 0 0
0 0 0
0 0 0
0 0 0
0 0 0
0 0 0
0 0 0
0 0 0
0 0 0
0 0 0
0 0 0
0 0 0
0 0 0
0 0 0
0 0 0
0 0 0
0 0 0
0 0 0
0 0 0
0 0 0
0 0 0
0 0 0
0 0 0
0 0 0
0 0 0
0 0 0
0 0 0
0 0 0
0 0 0
0 0 0
0 0 0
0 0 0
0 0 0
0 0 0
0 0 0
0 0 0
0 0 0
0 0 0
0 0 0
0 0 0
0 0 0
0 0 0
0 0 0
0 0 0
0 0 0
0 0 0
0 0 0
0 0 0
0 0 0
0 0 0
0 0 0
0 0 0
0 0 0
0 0 0
0 0 0
0 0 0
0 0 0
0 0 0
0 0 0
0 0 0
0 0 0
0 0 0
0 0 0
0 0 0
0 0 0
0 0 0
0 0 0
0 0 0
0 0 0
0 0 0
0 0 0
0 0 0
0 0 0
0 0 0
0 0 0
0 0 0
0 0 0
0 0 0
0 0 0
0 0 0
0 0 0
0 0 0
0 0 0
0 0 0
0 0 0
0 0 0
0 0 0
0 0 0
0 0 0
0 0 0
0 0 0
0 0 0
0 0 0
0 0 0
0 0 0
0 0 0
0 0 0
0 0 0
0 0 0
0 0 0
0 0 0
0 0 0
0 0 0
0 0 0
0 0 0
0 0 0
0 0 0
0 0 0
0 0 0
0 0 0
0 0 0
0 0 0
0 0 0
0 0 0
0 0 0
0 0 0
0 0 0
0 0 0
0 0 0
0 0 0
0 0 0
0 0 0
0 0 0
0 0 0
0 0 0
0 0 0
0 0 0
0 0 0
0 0 0
0 0 0
0 0 0
0 0 0
0 0 0
0 0 0
0 0 0
0 0 0
0 0 0
0 0 0
0 0 0
0 0 0
0 0 0
0 0 0
0 0 0
0 0 0
0 0 0
0 0 0
0 0 0
0 0 0
0 0 0
0 0 0
0 0 0
0 0 0
0 0 0
0 0 0
0 0 0
0 0 0
0 0 0
0 0 0
0 0 0
0 0 0
0 0 0
0 0 0
0 0 0
0 0 0
0 0 0
0 0 0
0 0 0
0 0 0
0 0 0
0 0 0
0 0 0
0 0 0
0 0 0
0 0 0
0 0 0
0 0 0
0 0 0
0 0 0
0 0 0
0 0 0
0 0 0
0 0 0
0 0 0
0 0 0
0 0 0
0 0 0
0 0 0
0 0 0
0 0 0
0 0 0
0 0 0
0 0 0
0 0 0
0 0 0
0 0 0
0 0 0
0 0 0
0 0 0
0 0 0
0 0 0
0 0 0
0 0 0
0 0 0
0 0 0
0 0 0
0 0 0
0 0 0
0 0 0
0 0 0
0 0 0
0 0 0
0 0 0
0 0 0
0 0 0
0 0 0
0 0 0
0 0 0
0 0 0
0 0 0
0 0 0
0 0 0
0 0 0
0 0 0
0 0 0
0 0 0
0 0 0
0 0 0
0 0 0
0 0 0
0 0 0
0 0 0
0 0 0
0 0 0
0 0 0
0 0 0
0 0 0
0 0 0
0 0 0
0 0 0
0 0 0
0 0 0
0 0 0
0 0 0
0 0 0
0 0 0
0 0 0
0 0 0
0 0 0
88 88 88
255 255 255
255 255 255
255 255 255
255 255 255
255 255 255
255 255 255
255 255 255
255 255 255
255 255 255
255 255 255
255 255 255
255 255 255
255 255 255
255 255 255
255 255 255
255 255 255
255 255 255
255 255 255
255 255 255
255 255 255
255 255 255
255 255 255
255 255 255
255 255 255
255 255 255
255 255 255
255 255 255
255 255 255
255 255 255
255 255 255
255 255 255
255 255 255
255 255 255
255 255 255
255 255 255
255 255 255
255 255 255
255 255 255
255 255 255
255 255 255
255 255 255
255 255 255
255 255 255
255 255 255
255 255 255
255 255 255
255 255 255
255 255 255
255 255 255
255 255 255
255 255 255
255 255 255
255 255 255
255 255 255
255 255 255
255 255 255
255 255 255
255 255 255
255 255 255
255 255 255
255 255 255
255 255 255
255 255 255
255 255 255
255 255 255
255 255 255
255 255 255
255 255 255
255 255 255
255 255 255
255 255 255
255 255 255
255 255 255
255 255 255
255 255 255
255 255 255
255 255 255
255 255 255
255 255 255
255 255 255
255 255 255
255 255 255
255 255 255
255 255 255
255 255 255
255 255 255
255 255 255
255 255 255
255 255 255
255 255 255
255 255 255
255 255 255
255 255 255
255 255 255
255 255 255
255 255 255
72 72 72
0 0 0
0 0 0
0 0 0
0 0 0
0 0 0
0 0 0
0 0 0
0 0 0
0 0 0
0 0 0
0 0 0
0 0 0
0 0 0
0 0 0
0 0 0
0 0 0
0 0 0
0 0 0
0 0 0
0 0 0
0 0 0
0 0 0
0 0 0
0 0 0
0 0 0
0 0 0
0 0 0
0 0 0
0 0 0
0 0 0
0 0 0
0 0 0
0 0 0
0 0 0
0 0 0
0 0 0
0 0 0
0 0 0
0 0 0
0 0 0
0 0 0
0 0 0
0 0 0
0 0 0
0 0 0
0 0 0
0 0 0
0 0 0
0 0 0
0 0 0
0 0 0
0 0 0
0 0 0
0 0 0
0 0 0
0 0 0
0 0 0
0 0 0
0 0 0
0 0 0
0 0 0
0 0 0
0 0 0
0 0 0
0 0 0
0 0 0
0 0 0
0 0 0
0 0 0
0 0 0
0 0 0
0 0 0
0 0 0
0 0 0
0 0 0
0 0 0
0 0 0
0 0 0
0 0 0
0 0 0
0 0 0
0 0 0
0 0 0
0 0 0
0 0 0
0 0 0
0 0 0
0 0 0
0 0 0
0 0 0
0 0 0
0 0 0
0 0 0
0 0 0
0 0 0
0 0 0
0 0 0
0 0 0
0 0 0
0 0 0
0 0 0
0 0 0
0 0 0
0 0 0
0 0 0
0 0 0
0 0 0
0 0 0
0 0 0
0 0 0
0 0 0
0 0 0
0 0 0
0 0 0
0 0 0
0 0 0
0 0 0
0 0 0
0 0 0
0 0 0
0 0 0
0 0 0
0 0 0
0 0 0
0 0 0
0 0 0
0 0 0
0 0 0
0 0 0
0 0 0
0 0 0
0 0 0
0 0 0
0 0 0
0 0 0
0 0 0
0 0 0
0 0 0
0 0 0
0 0 0
0 0 0
0 0 0
0 0 0
0 0 0
0 0 0
0 0 0
0 0 0
0 0 0
0 0 0
0 0 0
0 0 0
0 0 0
0 0 0
0 0 0
0 0 0
0 0 0
0 0 0
0 0 0
0 0 0
0 0 0
0 0 0
0 0 0
0 0 0
0 0 0
0 0 0
0 0 0
0 0 0
0 0 0
0 0 0
0 0 0
0 0 0
0 0 0
0 0 0
0 0 0
0 0 0
0 0 0
0 0 0
0 0 0
0 0 0
0 0 0
0 0 0
0 0 0
0 0 0
0 0 0
0 0 0
0 0 0
0 0 0
0 0 0
0 0 0
0 0 0
0 0 0
0 0 0
0 0 0
0 0 0
0 0 0
0 0 0
0 0 0
0 0 0
0 0 0
0 0 0
0 0 0
0 0 0
0 0 0
0 0 0
0 0 0
0 0 0
0 0 0
0 0 0
0 0 0
0 0 0
0 0 0
0 0 0
0 0 0
0 0 0
0 0 0
0 0 0
0 0 0
0 0 0
0 0 0
0 0 0
0 0 0
0 0 0
0 0 0
0 0 0
0 0 0
0 0 0
0 0 0
0 0 0
0 0 0
0 0 0
0 0 0
0 0 0
0 0 0
0 0 0
0 0 0
0 0 0
0 0 0
0 0 0
0 0 0
0 0 0
0 0 0
0 0 0
0 0 0
0 0 0
0 0 0
0 0 0
0 0 0
0 0 0
0 0 0
0 0 0
0 0 0
0 0 0
0 0 0
0 0 0
0 0 0
0 0 0
0 0 0
0 0 0
0 0 0
0 0 0
0 0 0
0 0 0
0 0 0
0 0 0
0 0 0
0 0 0
0 0 0
0 0 0
0 0 0
0 0 0
0 0 0
0 0 0
0 0 0
0 0 0
0 0 0
0 0 0
0 0 0
0 0 0
0 0 0
0 0 0
0 0 0
0 0 0
0 0 0
0 0 0
0 0 0
0 0 0
0 0 0
0 0 0
0 0 0
0 0 0
0 0 0
0 0 0
0 0 0
0 0 0
0 0 0
0 0 0
0 0 0
0 0 0
0 0 0
0 0 0
0 0 0
0 0 0
0 0 0
255 255 255
255 255 255
255 255 255
255 255 255
255 255 255
255 255 255
255 255 255
255 255 255
255 255 255
255 255 255
255 255 255
255 255 255
255 255 255
255 255 255
255 255 255
255 255 255
255 255 255
255 255 255
255 255 255
255 255 255
255 255 255
255 255 255
255 255 255
255 255 255
255 255 255
255 255 255
255 255 255
255 255 255
255 255 255
255 255 255
255 255 255
255 255 255
255 255 255
255 255 255
255 255 255
255 255 255
255 255 255
255 255 255
255 255 255
255 255 255
255 255 255
255 255 255
255 255 255
255 255 255
255 255 255
255 255 255
255 255 255
255 255 255
255 255 255
255 255 255
255 255 255
255 255 255
255 255 255
255 255 255
255 255 255
255 255 255
255 255 255
255 255 255
255 255 255
255 255 255
255 255 255
255 255 255
255 255 255
255 255 255
255 255 255
255 255 255
255 255 255
255 255 255
255 255 255
255 255 255
255 255 255
255 255 255
255 255 255
255 255 255
255 255 255
255 255 255
255 255 255
255 255 255
255 255 255
255 255 255
255 255 255
255 255 255
255 255 255
255 255 255
255 255 255
255 255 255
255 255 255
255 255 255
255 255 255
255 255 255
255 255 255
255 255 255
255 255 255
255 255 255
255 255 255
245 245 245
0 0 0
0 0 0
0 0 0
0 0 0
0 0 0
0 0 0
0 0 0
0 0 0
0 0 0
0 0 0
0 0 0
0 0 0
0 0 0
0 0 0
0 0 0
0 0 0
0 0 0
0 0 0
0 0 0
0 0 0
0 0 0
0 0 0
0 0 0
0 0 0
0 0 0
0 0 0
0 0 0
0 0 0
0 0 0
0 0 0
0 0 0
0 0 0
0 0 0
0 0 0
0 0 0
0 0 0
0 0 0
0 0 0
0 0 0
0 0 0
0 0 0
0 0 0
0 0 0
0 0 0
0 0 0
0 0 0
0 0 0
0 0 0
0 0 0
0 0 0
0 0 0
0 0 0
0 0 0
0 0 0
0 0 0
0 0 0
0 0 0
0 0 0
0 0 0
0 0 0
0 0 0
0 0 0
0 0 0
0 0 0
0 0 0
0 0 0
0 0 0
0 0 0
0 0 0
0 0 0
0 0 0
0 0 0
0 0 0
0 0 0
0 0 0
0 0 0
0 0 0
0 0 0
0 0 0
0 0 0
0 0 0
0 0 0
0 0 0
0 0 0
0 0 0
0 0 0
0 0 0
0 0 0
0 0 0
0 0 0
0 0 0
0 0 0
0 0 0
0 0 0
0 0 0
0 0 0
0 0 0
0 0 0
0 0 0
0 0 0
0 0 0
0 0 0
0 0 0
0 0 0
0 0 0
0 0 0
0 0 0
0 0 0
0 0 0
0 0 0
0 0 0
0 0 0
0 0 0
0 0 0
0 0 0
0 0 0
0 0 0
0 0 0
0 0 0
0 0 0
0 0 0
0 0 0
0 0 0
0 0 0
0 0 0
0 0 0
0 0 0
0 0 0
0 0 0
0 0 0
0 0 0
0 0 0
0 0 0
0 0 0
0 0 0
0 0 0
0 0 0
0 0 0
0 0 0
0 0 0
0 0 0
0 0 0
0 0 0
0 0 0
0 0 0
0 0 0
0 0 0
0 0 0
0 0 0
0 0 0
0 0 0
0 0 0
0 0 0
0 0 0
0 0 0
0 0 0
0 0 0
0 0 0
0 0 0
0 0 0
0 0 0
0 0 0
0 0 0
0 0 0
0 0 0
0 0 0
0 0 0
0 0 0
0 0 0
0 0 0
0 0 0
0 0 0
0 0 0
0 0 0
0 0 0
0 0 0
0 0 0
0 0 0
0 0 0
0 0 0
0 0 0
0 0 0
0 0 0
0 0 0
0 0 0
0 0 0
0 0 0
0 0 0
0 0 0
0 0 0
0 0 0
0 0 0
0 0 0
0 0 0
0 0 0
0 0 0
0 0 0
0 0 0
0 0 0
0 0 0
0 0 0
0 0 0
0 0 0
0 0 0
0 0 0
0 0 0
0 0 0
0 0 0
0 0 0
0 0 0
0 0 0
0 0 0
0 0 0
0 0 0
0 0 0
0 0 0
0 0 0
0 0 0
0 0 0
0 0 0
0 0 0
0 0 0
0 0 0
0 0 0
0 0 0
0 0 0
0 0 0
0 0 0
0 0 0
0 0 0
0 0 0
0 0 0
0 0 0
0 0 0
0 0 0
0 0 0
0 0 0
0 0 0
0 0 0
0 0 0
0 0 0
0 0 0
0 0 0
0 0 0
0 0 0
0 0 0
0 0 0
0 0 0
0 0 0
0 0 0
0 0 0
0 0 0
0 0 0
0 0 0
0 0 0
0 0 0
0 0 0
0 0 0
0 0 0
0 0 0
0 0 0
0 0 0
0 0 0
0 0 0
0 0 0
0 0 0
0 0 0
0 0 0
0 0 0
0 0 0
0 0 0
0 0 0
0 0 0
0 0 0
0 0 0
0 0 0
0 0 0
0 0 0
0 0 0
0 0 0
0 0 0
0 0 0
0 0 0
0 0 0
0 0 0
0 0 0
0 0 0
0 0 0
0 0 0
0 0 0
0 0 0
0 0 0
0 0 0
0 0 0
0 0 0
0 0 0
0 0 0
0 0 0
0 0 0
0 0 0
0 0 0
0 0 0
0 0 0
0 0 0
0 0 0
255 255 255
255 255 255
255 255 255
255 255 255
255 255 255
255 255 255
255 255 255
255 255 255
255 255 255
255 255 255
255 255 255
255 255 255
255 255 255
255 255 255
255 255 255
255 255 255
255 255 255
255 255 255
255 255 255
255 255 255
255 255 255
255 255 255
255 255 255
255 255 255
255 255 255
255 255 255
255 255 255
255 255 255
255 255 255
255 255 255
255 255 255
255 255 255
255 255 255
255 255 255
255 255 255
255 255 255
255 255 255
255 255 255
255 255 255
255 255 255
255 255 255
255 255 255
255 255 255
255 255 255
255 255 255
255 255 255
255 255 255
255 255 255
255 255 255
255 255 255
255 255 255
255 255 255
255 255 255
255 255 255
255 255 255
255 255 255
255 255 255
255 255 255
255 255 255
255 255 255
255 255 255
255 255 255
255 255 255
255 255 255
255 255 255
255 255 255
255 255 255
255 255 255
255 255 255
255 255 255
255 255 255
255 255 255
255 255 255
255 255 255
255 255 255
255 255 255
255 255 255
255 255 255
255 255 255
255 255 255
255 255 255
255 255 255
255 255 255
255 255 255
255 255 255
255 255 255
255 255 255
255 255 255
255 255 255
255 255 255
255 255 255
255 255 255
255 255 255
255 255 255
0 0 0
0 0 0
0 0 0
0 0 0
0 0 0
0 0 0
0 0 0
0 0 0
0 0 0
0 0 0
0 0 0
0 0 0
0 0 0
0 0 0
0 0 0
0 0 0
0 0 0
0 0 0
0 0 0
0 0 0
0 0 0
0 0 0
0 0 0
0 0 0
0 0 0
0 0 0
0 0 0
0 0 0
0 0 0
0 0 0
0 0 0
0 0 0
0 0 0
0 0 0
0 0 0
0 0 0
0 0 0
0 0 0
0 0 0
0 0 0
0 0 0
0 0 0
0 0 0
0 0 0
0 0 0
0 0 0
0 0 0
0 0 0
0 0 0
0 0 0
0 0 0
0 0 0
0 0 0
0 0 0
0 0 0
0 0 0
0 0 0
0 0 0
0 0 0
0 0 0
0 0 0
0 0 0
0 0 0
0 0 0
0 0 0
0 0 0
0 0 0
0 0 0
0 0 0
0 0 0
0 0 0
0 0 0
0 0 0
0 0 0
0 0 0
0 0 0
0 0 0
0 0 0
0 0 0
0 0 0
0 0 0
0 0 0
0 0 0
0 0 0
0 0 0
0 0 0
0 0 0
0 0 0
0 0 0
0 0 0
0 0 0
0 0 0
0 0 0
0 0 0
0 0 0
0 0 0
0 0 0
0 0 0
0 0 0
0 0 0
0 0 0
0 0 0
0 0 0
0 0 0
0 0 0
0 0 0
0 0 0
0 0 0
0 0 0
0 0 0
0 0 0
0 0 0
0 0 0
0 0 0
0 0 0
0 0 0
0 0 0
0 0 0
0 0 0
0 0 0
0 0 0
0 0 0
0 0 0
0 0 0
0 0 0
0 0 0
0 0 0
0 0 0
0 0 0
0 0 0
0 0 0
0 0 0
0 0 0
0 0 0
0 0 0
0 0 0
0 0 0
0 0 0
0 0 0
0 0 0
0 0 0
0 0 0
0 0 0
0 0 0
0 0 0
0 0 0
0 0 0
0 0 0
0 0 0
0 0 0
0 0 0
0 0 0
0 0 0
0 0 0
0 0 0
0 0 0
0 0 0
0 0 0
0 0 0
0 0 0
0 0 0
0 0 0
0 0 0
0 0 0
0 0 0
0 0 0
0 0 0
0 0 0
0 0 0
0 0 0
0 0 0
0 0 0
0 0 0
0 0 0
0 0 0
0 0 0
0 0 0
0 0 0
0 0 0
0 0 0
0 0 0
0 0 0
0 0 0
0 0 0
0 0 0
0 0 0
0 0 0
0 0 0
0 0 0
0 0 0
0 0 0
0 0 0
0 0 0
0 0 0
0 0 0
0 0 0
0 0 0
0 0 0
0 0 0
0 0 0
0 0 0
0 0 0
0 0 0
0 0 0
0 0 0
0 0 0
0 0 0
0 0 0
0 0 0
0 0 0
0 0 0
0 0 0
0 0 0
0 0 0
0 0 0
0 0 0
0 0 0
0 0 0
0 0 0
0 0 0
0 0 0
0 0 0
0 0 0
0 0 0
0 0 0
0 0 0
0 0 0
0 0 0
0 0 0
0 0 0
0 0 0
0 0 0
0 0 0
0 0 0
0 0 0
0 0 0
0 0 0
0 0 0
0 0 0
0 0 0
0 0 0
0 0 0
0 0 0
0 0 0
0 0 0
0 0 0
0 0 0
0 0 0
0 0 0
0 0 0
0 0 0
0 0 0
0 0 0
0 0 0
0 0 0
0 0 0
0 0 0
0 0 0
0 0 0
0 0 0
0 0 0
0 0 0
0 0 0
0 0 0
0 0 0
0 0 0
0 0 0
0 0 0
0 0 0
0 0 0
0 0 0
0 0 0
0 0 0
0 0 0
0 0 0
0 0 0
0 0 0
0 0 0
0 0 0
0 0 0
0 0 0
0 0 0
0 0 0
0 0 0
0 0 0
0 0 0
0 0 0
0 0 0
0 0 0
0 0 0
0 0 0
0 0 0
0 0 0
0 0 0
0 0 0
0 0 0
0 0 0
0 0 0
0 0 0
0 0 0
0 0 0
0 0 0
0 0 0
0 0 0
0 0 0
0 0 0
169 169 169
255 255 255
255 255 255
255 255 255
255 255 255
255 255 255
255 255 255
255 255 255
255 255 255
255 255 255
255 255 255
255 255 255
255 255 255
255 255 255
255 255 255
255 255 255
255 255 255
255 255 255
255 255 255
255 255 255
255 255 255
255 255 255
255 255 255
255 255 255
255 255 255
255 255 255
255 255 255
255 255 255
255 255 255
255 255 255
255 255 255
255 255 255
255 255 255
255 255 255
255 255 255
255 255 255
255 255 255
255 255 255
255 255 255
255 255 255
255 255 255
255 255 255
255 255 255
255 255 255
255 255 255
255 255 255
255 255 255
255 255 255
255 255 255
255 255 255
255 255 255
255 255 255
255 255 255
255 255 255
255 255 255
255 255 255
255 255 255
255 255 255
255 255 255
255 255 255
255 255 255
255 255 255
255 255 255
255 255 255
255 255 255
255 255 255
255 255 255
255 255 255
255 255 255
255 255 255
255 255 255
255 255 255
255 255 255
255 255 255
255 255 255
255 255 255
255 255 255
255 255 255
255 255 255
255 255 255
255 255 255
255 255 255
255 255 255
255 255 255
255 255 255
255 255 255
255 255 255
255 255 255
255 255 255
255 255 255
255 255 255
255 255 255
255 255 255
161 161 161
0 0 0
0 0 0
0 0 0
0 0 0
0 0 0
0 0 0
0 0 0
0 0 0
0 0 0
0 0 0
0 0 0
0 0 0
0 0 0
0 0 0
0 0 0
0 0 0
0 0 0
0 0 0
0 0 0
0 0 0
0 0 0
0 0 0
0 0 0
0 0 0
0 0 0
0 0 0
0 0 0
0 0 0
0 0 0
0 0 0
0 0 0
0 0 0
0 0 0
0 0 0
0 0 0
0 0 0
0 0 0
0 0 0
0 0 0
0 0 0
0 0 0
0 0 0
0 0 0
0 0 0
0 0 0
0 0 0
0 0 0
0 0 0
0 0 0
0 0 0
0 0 0
0 0 0
0 0 0
0 0 0
0 0 0
0 0 0
0 0 0
0 0 0
0 0 0
0 0 0
0 0 0
0 0 0
0 0 0
0 0 0
0 0 0
0 0 0
0 0 0
0 0 0
0 0 0
0 0 0
0 0 0
0 0 0
0 0 0
0 0 0
0 0 0
0 0 0
0 0 0
0 0 0
0 0 0
0 0 0
0 0 0
0 0 0
0 0 0
0 0 0
0 0 0
0 0 0
0 0 0
0 0 0
0 0 0
0 0 0
0 0 0
0 0 0
0 0 0
0 0 0
0 0 0
0 0 0
0 0 0
0 0 0
0 0 0
0 0 0
0 0 0
0 0 0
0 0 0
0 0 0
0 0 0
0 0 0
0 0 0
0 0 0
0 0 0
0 0 0
0 0 0
0 0 0
0 0 0
0 0 0
0 0 0
0 0 0
0 0 0
0 0 0
0 0 0
0 0 0
0 0 0
0 0 0
0 0 0
0 0 0
0 0 0
0 0 0
0 0 0
0 0 0
0 0 0
0 0 0
0 0 0
0 0 0
0 0 0
0 0 0
0 0 0
0 0 0
0 0 0
0 0 0
0 0 0
0 0 0
0 0 0
0 0 0
0 0 0
0 0 0
0 0 0
0 0 0
0 0 0
0 0 0
0 0 0
0 0 0
0 0 0
0 0 0
0 0 0
0 0 0
0 0 0
0 0 0
0 0 0
0 0 0
0 0 0
0 0 0
0 0 0
0 0 0
0 0 0
0 0 0
0 0 0
0 0 0
0 0 0
0 0 0
0 0 0
0 0 0
0 0 0
0 0 0
0 0 0
0 0 0
0 0 0
0 0 0
0 0 0
0 0 0
0 0 0
0 0 0
0 0 0
0 0 0
0 0 0
0 0 0
0 0 0
0 0 0
0 0 0
0 0 0
0 0 0
0 0 0
0 0 0
0 0 0
0 0 0
0 0 0
0 0 0
0 0 0
0 0 0
0 0 0
0 0 0
0 0 0
0 0 0
0 0 0
0 0 0
0 0 0
0 0 0
0 0 0
0 0 0
0 0 0
0 0 0
0 0 0
0 0 0
0 0 0
0 0 0
0 0 0
0 0 0
0 0 0
0 0 0
0 0 0
0 0 0
0 0 0
0 0 0
0 0 0
0 0 0
0 0 0
0 0 0
0 0 0
0 0 0
0 0 0
0 0 0
0 0 0
0 0 0
0 0 0
0 0 0
0 0 0
0 0 0
0 0 0
0 0 0
0 0 0
0 0 0
0 0 0
0 0 0
0 0 0
0 0 0
0 0 0
0 0 0
0 0 0
0 0 0
0 0 0
0 0 0
0 0 0
0 0 0
0 0 0
0 0 0
0 0 0
0 0 0
0 0 0
0 0 0
0 0 0
0 0 0
0 0 0
0 0 0
0 0 0
0 0 0
0 0 0
0 0 0
0 0 0
0 0 0
0 0 0
0 0 0
0 0 0
0 0 0
0 0 0
0 0 0
0 0 0
0 0 0
0 0 0
0 0 0
0 0 0
0 0 0
0 0 0
0 0 0
0 0 0
0 0 0
0 0 0
0 0 0
0 0 0
0 0 0
0 0 0
0 0 0
0 0 0
0 0 0
0 0 0
0 0 0
0 0 0
0 0 0
0 0 0
0 0 0
0 0 0
0 0 0
0 0 0
0 0 0
0 0 0
0 0 0
0 0 0
0 0 0
0 0 0
0 0 0
255 255 255
255 255 255
255 255 255
255 255 255
255 255 255
255 255 255
255 255 255
255 255 255
255 255 255
255 255 255
255 255 255
255 255 255
255 255 255
255 255 255
255 255 255
255 255 255
255 255 255
255 255 255
255 255 255
255 255 255
255 255 255
255 255 255
255 255 255
255 255 255
255 255 255
255 255 255
255 255 255
255 255 255
255 255 255
255 255 255
255 255 255
255 255 255
255 255 255
255 255 255
255 255 255
255 255 255
255 255 255
255 255 255
255 255 255
255 255 255
255 255 255
255 255 255
255 255 255
255 255 255
255 255 255
255 255 255
255 255 255
255 255 255
255 255 255
255 255 255
255 255 255
255 255 255
255 255 255
255 255 255
255 255 255
255 255 255
255 255 255
255 255 255
255 255 255
255 255 255
255 255 255
255 255 255
255 255 255
255 255 255
255 255 255
255 255 255
255 255 255
255 255 255
255 255 255
255 255 255
255 255 255
255 255 255
255 255 255
255 255 255
255 255 255
255 255 255
255 255 255
255 255 255
255 255 255
255 255 255
255 255 255
255 255 255
255 255 255
255 255 255
255 255 255
255 255 255
255 255 255
255 255 255
255 255 255
255 255 255
255 255 255
255 255 255
0 0 0
0 0 0
0 0 0
0 0 0
0 0 0
0 0 0
0 0 0
0 0 0
0 0 0
0 0 0
0 0 0
0 0 0
0 0 0
0 0 0
0 0 0
0 0 0
0 0 0
0 0 0
0 0 0
0 0 0
0 0 0
0 0 0
0 0 0
0 0 0
0 0 0
0 0 0
0 0 0
0 0 0
0 0 0
0 0 0
0 0 0
0 0 0
0 0 0
0 0 0
0 0 0
0 0 0
0 0 0
0 0 0
0 0 0
0 0 0
0 0 0
0 0 0
0 0 0
0 0 0
0 0 0
0 0 0
0 0 0
0 0 0
0 0 0
0 0 0
0 0 0
0 0 0
0 0 0
0 0 0
0 0 0
0 0 0
0 0 0
0 0 0
0 0 0
0 0 0
0 0 0
0 0 0
0 0 0
0 0 0
0 0 0
0 0 0
0 0 0
0 0 0
0 0 0
0 0 0
0 0 0
0 0 0
0 0 0
0 0 0
0 0 0
0 0 0
0 0 0
0 0 0
0 0 0
0 0 0
0 0 0
0 0 0
0 0 0
0 0 0
0 0 0
0 0 0
0 0 0
0 0 0
0 0 0
0 0 0
0 0 0
0 0 0
0 0 0
0 0 0
0 0 0
0 0 0
0 0 0
0 0 0
0 0 0
0 0 0
0 0 0
0 0 0
0 0 0
0 0 0
0 0 0
0 0 0
0 0 0
0 0 0
0 0 0
0 0 0
0 0 0
0 0 0
0 0 0
0 0 0
0 0 0
0 0 0
0 0 0
0 0 0
0 0 0
0 0 0
0 0 0
0 0 0
0 0 0
0 0 0
0 0 0
0 0 0
0 0 0
0 0 0
0 0 0
0 0 0
0 0 0
0 0 0
0 0 0
0 0 0
0 0 0
0 0 0
0 0 0
0 0 0
0 0 0
0 0 0
0 0 0
0 0 0
0 0 0
0 0 0
0 0 0
0 0 0
0 0 0
0 0 0
0 0 0
0 0 0
0 0 0
0 0 0
0 0 0
0 0 0
0 0 0
0 0 0
0 0 0
0 0 0
0 0 0
0 0 0
0 0 0
0 0 0
0 0 0
0 0 0
0 0 0
0 0 0
0 0 0
0 0 0
0 0 0
0 0 0
0 0 0
0 0 0
0 0 0
0 0 0
0 0 0
0 0 0
0 0 0
0 0 0
0 0 0
0 0 0
0 0 0
0 0 0
0 0 0
0 0 0
0 0 0
0 0 0
0 0 0
0 0 0
0 0 0
0 0 0
0 0 0
0 0 0
0 0 0
0 0 0
0 0 0
0 0 0
0 0 0
0 0 0
0 0 0
0 0 0
0 0 0
0 0 0
0 0 0
0 0 0
0 0 0
0 0 0
0 0 0
0 0 0
0 0 0
0 0 0
0 0 0
0 0 0
0 0 0
0 0 0
0 0 0
0 0 0
0 0 0
0 0 0
0 0 0
0 0 0
0 0 0
0 0 0
0 0 0
0 0 0
0 0 0
0 0 0
0 0 0
0 0 0
0 0 0
0 0 0
0 0 0
0 0 0
0 0 0
0 0 0
0 0 0
0 0 0
0 0 0
0 0 0
0 0 0
0 0 0
0 0 0
0 0 0
0 0 0
0 0 0
0 0 0
0 0 0
0 0 0
0 0 0
0 0 0
0 0 0
0 0 0
0 0 0
0 0 0
0 0 0
0 0 0
0 0 0
0 0 0
0 0 0
0 0 0
0 0 0
0 0 0
0 0 0
0 0 0
0 0 0
0 0 0
0 0 0
0 0 0
0 0 0
0 0 0
0 0 0
0 0 0
0 0 0
0 0 0
0 0 0
0 0 0
0 0 0
0 0 0
0 0 0
0 0 0
0 0 0
0 0 0
0 0 0
0 0 0
0 0 0
0 0 0
0 0 0
0 0 0
0 0 0
0 0 0
0 0 0
0 0 0
0 0 0
0 0 0
0 0 0
0 0 0
0 0 0
0 0 0
0 0 0
0 0 0
0 0 0
0 0 0
0 0 0
0 0 0
0 0 0
0 0 0
0 0 0
0 0 0
0 0 0
0 0 0
255 255 255
255 255 255
255 255 255
255 255 255
255 255 255
255 255 255
255 255 255
255 255 255
255 255 255
255 255 255
255 255 255
255 255 255
255 255 255
255 255 255
255 255 255
255 255 255
255 255 255
255 255 255
255 255 255
255 255 255
255 255 255
255 255 255
255 255 255
255 255 255
255 255 255
255 255 255
255 255 255
255 255 255
255 255 255
255 255 255
255 255 255
255 255 255
255 255 255
255 255 255
255 255 255
255 255 255
255 255 255
255 255 255
255 255 255
255 255 255
255 255 255
255 255 255
255 255 255
255 255 255
255 255 255
255 255 255
255 255 255
255 255 255
255 255 255
255 255 255
255 255 255
255 255 255
255 255 255
255 255 255
255 255 255
255 255 255
255 255 255
255 255 255
255 255 255
255 255 255
255 255 255
255 255 255
255 255 255
255 255 255
255 255 255
255 255 255
255 255 255
255 255 255
255 255 255
255 255 255
255 255 255
255 255 255
255 255 255
255 255 255
255 255 255
255 255 255
255 255 255
255 255 255
255 255 255
255 255 255
255 255 255
255 255 255
255 255 255
255 255 255
255 255 255
255 255 255
255 255 255
255 255 255
255 255 255
255 255 255
0 0 0
0 0 0
0 0 0
0 0 0
0 0 0
0 0 0
0 0 0
0 0 0
0 0 0
0 0 0
0 0 0
0 0 0
0 0 0
0 0 0
0 0 0
0 0 0
0 0 0
0 0 0
0 0 0
0 0 0
0 0 0
0 0 0
0 0 0
0 0 0
0 0 0
0 0 0
0 0 0
0 0 0
0 0 0
0 0 0
0 0 0
0 0 0
0 0 0
0 0 0
0 0 0
0 0 0
0 0 0
0 0 0
0 0 0
0 0 0
0 0 0
0 0 0
0 0 0
0 0 0
0 0 0
0 0 0
0 0 0
0 0 0
0 0 0
0 0 0
0 0 0
0 0 0
0 0 0
0 0 0
0 0 0
0 0 0
0 0 0
0 0 0
0 0 0
0 0 0
0 0 0
0 0 0
0 0 0
0 0 0
0 0 0
0 0 0
0 0 0
0 0 0
0 0 0
0 0 0
0 0 0
0 0 0
0 0 0
0 0 0
0 0 0
0 0 0
0 0 0
0 0 0
0 0 0
0 0 0
0 0 0
0 0 0
0 0 0
0 0 0
0 0 0
0 0 0
0 0 0
0 0 0
0 0 0
0 0 0
0 0 0
0 0 0
0 0 0
0 0 0
0 0 0
0 0 0
0 0 0
0 0 0
0 0 0
0 0 0
0 0 0
0 0 0
0 0 0
0 0 0
0 0 0
0 0 0
0 0 0
0 0 0
0 0 0
0 0 0
0 0 0
0 0 0
0 0 0
0 0 0
0 0 0
0 0 0
0 0 0
0 0 0
0 0 0
0 0 0
0 0 0
0 0 0
0 0 0
0 0 0
0 0 0
0 0 0
0 0 0
0 0 0
0 0 0
0 0 0
0 0 0
0 0 0
0 0 0
0 0 0
0 0 0
0 0 0
0 0 0
0 0 0
0 0 0
0 0 0
0 0 0
0 0 0
0 0 0
0 0 0
0 0 0
0 0 0
0 0 0
0 0 0
0 0 0
0 0 0
0 0 0
0 0 0
0 0 0
0 0 0
0 0 0
0 0 0
0 0 0
0 0 0
0 0 0
0 0 0
0 0 0
0 0 0
0 0 0
0 0 0
0 0 0
0 0 0
0 0 0
0 0 0
0 0 0
0 0 0
0 0 0
0 0 0
0 0 0
0 0 0
0 0 0
0 0 0
0 0 0
0 0 0
0 0 0
0 0 0
0 0 0
0 0 0
0 0 0
0 0 0
0 0 0
0 0 0
0 0 0
0 0 0
0 0 0
0 0 0
0 0 0
0 0 0
0 0 0
0 0 0
0 0 0
0 0 0
0 0 0
0 0 0
0 0 0
0 0 0
0 0 0
0 0 0
0 0 0
0 0 0
0 0 0
0 0 0
0 0 0
0 0 0
0 0 0
0 0 0
0 0 0
0 0 0
0 0 0
0 0 0
0 0 0
0 0 0
0 0 0
0 0 0
0 0 0
0 0 0
0 0 0
0 0 0
0 0 0
0 0 0
0 0 0
0 0 0
0 0 0
0 0 0
0 0 0
0 0 0
0 0 0
0 0 0
0 0 0
0 0 0
0 0 0
0 0 0
0 0 0
0 0 0
0 0 0
0 0 0
0 0 0
0 0 0
0 0 0
0 0 0
0 0 0
0 0 0
0 0 0
0 0 0
0 0 0
0 0 0
0 0 0
0 0 0
0 0 0
0 0 0
0 0 0
0 0 0
0 0 0
0 0 0
0 0 0
0 0 0
0 0 0
0 0 0
0 0 0
0 0 0
0 0 0
0 0 0
0 0 0
0 0 0
0 0 0
0 0 0
0 0 0
0 0 0
0 0 0
0 0 0
0 0 0
0 0 0
0 0 0
0 0 0
0 0 0
0 0 0
0 0 0
0 0 0
0 0 0
0 0 0
0 0 0
0 0 0
0 0 0
0 0 0
0 0 0
0 0 0
0 0 0
0 0 0
0 0 0
0 0 0
0 0 0
0 0 0
0 0 0
0 0 0
0 0 0
0 0 0
0 0 0
0 0 0
0 0 0
0 0 0
0 0 0
0 0 0
0 0 0
0 0 0
0 0 0
0 0 0
135 135 135
255 255 255
255 255 255
255 255 255
255 255 255
255 255 255
255 255 255
255 255 255
255 255 255
255 255 255
255 255 255
255 255 255
255 255 255
255 255 255
255 255 255
255 255 255
255 255 255
255 255 255
255 255 255
255 255 255
255 255 255
255 255 255
255 255 255
255 255 255
255 255 255
255 255 255
255 255 255
255 255 255
255 255 255
255 255 255
255 255 255
255 255 255
255 255 255
255 255 255
255 255 255
255 255 255
255 255 255
255 255 255
255 255 255
255 255 255
255 255 255
255 255 255
255 255 255
255 255 255
255 255 255
255 255 255
255 255 255
255 255 255
255 255 255
255 255 255
255 255 255
255 255 255
255 255 255
255 255 255
255 255 255
255 255 255
255 255 255
255 255 255
255 255 255
255 255 255
255 255 255
255 255 255
255 255 255
255 255 255
255 255 255
255 255 255
255 255 255
255 255 255
255 255 255
255 255 255
255 255 255
255 255 255
255 255 255
255 255 255
255 255 255
255 255 255
255 255 255
255 255 255
255 255 255
255 255 255
255 255 255
255 255 255
255 255 255
255 255 255
255 255 255
255 255 255
255 255 255
255 255 255
255 255 255
125 125 125
0 0 0
0 0 0
0 0 0
0 0 0
0 0 0
0 0 0
0 0 0
0 0 0
0 0 0
0 0 0
0 0 0
0 0 0
0 0 0
0 0 0
0 0 0
0 0 0
0 0 0
0 0 0
0 0 0
0 0 0
0 0 0
0 0 0
0 0 0
0 0 0
0 0 0
0 0 0
0 0 0
0 0 0
0 0 0
0 0 0
0 0 0
0 0 0
0 0 0
0 0 0
0 0 0
0 0 0
0 0 0
0 0 0
0 0 0
0 0 0
0 0 0
0 0 0
0 0 0
0 0 0
0 0 0
0 0 0
0 0 0
0 0 0
0 0 0
0 0 0
0 0 0
0 0 0
0 0 0
0 0 0
0 0 0
0 0 0
0 0 0
0 0 0
0 0 0
0 0 0
0 0 0
0 0 0
0 0 0
0 0 0
0 0 0
0 0 0
0 0 0
0 0 0
0 0 0
0 0 0
0 0 0
0 0 0
0 0 0
0 0 0
0 0 0
0 0 0
0 0 0
0 0 0
0 0 0
0 0 0
0 0 0
0 0 0
0 0 0
0 0 0
0 0 0
0 0 0
0 0 0
0 0 0
0 0 0
0 0 0
0 0 0
0 0 0
0 0 0
0 0 0
0 0 0
0 0 0
0 0 0
0 0 0
0 0 0
0 0 0
0 0 0
0 0 0
0 0 0
0 0 0
0 0 0
0 0 0
0 0 0
0 0 0
0 0 0
0 0 0
0 0 0
0 0 0
0 0 0
0 0 0
0 0 0
0 0 0
0 0 0
0 0 0
0 0 0
0 0 0
0 0 0
0 0 0
0 0 0
0 0 0
0 0 0
0 0 0
0 0 0
0 0 0
0 0 0
0 0 0
0 0 0
0 0 0
0 0 0
0 0 0
0 0 0
0 0 0
0 0 0
0 0 0
0 0 0
0 0 0
0 0 0
0 0 0
0 0 0
0 0 0
0 0 0
0 0 0
0 0 0
0 0 0
0 0 0
0 0 0
0 0 0
0 0 0
0 0 0
0 0 0
0 0 0
0 0 0
0 0 0
0 0 0
0 0 0
0 0 0
0 0 0
0 0 0
0 0 0
0 0 0
0 0 0
0 0 0
0 0 0
0 0 0
0 0 0
0 0 0
0 0 0
0 0 0
0 0 0
0 0 0
0 0 0
0 0 0
0 0 0
0 0 0
0 0 0
0 0 0
0 0 0
0 0 0
0 0 0
0 0 0
0 0 0
0 0 0
0 0 0
0 0 0
0 0 0
0 0 0
0 0 0
0 0 0
0 0 0
0 0 0
0 0 0
0 0 0
0 0 0
0 0 0
0 0 0
0 0 0
0 0 0
0 0 0
0 0 0
0 0 0
0 0 0
0 0 0
0 0 0
0 0 0
0 0 0
0 0 0
0 0 0
0 0 0
0 0 0
0 0 0
0 0 0
0 0 0
0 0 0
0 0 0
0 0 0
0 0 0
0 0 0
0 0 0
0 0 0
0 0 0
0 0 0
0 0 0
0 0 0
0 0 0
0 0 0
0 0 0
0 0 0
0 0 0
0 0 0
0 0 0
0 0 0
0 0 0
0 0 0
0 0 0
0 0 0
0 0 0
0 0 0
0 0 0
0 0 0
0 0 0
0 0 0
0 0 0
0 0 0
0 0 0
0 0 0
0 0 0
0 0 0
0 0 0
0 0 0
0 0 0
0 0 0
0 0 0
0 0 0
0 0 0
0 0 0
0 0 0
0 0 0
0 0 0
0 0 0
0 0 0
0 0 0
0 0 0
0 0 0
0 0 0
0 0 0
0 0 0
0 0 0
0 0 0
0 0 0
0 0 0
0 0 0
0 0 0
0 0 0
0 0 0
0 0 0
0 0 0
0 0 0
0 0 0
0 0 0
0 0 0
0 0 0
0 0 0
0 0 0
0 0 0
0 0 0
0 0 0
0 0 0
0 0 0
0 0 0
0 0 0
0 0 0
0 0 0
0 0 0
0 0 0
0 0 0
0 0 0
0 0 0
0 0 0
0 0 0
0 0 0
0 0 0
0 0 0
0 0 0
0 0 0
0 0 0
0 0 0
0 0 0
255 255 255
255 255 255
255 255 255
255 255 255
255 255 255
255 255 255
255 255 255
255 255 255
255 255 255
255 255 255
255 255 255
255 255 255
255 255 255
255 255 255
255 255 255
255 255 255
255 255 255
255 255 255
255 255 255
255 255 255
255 255 255
255 255 255
255 255 255
255 255 255
255 255 255
255 255 255
255 255 255
255 255 255
255 255 255
255 255 255
255 255 255
255 255 255
255 255 255
255 255 255
255 255 255
255 255 255
255 255 255
255 255 255
255 255 255
255 255 255
255 255 255
255 255 255
255 255 255
255 255 255
255 255 255
255 255 255
255 255 255
255 255 255
255 255 255
255 255 255
255 255 255
255 255 255
255 255 255
255 255 255
255 255 255
255 255 255
255 255 255
255 255 255
255 255 255
255 255 255
255 255 255
255 255 255
255 255 255
255 255 255
255 255 255
255 255 255
255 255 255
255 255 255
255 255 255
255 255 255
255 255 255
255 255 255
255 255 255
255 255 255
255 255 255
255 255 255
255 255 255
255 255 255
255 255 255
255 255 255
255 255 255
255 255 255
255 255 255
255 255 255
255 255 255
255 255 255
255 255 255
250 250 250
0 0 0
0 0 0
0 0 0
0 0 0
0 0 0
0 0 0
0 0 0
0 0 0
0 0 0
0 0 0
0 0 0
0 0 0
0 0 0
0 0 0
0 0 0
0 0 0
0 0 0
0 0 0
0 0 0
0 0 0
0 0 0
0 0 0
0 0 0
0 0 0
0 0 0
0 0 0
0 0 0
0 0 0
0 0 0
0 0 0
0 0 0
0 0 0
0 0 0
0 0 0
0 0 0
0 0 0
0 0 0
0 0 0
0 0 0
0 0 0
0 0 0
0 0 0
0 0 0
0 0 0
0 0 0
0 0 0
0 0 0
0 0 0
0 0 0
0 0 0
0 0 0
0 0 0
0 0 0
0 0 0
0 0 0
0 0 0
0 0 0
0 0 0
0 0 0
0 0 0
0 0 0
0 0 0
0 0 0
0 0 0
0 0 0
0 0 0
0 0 0
0 0 0
0 0 0
0 0 0
0 0 0
0 0 0
0 0 0
0 0 0
0 0 0
0 0 0
0 0 0
0 0 0
0 0 0
0 0 0
0 0 0
0 0 0
0 0 0
0 0 0
0 0 0
0 0 0
0 0 0
0 0 0
0 0 0
0 0 0
0 0 0
0 0 0
0 0 0
0 0 0
0 0 0
0 0 0
0 0 0
0 0 0
0 0 0
0 0 0
0 0 0
0 0 0
0 0 0
0 0 0
0 0 0
0 0 0
0 0 0
0 0 0
0 0 0
0 0 0
0 0 0
0 0 0
0 0 0
0 0 0
0 0 0
0 0 0
0 0 0
0 0 0
0 0 0
0 0 0
0 0 0
0 0 0
0 0 0
0 0 0
0 0 0
0 0 0
0 0 0
0 0 0
0 0 0
0 0 0
0 0 0
0 0 0
0 0 0
0 0 0
0 0 0
0 0 0
0 0 0
0 0 0
0 0 0
0 0 0
0 0 0
0 0 0
0 0 0
0 0 0
0 0 0
0 0 0
0 0 0
0 0 0
0 0 0
0 0 0
0 0 0
0 0 0
0 0 0
0 0 0
0 0 0
0 0 0
0 0 0
0 0 0
0 0 0
0 0 0
0 0 0
0 0 0
0 0 0
0 0 0
0 0 0
0 0 0
0 0 0
0 0 0
0 0 0
0 0 0
0 0 0
0 0 0
0 0 0
0 0 0
0 0 0
0 0 0
0 0 0
0 0 0
0 0 0
0 0 0
0 0 0
0 0 0
0 0 0
0 0 0
0 0 0
0 0 0
0 0 0
0 0 0
0 0 0
0 0 0
0 0 0
0 0 0
0 0 0
0 0 0
0 0 0
0 0 0
0 0 0
0 0 0
0 0 0
0 0 0
0 0 0
0 0 0
0 0 0
0 0 0
0 0 0
0 0 0
0 0 0
0 0 0
0 0 0
0 0 0
0 0 0
0 0 0
0 0 0
0 0 0
0 0 0
0 0 0
0 0 0
0 0 0
0 0 0
0 0 0
0 0 0
0 0 0
0 0 0
0 0 0
0 0 0
0 0 0
0 0 0
0 0 0
0 0 0
0 0 0
0 0 0
0 0 0
0 0 0
0 0 0
0 0 0
0 0 0
0 0 0
0 0 0
0 0 0
0 0 0
0 0 0
0 0 0
0 0 0
0 0 0
0 0 0
0 0 0
0 0 0
0 0 0
0 0 0
0 0 0
0 0 0
0 0 0
0 0 0
0 0 0
0 0 0
0 0 0
0 0 0
0 0 0
0 0 0
0 0 0
0 0 0
0 0 0
0 0 0
0 0 0
0 0 0
0 0 0
0 0 0
0 0 0
0 0 0
0 0 0
0 0 0
0 0 0
0 0 0
0 0 0
0 0 0
0 0 0
0 0 0
0 0 0
0 0 0
0 0 0
0 0 0
0 0 0
0 0 0
0 0 0
0 0 0
0 0 0
0 0 0
0 0 0
0 0 0
0 0 0
0 0 0
0 0 0
0 0 0
0 0 0
0 0 0
0 0 0
0 0 0
0 0 0
0 0 0
0 0 0
0 0 0
0 0 0
0 0 0
0 0 0
0 0 0
0 0 0
0 0 0
0 0 0
0 0 0
0 0 0
0 0 0
0 0 0
0 0 0
255 255 255
255 255 255
255 255 255
255 255 255
255 255 255
255 255 255
255 255 255
255 255 255
255 255 255
255 255 255
255 255 255
255 255 255
255 255 255
255 255 255
255 255 255
255 255 255
255 255 255
255 255 255
255 255 255
255 255 255
255 255 255
255 255 255
255 255 255
255 255 255
255 255 255
255 255 255
255 255 255
255 255 255
255 255 255
255 255 255
255 255 255
255 255 255
255 255 255
255 255 255
255 255 255
255 255 255
255 255 255
255 255 255
255 255 255
255 255 255
255 255 255
255 255 255
255 255 255
255 255 255
255 255 255
255 255 255
255 255 255
255 255 255
255 255 255
255 255 255
255 255 255
255 255 255
255 255 255
255 255 255
255 255 255
255 255 255
255 255 255
255 255 255
255 255 255
255 255 255
255 255 255
255 255 255
255 255 255
255 255 255
255 255 255
255 255 255
255 255 255
255 255 255
255 255 255
255 255 255
255 255 255
255 255 255
255 255 255
255 255 255
255 255 255
255 255 255
255 255 255
255 255 255
255 255 255
255 255 255
255 255 255
255 255 255
255 255 255
255 255 255
255 255 255
255 255 255
0 0 0
0 0 0
0 0 0
0 0 0
0 0 0
0 0 0
0 0 0
0 0 0
0 0 0
0 0 0
0 0 0
0 0 0
0 0 0
0 0 0
0 0 0
0 0 0
0 0 0
0 0 0
0 0 0
0 0 0
0 0 0
0 0 0
0 0 0
0 0 0
0 0 0
0 0 0
0 0 0
0 0 0
0 0 0
0 0 0
0 0 0
0 0 0
0 0 0
0 0 0
0 0 0
0 0 0
0 0 0
0 0 0
0 0 0
0 0 0
0 0 0
0 0 0
0 0 0
0 0 0
0 0 0
0 0 0
0 0 0
0 0 0
0 0 0
0 0 0
0 0 0
0 0 0
0 0 0
0 0 0
0 0 0
0 0 0
0 0 0
0 0 0
0 0 0
0 0 0
0 0 0
0 0 0
0 0 0
0 0 0
0 0 0
0 0 0
0 0 0
0 0 0
0 0 0
0 0 0
0 0 0
0 0 0
0 0 0
0 0 0
0 0 0
0 0 0
0 0 0
0 0 0
0 0 0
0 0 0
0 0 0
0 0 0
0 0 0
0 0 0
0 0 0
0 0 0
0 0 0
0 0 0
0 0 0
0 0 0
0 0 0
0 0 0
0 0 0
0 0 0
0 0 0
0 0 0
0 0 0
0 0 0
0 0 0
0 0 0
0 0 0
0 0 0
0 0 0
0 0 0
0 0 0
0 0 0
0 0 0
0 0 0
0 0 0
0 0 0
0 0 0
0 0 0
0 0 0
0 0 0
0 0 0
0 0 0
0 0 0
0 0 0
0 0 0
0 0 0
0 0 0
0 0 0
0 0 0
0 0 0
0 0 0
0 0 0
0 0 0
0 0 0
0 0 0
0 0 0
0 0 0
0 0 0
0 0 0
0 0 0
0 0 0
0 0 0
0 0 0
0 0 0
0 0 0
0 0 0
0 0 0
0 0 0
0 0 0
0 0 0
0 0 0
0 0 0
0 0 0
0 0 0
0 0 0
0 0 0
0 0 0
0 0 0
0 0 0
0 0 0
0 0 0
0 0 0
0 0 0
0 0 0
0 0 0
0 0 0
0 0 0
0 0 0
0 0 0
0 0 0
0 0 0
0 0 0
0 0 0
0 0 0
0 0 0
0 0 0
0 0 0
0 0 0
0 0 0
0 0 0
0 0 0
0 0 0
0 0 0
0 0 0
0 0 0
0 0 0
0 0 0
0 0 0
0 0 0
0 0 0
0 0 0
0 0 0
0 0 0
0 0 0
0 0 0
0 0 0
0 0 0
0 0 0
0 0 0
0 0 0
0 0 0
0 0 0
0 0 0
0 0 0
0 0 0
0 0 0
0 0 0
0 0 0
0 0 0
0 0 0
0 0 0
0 0 0
0 0 0
0 0 0
0 0 0
0 0 0
0 0 0
0 0 0
0 0 0
0 0 0
0 0 0
0 0 0
0 0 0
0 0 0
0 0 0
0 0 0
0 0 0
0 0 0
0 0 0
0 0 0
0 0 0
0 0 0
0 0 0
0 0 0
0 0 0
0 0 0
0 0 0
0 0 0
0 0 0
0 0 0
0 0 0
0 0 0
0 0 0
0 0 0
0 0 0
0 0 0
0 0 0
0 0 0
0 0 0
0 0 0
0 0 0
0 0 0
0 0 0
0 0 0
0 0 0
0 0 0
0 0 0
0 0 0
0 0 0
0 0 0
0 0 0
0 0 0
0 0 0
0 0 0
0 0 0
0 0 0
0 0 0
0 0 0
0 0 0
0 0 0
0 0 0
0 0 0
0 0 0
0 0 0
0 0 0
0 0 0
0 0 0
0 0 0
0 0 0
0 0 0
0 0 0
0 0 0
0 0 0
0 0 0
0 0 0
0 0 0
0 0 0
0 0 0
0 0 0
0 0 0
0 0 0
0 0 0
0 0 0
0 0 0
0 0 0
0 0 0
0 0 0
0 0 0
0 0 0
0 0 0
0 0 0
0 0 0
0 0 0
0 0 0
0 0 0
0 0 0
0 0 0
0 0 0
0 0 0
0 0 0
0 0 0
0 0 0
0 0 0
0 0 0
0 0 0
0 0 0
0 0 0
0 0 0
0 0 0
0 0 0
0 0 0
255 255 255
255 255 255
255 255 255
255 255 255
255 255 255
255 255 255
255 255 255
255 255 255
255 255 255
255 255 255
255 255 255
255 255 255
255 255 255
255 255 255
255 255 255
255 255 255
255 255 255
255 255 255
255 255 255
255 255 255
255 255 255
255 255 255
255 255 255
255 255 255
255 255 255
255 255 255
255 255 255
255 255 255
255 255 255
255 255 255
255 255 255
255 255 255
255 255 255
255 255 255
255 255 255
255 255 255
255 255 255
255 255 255
255 255 255
255 255 255
255 255 255
255 255 255
255 255 255
255 255 255
255 255 255
255 255 255
255 255 255
255 255 255
255 255 255
255 255 255
255 255 255
255 255 255
255 255 255
255 255 255
255 255 255
255 255 255
255 255 255
255 255 255
255 255 255
255 255 255
255 255 255
255 255 255
255 255 255
255 255 255
255 255 255
255 255 255
255 255 255
255 255 255
255 255 255
255 255 255
255 255 255
255 255 255
255 255 255
255 255 255
255 255 255
255 255 255
255 255 255
255 255 255
255 255 255
255 255 255
255 255 255
255 255 255
255 255 255
255 255 255
72 72 72
0 0 0
0 0 0
0 0 0
0 0 0
0 0 0
0 0 0
0 0 0
0 0 0
0 0 0
0 0 0
0 0 0
0 0 0
0 0 0
0 0 0
0 0 0
0 0 0
0 0 0
0 0 0
0 0 0
0 0 0
0 0 0
0 0 0
0 0 0
0 0 0
0 0 0
0 0 0
0 0 0
0 0 0
0 0 0
0 0 0
0 0 0
0 0 0
0 0 0
0 0 0
0 0 0
0 0 0
0 0 0
0 0 0
0 0 0
0 0 0
0 0 0
0 0 0
0 0 0
0 0 0
0 0 0
0 0 0
0 0 0
0 0 0
0 0 0
0 0 0
0 0 0
0 0 0
0 0 0
0 0 0
0 0 0
0 0 0
0 0 0
0 0 0
0 0 0
0 0 0
0 0 0
0 0 0
0 0 0
0 0 0
0 0 0
0 0 0
0 0 0
0 0 0
0 0 0
0 0 0
0 0 0
0 0 0
0 0 0
0 0 0
0 0 0
0 0 0
0 0 0
0 0 0
0 0 0
0 0 0
0 0 0
0 0 0
0 0 0
0 0 0
0 0 0
0 0 0
0 0 0
0 0 0
0 0 0
0 0 0
0 0 0
0 0 0
0 0 0
0 0 0
0 0 0
0 0 0
0 0 0
0 0 0
0 0 0
0 0 0
0 0 0
0 0 0
0 0 0
0 0 0
0 0 0
0 0 0
0 0 0
0 0 0
0 0 0
0 0 0
0 0 0
0 0 0
0 0 0
0 0 0
0 0 0
0 0 0
0 0 0
0 0 0
0 0 0
0 0 0
0 0 0
0 0 0
0 0 0
0 0 0
0 0 0
0 0 0
0 0 0
0 0 0
0 0 0
0 0 0
0 0 0
0 0 0
0 0 0
0 0 0
0 0 0
0 0 0
0 0 0
0 0 0
0 0 0
0 0 0
0 0 0
0 0 0
0 0 0
0 0 0
0 0 0
0 0 0
0 0 0
0 0 0
0 0 0
0 0 0
0 0 0
0 0 0
0 0 0
0 0 0
0 0 0
0 0 0
0 0 0
0 0 0
0 0 0
0 0 0
0 0 0
0 0 0
0 0 0
0 0 0
0 0 0
0 0 0
0 0 0
0 0 0
0 0 0
0 0 0
0 0 0
0 0 0
0 0 0
0 0 0
0 0 0
0 0 0
0 0 0
0 0 0
0 0 0
0 0 0
0 0 0
0 0 0
0 0 0
0 0 0
0 0 0
0 0 0
0 0 0
0 0 0
0 0 0
0 0 0
0 0 0
0 0 0
0 0 0
0 0 0
0 0 0
0 0 0
0 0 0
0 0 0
0 0 0
0 0 0
0 0 0
0 0 0
0 0 0
0 0 0
0 0 0
0 0 0
0 0 0
0 0 0
0 0 0
0 0 0
0 0 0
0 0 0
0 0 0
0 0 0
0 0 0
0 0 0
0 0 0
0 0 0
0 0 0
0 0 0
0 0 0
0 0 0
0 0 0
0 0 0
0 0 0
0 0 0
0 0 0
0 0 0
0 0 0
0 0 0
0 0 0
0 0 0
0 0 0
0 0 0
0 0 0
0 0 0
0 0 0
0 0 0
0 0 0
0 0 0
0 0 0
0 0 0
0 0 0
0 0 0
0 0 0
0 0 0
0 0 0
0 0 0
0 0 0
0 0 0
0 0 0
0 0 0
0 0 0
0 0 0
0 0 0
0 0 0
0 0 0
0 0 0
0 0 0
0 0 0
0 0 0
0 0 0
0 0 0
0 0 0
0 0 0
0 0 0
0 0 0
0 0 0
0 0 0
0 0 0
0 0 0
0 0 0
0 0 0
0 0 0
0 0 0
0 0 0
0 0 0
0 0 0
0 0 0
0 0 0
0 0 0
0 0 0
0 0 0
0 0 0
0 0 0
0 0 0
0 0 0
0 0 0
0 0 0
0 0 0
0 0 0
0 0 0
0 0 0
0 0 0
0 0 0
0 0 0
0 0 0
0 0 0
0 0 0
0 0 0
0 0 0
0 0 0
0 0 0
0 0 0
0 0 0
0 0 0
0 0 0
0 0 0
0 0 0
0 0 0
0 0 0
0 0 0
0 0 0
0 0 0
0 0 0
144 144 144
255 255 255
255 255 255
255 255 255
255 255 255
255 255 255
255 255 255
255 255 255
255 255 255
255 255 255
255 255 255
255 255 255
255 255 255
255 255 255
255 255 255
255 255 255
255 255 255
255 255 255
255 255 255
255 255 255
255 255 255
255 255 255
255 255 255
255 255 255
255 255 255
255 255 255
255 255 255
255 255 255
255 255 255
255 255 255
255 255 255
255 255 255
255 255 255
255 255 255
255 255 255
255 255 255
255 255 255
255 255 255
255 255 255
255 255 255
255 255 255
255 255 255
255 255 255
255 255 255
255 255 255
255 255 255
255 255 255
255 255 255
255 255 255
255 255 255
255 255 255
255 255 255
255 255 255
255 255 255
255 255 255
255 255 255
255 255 255
255 255 255
255 255 255
255 255 255
255 255 255
255 255 255
255 255 255
255 255 255
255 255 255
255 255 255
255 255 255
255 255 255
255 255 255
255 255 255
255 255 255
255 255 255
255 255 255
255 255 255
255 255 255
255 255 255
255 255 255
255 255 255
255 255 255
255 255 255
255 255 255
255 255 255
255 255 255
114 114 114
0 0 0
0 0 0
0 0 0
0 0 0
0 0 0
0 0 0
0 0 0
0 0 0
0 0 0
0 0 0
0 0 0
0 0 0
0 0 0
0 0 0
0 0 0
0 0 0
0 0 0
0 0 0
0 0 0
0 0 0
0 0 0
0 0 0
0 0 0
0 0 0
0 0 0
0 0 0
0 0 0
0 0 0
0 0 0
0 0 0
0 0 0
0 0 0
0 0 0
0 0 0
0 0 0
0 0 0
0 0 0
0 0 0
0 0 0
0 0 0
0 0 0
0 0 0
0 0 0
0 0 0
0 0 0
0 0 0
0 0 0
0 0 0
0 0 0
0 0 0
0 0 0
0 0 0
0 0 0
0 0 0
0 0 0
0 0 0
0 0 0
0 0 0
0 0 0
0 0 0
0 0 0
0 0 0
0 0 0
0 0 0
0 0 0
0 0 0
0 0 0
0 0 0
0 0 0
0 0 0
0 0 0
0 0 0
0 0 0
0 0 0
0 0 0
0 0 0
0 0 0
0 0 0
0 0 0
0 0 0
0 0 0
0 0 0
0 0 0
0 0 0
0 0 0
0 0 0
0 0 0
0 0 0
0 0 0
0 0 0
0 0 0
0 0 0
0 0 0
0 0 0
0 0 0
0 0 0
0 0 0
0 0 0
0 0 0
0 0 0
0 0 0
0 0 0
0 0 0
0 0 0
0 0 0
0 0 0
0 0 0
0 0 0
0 0 0
0 0 0
0 0 0
0 0 0
0 0 0
0 0 0
0 0 0
0 0 0
0 0 0
0 0 0
0 0 0
0 0 0
0 0 0
0 0 0
0 0 0
0 0 0
0 0 0
0 0 0
0 0 0
0 0 0
0 0 0
0 0 0
0 0 0
0 0 0
0 0 0
0 0 0
0 0 0
0 0 0
0 0 0
0 0 0
0 0 0
0 0 0
0 0 0
0 0 0
0 0 0
0 0 0
0 0 0
0 0 0
0 0 0
0 0 0
0 0 0
0 0 0
0 0 0
0 0 0
0 0 0
0 0 0
0 0 0
0 0 0
0 0 0
0 0 0
0 0 0
0 0 0
0 0 0
0 0 0
0 0 0
0 0 0
0 0 0
0 0 0
0 0 0
0 0 0
0 0 0
0 0 0
0 0 0
0 0 0
0 0 0
0 0 0
0 0 0
0 0 0
0 0 0
0 0 0
0 0 0
0 0 0
0 0 0
0 0 0
0 0 0
0 0 0
0 0 0
0 0 0
0 0 0
0 0 0
0 0 0
0 0 0
0 0 0
0 0 0
0 0 0
0 0 0
0 0 0
0 0 0
0 0 0
0 0 0
0 0 0
0 0 0
0 0 0
0 0 0
0 0 0
0 0 0
0 0 0
0 0 0
0 0 0
0 0 0
0 0 0
0 0 0
0 0 0
0 0 0
0 0 0
0 0 0
0 0 0
0 0 0
0 0 0
0 0 0
0 0 0
0 0 0
0 0 0
0 0 0
0 0 0
0 0 0
0 0 0
0 0 0
0 0 0
0 0 0
0 0 0
0 0 0
0 0 0
0 0 0
0 0 0
0 0 0
0 0 0
0 0 0
0 0 0
0 0 0
0 0 0
0 0 0
0 0 0
0 0 0
0 0 0
0 0 0
0 0 0
0 0 0
0 0 0
0 0 0
0 0 0
0 0 0
0 0 0
0 0 0
0 0 0
0 0 0
0 0 0
0 0 0
0 0 0
0 0 0
0 0 0
0 0 0
0 0 0
0 0 0
0 0 0
0 0 0
0 0 0
0 0 0
0 0 0
0 0 0
0 0 0
0 0 0
0 0 0
0 0 0
0 0 0
0 0 0
0 0 0
0 0 0
0 0 0
0 0 0
0 0 0
0 0 0
0 0 0
0 0 0
0 0 0
0 0 0
0 0 0
0 0 0
0 0 0
0 0 0
0 0 0
0 0 0
0 0 0
0 0 0
0 0 0
0 0 0
0 0 0
0 0 0
0 0 0
0 0 0
0 0 0
0 0 0
0 0 0
0 0 0
0 0 0
0 0 0
0 0 0
0 0 0
0 0 0
0 0 0
0 0 0
0 0 0
0 0 0
0 0 0
0 0 0
0 0 0
0 0 0
0 0 0
0 0 0
191 191 191
255 255 255
255 255 255
255 255 255
255 255 255
255 255 255
255 255 255
255 255 255
255 255 255
255 255 255
255 255 255
255 255 255
255 255 255
255 255 255
255 255 255
255 255 255
255 255 255
255 255 255
255 255 255
255 255 255
255 255 255
255 255 255
255 255 255
255 255 255
255 255 255
255 255 255
255 255 255
255 255 255
255 255 255
255 255 255
255 255 255
255 255 255
255 255 255
255 255 255
255 255 255
255 255 255
255 255 255
255 255 255
255 255 255
255 255 255
255 255 255
255 255 255
255 255 255
255 255 255
255 255 255
255 255 255
255 255 255
255 255 255
255 255 255
255 255 255
255 255 255
255 255 255
255 255 255
255 255 255
255 255 255
255 255 255
255 255 255
255 255 255
255 255 255
255 255 255
255 255 255
255 255 255
255 255 255
255 255 255
255 255 255
255 255 255
255 255 255
255 255 255
255 255 255
255 255 255
255 255 255
255 255 255
255 255 255
255 255 255
255 255 255
255 255 255
255 255 255
255 255 255
255 255 255
255 255 255
255 255 255
184 184 184
0 0 0
0 0 0
0 0 0
0 0 0
0 0 0
0 0 0
0 0 0
0 0 0
0 0 0
0 0 0
0 0 0
0 0 0
0 0 0
0 0 0
0 0 0
0 0 0
0 0 0
0 0 0
0 0 0
0 0 0
0 0 0
0 0 0
0 0 0
0 0 0
0 0 0
0 0 0
0 0 0
0 0 0
0 0 0
0 0 0
0 0 0
0 0 0
0 0 0
0 0 0
0 0 0
0 0 0
0 0 0
0 0 0
0 0 0
0 0 0
0 0 0
0 0 0
0 0 0
0 0 0
0 0 0
0 0 0
0 0 0
0 0 0
0 0 0
0 0 0
0 0 0
0 0 0
0 0 0
0 0 0
0 0 0
0 0 0
0 0 0
0 0 0
0 0 0
0 0 0
0 0 0
0 0 0
0 0 0
0 0 0
0 0 0
0 0 0
0 0 0
0 0 0
0 0 0
0 0 0
0 0 0
0 0 0
0 0 0
0 0 0
0 0 0
0 0 0
0 0 0
0 0 0
0 0 0
0 0 0
0 0 0
0 0 0
0 0 0
0 0 0
0 0 0
0 0 0
0 0 0
0 0 0
0 0 0
0 0 0
0 0 0
0 0 0
0 0 0
0 0 0
0 0 0
0 0 0
0 0 0
0 0 0
0 0 0
0 0 0
0 0 0
0 0 0
0 0 0
0 0 0
0 0 0
0 0 0
0 0 0
0 0 0
0 0 0
0 0 0
0 0 0
0 0 0
0 0 0
0 0 0
0 0 0
0 0 0
0 0 0
0 0 0
0 0 0
0 0 0
0 0 0
0 0 0
0 0 0
0 0 0
0 0 0
0 0 0
0 0 0
0 0 0
0 0 0
0 0 0
0 0 0
0 0 0
0 0 0
0 0 0
0 0 0
0 0 0
0 0 0
0 0 0
0 0 0
0 0 0
0 0 0
0 0 0
0 0 0
0 0 0
0 0 0
0 0 0
0 0 0
0 0 0
0 0 0
0 0 0
0 0 0
0 0 0
0 0 0
0 0 0
0 0 0
0 0 0
0 0 0
0 0 0
0 0 0
0 0 0
0 0 0
0 0 0
0 0 0
0 0 0
0 0 0
0 0 0
0 0 0
0 0 0
0 0 0
0 0 0
0 0 0
0 0 0
0 0 0
0 0 0
0 0 0
0 0 0
0 0 0
0 0 0
0 0 0
0 0 0
0 0 0
0 0 0
0 0 0
0 0 0
0 0 0
0 0 0
0 0 0
0 0 0
0 0 0
0 0 0
0 0 0
0 0 0
0 0 0
0 0 0
0 0 0
0 0 0
0 0 0
0 0 0
0 0 0
0 0 0
0 0 0
0 0 0
0 0 0
0 0 0
0 0 0
0 0 0
0 0 0
0 0 0
0 0 0
0 0 0
0 0 0
0 0 0
0 0 0
0 0 0
0 0 0
0 0 0
0 0 0
0 0 0
0 0 0
0 0 0
0 0 0
0 0 0
0 0 0
0 0 0
0 0 0
0 0 0
0 0 0
0 0 0
0 0 0
0 0 0
0 0 0
0 0 0
0 0 0
0 0 0
0 0 0
0 0 0
0 0 0
0 0 0
0 0 0
0 0 0
0 0 0
0 0 0
0 0 0
0 0 0
0 0 0
0 0 0
0 0 0
0 0 0
0 0 0
0 0 0
0 0 0
0 0 0
0 0 0
0 0 0
0 0 0
0 0 0
0 0 0
0 0 0
0 0 0
0 0 0
0 0 0
0 0 0
0 0 0
0 0 0
0 0 0
0 0 0
0 0 0
0 0 0
0 0 0
0 0 0
0 0 0
0 0 0
0 0 0
0 0 0
0 0 0
0 0 0
0 0 0
0 0 0
0 0 0
0 0 0
0 0 0
0 0 0
0 0 0
0 0 0
0 0 0
0 0 0
0 0 0
0 0 0
0 0 0
0 0 0
0 0 0
0 0 0
0 0 0
0 0 0
0 0 0
0 0 0
0 0 0
0 0 0
0 0 0
0 0 0
0 0 0
0 0 0
0 0 0
0 0 0
0 0 0
0 0 0
0 0 0
0 0 0
0 0 0
0 0 0
0 0 0
0 0 0
0 0 0
0 0 0
0 0 0
0 0 0
0 0 0
0 0 0
0 0 0
255 255 255
255 255 255
255 255 255
255 255 255
255 255 255
255 255 255
255 255 255
255 255 255
255 255 255
255 255 255
255 255 255
255 255 255
255 255 255
255 255 255
255 255 255
255 255 255
255 255 255
255 255 255
255 255 255
255 255 255
255 255 255
255 255 255
255 255 255
255 255 255
255 255 255
255 255 255
255 255 255
255 255 255
255 255 255
255 255 255
255 255 255
255 255 255
255 255 255
255 255 255
255 255 255
255 255 255
255 255 255
255 255 255
255 255 255
255 255 255
255 255 255
255 255 255
255 255 255
255 255 255
255 255 255
255 255 255
255 255 255
255 255 255
255 255 255
255 255 255
255 255 255
255 255 255
255 255 255
255 255 255
255 255 255
255 255 255
255 255 255
255 255 255
255 255 255
255 255 255
255 255 255
255 255 255
255 255 255
255 255 255
255 255 255
255 255 255
255 255 255
255 255 255
255 255 255
255 255 255
255 255 255
255 255 255
255 255 255
255 255 255
255 255 255
255 255 255
255 255 255
255 255 255
255 255 255
255 255 255
0 0 0
0 0 0
0 0 0
0 0 0
0 0 0
0 0 0
0 0 0
0 0 0
0 0 0
0 0 0
0 0 0
0 0 0
0 0 0
0 0 0
0 0 0
0 0 0
0 0 0
0 0 0
0 0 0
0 0 0
0 0 0
0 0 0
0 0 0
0 0 0
0 0 0
0 0 0
0 0 0
0 0 0
0 0 0
0 0 0
0 0 0
0 0 0
0 0 0
0 0 0
0 0 0
0 0 0
0 0 0
0 0 0
0 0 0
0 0 0
0 0 0
0 0 0
0 0 0
0 0 0
0 0 0
0 0 0
0 0 0
0 0 0
0 0 0
0 0 0
0 0 0
0 0 0
0 0 0
0 0 0
0 0 0
0 0 0
0 0 0
0 0 0
0 0 0
0 0 0
0 0 0
0 0 0
0 0 0
0 0 0
0 0 0
0 0 0
0 0 0
0 0 0
0 0 0
0 0 0
0 0 0
0 0 0
0 0 0
0 0 0
0 0 0
0 0 0
0 0 0
0 0 0
0 0 0
0 0 0
0 0 0
0 0 0
0 0 0
0 0 0
0 0 0
0 0 0
0 0 0
0 0 0
0 0 0
0 0 0
0 0 0
0 0 0
0 0 0
0 0 0
0 0 0
0 0 0
0 0 0
0 0 0
0 0 0
0 0 0
0 0 0
0 0 0
0 0 0
0 0 0
0 0 0
0 0 0
0 0 0
0 0 0
0 0 0
0 0 0
0 0 0
0 0 0
0 0 0
0 0 0
0 0 0
0 0 0
0 0 0
0 0 0
0 0 0
0 0 0
0 0 0
0 0 0
0 0 0
0 0 0
0 0 0
0 0 0
0 0 0
0 0 0
0 0 0
0 0 0
0 0 0
0 0 0
0 0 0
0 0 0
0 0 0
0 0 0
0 0 0
0 0 0
0 0 0
0 0 0
0 0 0
0 0 0
0 0 0
0 0 0
0 0 0
0 0 0
0 0 0
0 0 0
0 0 0
0 0 0
0 0 0
0 0 0
0 0 0
0 0 0
0 0 0
0 0 0
0 0 0
0 0 0
0 0 0
0 0 0
0 0 0
0 0 0
0 0 0
0 0 0
0 0 0
0 0 0
0 0 0
0 0 0
0 0 0
0 0 0
0 0 0
0 0 0
0 0 0
0 0 0
0 0 0
0 0 0
0 0 0
0 0 0
0 0 0
0 0 0
0 0 0
0 0 0
0 0 0
0 0 0
0 0 0
0 0 0
0 0 0
0 0 0
0 0 0
0 0 0
0 0 0
0 0 0
0 0 0
0 0 0
0 0 0
0 0 0
0 0 0
0 0 0
0 0 0
0 0 0
0 0 0
0 0 0
0 0 0
0 0 0
0 0 0
0 0 0
0 0 0
0 0 0
0 0 0
0 0 0
0 0 0
0 0 0
0 0 0
0 0 0
0 0 0
0 0 0
0 0 0
0 0 0
0 0 0
0 0 0
0 0 0
0 0 0
0 0 0
0 0 0
0 0 0
0 0 0
0 0 0
0 0 0
0 0 0
0 0 0
0 0 0
0 0 0
0 0 0
0 0 0
0 0 0
0 0 0
0 0 0
0 0 0
0 0 0
0 0 0
0 0 0
0 0 0
0 0 0
0 0 0
0 0 0
0 0 0
0 0 0
0 0 0
0 0 0
0 0 0
0 0 0
0 0 0
0 0 0
0 0 0
0 0 0
0 0 0
0 0 0
0 0 0
0 0 0
0 0 0
0 0 0
0 0 0
0 0 0
0 0 0
0 0 0
0 0 0
0 0 0
0 0 0
0 0 0
0 0 0
0 0 0
0 0 0
0 0 0
0 0 0
0 0 0
0 0 0
0 0 0
0 0 0
0 0 0
0 0 0
0 0 0
0 0 0
0 0 0
0 0 0
0 0 0
0 0 0
0 0 0
0 0 0
0 0 0
0 0 0
0 0 0
0 0 0
0 0 0
0 0 0
0 0 0
0 0 0
0 0 0
0 0 0
0 0 0
0 0 0
0 0 0
0 0 0
0 0 0
0 0 0
0 0 0
0 0 0
0 0 0
0 0 0
0 0 0
0 0 0
0 0 0
0 0 0
0 0 0
0 0 0
0 0 0
0 0 0
0 0 0
0 0 0
0 0 0
0 0 0
0 0 0
255 255 255
255 255 255
255 255 255
255 255 255
255 255 255
255 255 255
255 255 255
255 255 255
255 255 255
255 255 255
255 255 255
255 255 255
255 255 255
255 255 255
255 255 255
255 255 255
255 255 255
255 255 255
255 255 255
255 255 255
255 255 255
255 255 255
255 255 255
255 255 255
255 255 255
255 255 255
255 255 255
255 255 255
255 255 255
255 255 255
255 255 255
255 255 255
255 255 255
255 255 255
255 255 255
255 255 255
255 255 255
255 255 255
255 255 255
255 255 255
255 255 255
255 255 255
255 255 255
255 255 255
255 255 255
255 255 255
255 255 255
255 255 255
255 255 255
255 255 255
255 255 255
255 255 255
255 255 255
255 255 255
255 255 255
255 255 255
255 255 255
255 255 255
255 255 255
255 255 255
255 255 255
255 255 255
255 255 255
255 255 255
255 255 255
255 255 255
255 255 255
255 255 255
255 255 255
255 255 255
255 255 255
255 255 255
255 255 255
255 255 255
255 255 255
255 255 255
255 255 255
255 255 255
0 0 0
0 0 0
0 0 0
0 0 0
0 0 0
0 0 0
0 0 0
0 0 0
0 0 0
0 0 0
0 0 0
0 0 0
0 0 0
0 0 0
0 0 0
0 0 0
0 0 0
0 0 0
0 0 0
0 0 0
0 0 0
0 0 0
0 0 0
0 0 0
0 0 0
0 0 0
0 0 0
0 0 0
0 0 0
0 0 0
0 0 0
0 0 0
0 0 0
0 0 0
0 0 0
0 0 0
0 0 0
0 0 0
0 0 0
0 0 0
0 0 0
0 0 0
0 0 0
0 0 0
0 0 0
0 0 0
0 0 0
0 0 0
0 0 0
0 0 0
0 0 0
0 0 0
0 0 0
0 0 0
0 0 0
0 0 0
0 0 0
0 0 0
0 0 0
0 0 0
0 0 0
0 0 0
0 0 0
0 0 0
0 0 0
0 0 0
0 0 0
0 0 0
0 0 0
0 0 0
0 0 0
0 0 0
0 0 0
0 0 0
0 0 0
0 0 0
0 0 0
0 0 0
0 0 0
0 0 0
0 0 0
0 0 0
0 0 0
0 0 0
0 0 0
0 0 0
0 0 0
0 0 0
0 0 0
0 0 0
0 0 0
0 0 0
0 0 0
0 0 0
0 0 0
0 0 0
0 0 0
0 0 0
0 0 0
0 0 0
0 0 0
0 0 0
0 0 0
0 0 0
0 0 0
0 0 0
0 0 0
0 0 0
0 0 0
0 0 0
0 0 0
0 0 0
0 0 0
0 0 0
0 0 0
0 0 0
0 0 0
0 0 0
0 0 0
0 0 0
0 0 0
0 0 0
0 0 0
0 0 0
0 0 0
0 0 0
0 0 0
0 0 0
0 0 0
0 0 0
0 0 0
0 0 0
0 0 0
0 0 0
0 0 0
0 0 0
0 0 0
0 0 0
0 0 0
0 0 0
0 0 0
0 0 0
0 0 0
0 0 0
0 0 0
0 0 0
0 0 0
0 0 0
0 0 0
0 0 0
0 0 0
0 0 0
0 0 0
0 0 0
0 0 0
0 0 0
0 0 0
0 0 0
0 0 0
0 0 0
0 0 0
0 0 0
0 0 0
0 0 0
0 0 0
0 0 0
0 0 0
0 0 0
0 0 0
0 0 0
0 0 0
0 0 0
0 0 0
0 0 0
0 0 0
0 0 0
0 0 0
0 0 0
0 0 0
0 0 0
0 0 0
0 0 0
0 0 0
0 0 0
0 0 0
0 0 0
0 0 0
0 0 0
0 0 0
0 0 0
0 0 0
0 0 0
0 0 0
0 0 0
0 0 0
0 0 0
0 0 0
0 0 0
0 0 0
0 0 0
0 0 0
0 0 0
0 0 0
0 0 0
0 0 0
0 0 0
0 0 0
0 0 0
0 0 0
0 0 0
0 0 0
0 0 0
0 0 0
0 0 0
0 0 0
0 0 0
0 0 0
0 0 0
0 0 0
0 0 0
0 0 0
0 0 0
0 0 0
0 0 0
0 0 0
0 0 0
0 0 0
0 0 0
0 0 0
0 0 0
0 0 0
0 0 0
0 0 0
0 0 0
0 0 0
0 0 0
0 0 0
0 0 0
0 0 0
0 0 0
0 0 0
0 0 0
0 0 0
0 0 0
0 0 0
0 0 0
0 0 0
0 0 0
0 0 0
0 0 0
0 0 0
0 0 0
0 0 0
0 0 0
0 0 0
0 0 0
0 0 0
0 0 0
0 0 0
0 0 0
0 0 0
0 0 0
0 0 0
0 0 0
0 0 0
0 0 0
0 0 0
0 0 0
0 0 0
0 0 0
0 0 0
0 0 0
0 0 0
0 0 0
0 0 0
0 0 0
0 0 0
0 0 0
0 0 0
0 0 0
0 0 0
0 0 0
0 0 0
0 0 0
0 0 0
0 0 0
0 0 0
0 0 0
0 0 0
0 0 0
0 0 0
0 0 0
0 0 0
0 0 0
0 0 0
0 0 0
0 0 0
0 0 0
0 0 0
0 0 0
0 0 0
0 0 0
0 0 0
0 0 0
0 0 0
0 0 0
0 0 0
0 0 0
0 0 0
0 0 0
0 0 0
0 0 0
0 0 0
0 0 0
0 0 0
0 0 0
0 0 0
0 0 0
0 0 0
0 0 0
0 0 0
0 0 0
0 0 0
255 255 255
255 255 255
255 255 255
255 255 255
255 255 255
255 255 255
255 255 255
255 255 255
255 255 255
255 255 255
255 255 255
255 255 255
255 255 255
255 255 255
255 255 255
255 255 255
255 255 255
255 255 255
255 255 255
255 255 255
255 255 255
255 255 255
255 255 255
255 255 255
255 255 255
255 255 255
255 255 255
255 255 255
255 255 255
255 255 255
255 255 255
255 255 255
255 255 255
255 255 255
255 255 255
255 255 255
255 255 255
255 255 255
255 255 255
255 255 255
255 255 255
255 255 255
255 255 255
255 255 255
255 255 255
255 255 255
255 255 255
255 255 255
255 255 255
255 255 255
255 255 255
255 255 255
255 255 255
255 255 255
255 255 255
255 255 255
255 255 255
255 255 255
255 255 255
255 255 255
255 255 255
255 255 255
255 255 255
255 255 255
255 255 255
255 255 255
255 255 255
255 255 255
255 255 255
255 255 255
255 255 255
255 255 255
255 255 255
255 255 255
255 255 255
255 255 255
0 0 0
0 0 0
0 0 0
0 0 0
0 0 0
0 0 0
0 0 0
0 0 0
0 0 0
0 0 0
0 0 0
0 0 0
0 0 0
0 0 0
0 0 0
0 0 0
0 0 0
0 0 0
0 0 0
0 0 0
0 0 0
0 0 0
0 0 0
0 0 0
0 0 0
0 0 0
0 0 0
0 0 0
0 0 0
0 0 0
0 0 0
0 0 0
0 0 0
0 0 0
0 0 0
0 0 0
0 0 0
0 0 0
0 0 0
0 0 0
0 0 0
0 0 0
0 0 0
0 0 0
0 0 0
0 0 0
0 0 0
0 0 0
0 0 0
0 0 0
0 0 0
0 0 0
0 0 0
0 0 0
0 0 0
0 0 0
0 0 0
0 0 0
0 0 0
0 0 0
0 0 0
0 0 0
0 0 0
0 0 0
0 0 0
0 0 0
0 0 0
0 0 0
0 0 0
0 0 0
0 0 0
0 0 0
0 0 0
0 0 0
0 0 0
0 0 0
0 0 0
0 0 0
0 0 0
0 0 0
0 0 0
0 0 0
0 0 0
0 0 0
0 0 0
0 0 0
0 0 0
0 0 0
0 0 0
0 0 0
0 0 0
0 0 0
0 0 0
0 0 0
0 0 0
0 0 0
0 0 0
0 0 0
0 0 0
0 0 0
0 0 0
0 0 0
0 0 0
0 0 0
0 0 0
0 0 0
0 0 0
0 0 0
0 0 0
0 0 0
0 0 0
0 0 0
0 0 0
0 0 0
0 0 0
0 0 0
0 0 0
0 0 0
0 0 0
0 0 0
0 0 0
0 0 0
0 0 0
0 0 0
0 0 0
0 0 0
0 0 0
0 0 0
0 0 0
0 0 0
0 0 0
0 0 0
0 0 0
0 0 0
0 0 0
0 0 0
0 0 0
0 0 0
0 0 0
0 0 0
0 0 0
0 0 0
0 0 0
0 0 0
0 0 0
0 0 0
0 0 0
0 0 0
0 0 0
0 0 0
0 0 0
0 0 0
0 0 0
0 0 0
0 0 0
0 0 0
0 0 0
0 0 0
0 0 0
0 0 0
0 0 0
0 0 0
0 0 0
0 0 0
0 0 0
0 0 0
0 0 0
0 0 0
0 0 0
0 0 0
0 0 0
0 0 0
0 0 0
0 0 0
0 0 0
0 0 0
0 0 0
0 0 0
0 0 0
0 0 0
0 0 0
0 0 0
0 0 0
0 0 0
0 0 0
0 0 0
0 0 0
0 0 0
0 0 0
0 0 0
0 0 0
0 0 0
0 0 0
0 0 0
0 0 0
0 0 0
0 0 0
0 0 0
0 0 0
0 0 0
0 0 0
0 0 0
0 0 0
0 0 0
0 0 0
0 0 0
0 0 0
0 0 0
0 0 0
0 0 0
0 0 0
0 0 0
0 0 0
0 0 0
0 0 0
0 0 0
0 0 0
0 0 0
0 0 0
0 0 0
0 0 0
0 0 0
0 0 0
0 0 0
0 0 0
0 0 0
0 0 0
0 0 0
0 0 0
0 0 0
0 0 0
0 0 0
0 0 0
0 0 0
0 0 0
0 0 0
0 0 0
0 0 0
0 0 0
0 0 0
0 0 0
0 0 0
0 0 0
0 0 0
0 0 0
0 0 0
0 0 0
0 0 0
0 0 0
0 0 0
0 0 0
0 0 0
0 0 0
0 0 0
0 0 0
0 0 0
0 0 0
0 0 0
0 0 0
0 0 0
0 0 0
0 0 0
0 0 0
0 0 0
0 0 0
0 0 0
0 0 0
0 0 0
0 0 0
0 0 0
0 0 0
0 0 0
0 0 0
0 0 0
0 0 0
0 0 0
0 0 0
0 0 0
0 0 0
0 0 0
0 0 0
0 0 0
0 0 0
0 0 0
0 0 0
0 0 0
0 0 0
0 0 0
0 0 0
0 0 0
0 0 0
0 0 0
0 0 0
0 0 0
0 0 0
0 0 0
0 0 0
0 0 0
0 0 0
0 0 0
0 0 0
0 0 0
0 0 0
0 0 0
0 0 0
0 0 0
0 0 0
0 0 0
0 0 0
0 0 0
0 0 0
0 0 0
0 0 0
0 0 0
0 0 0
0 0 0
0 0 0
0 0 0
0 0 0
0 0 0
0 0 0
0 0 0
0 0 0
0 0 0
0 0 0
255 255 255
255 255 255
255 255 255
255 255 255
255 255 255
255 255 255
255 255 255
255 255 255
255 255 255
255 255 255
255 255 255
255 255 255
255 255 255
255 255 255
255 255 255
255 255 255
255 255 255
255 255 255
255 255 255
255 255 255
255 255 255
255 255 255
255 255 255
255 255 255
255 255 255
255 255 255
255 255 255
255 255 255
255 255 255
255 255 255
255 255 255
255 255 255
255 255 255
255 255 255
255 255 255
255 255 255
255 255 255
255 255 255
255 255 255
255 255 255
255 255 255
255 255 255
255 255 255
255 255 255
255 255 255
255 255 255
255 255 255
255 255 255
255 255 255
255 255 255
255 255 255
255 255 255
255 255 255
255 255 255
255 255 255
255 255 255
255 255 255
255 255 255
255 255 255
255 255 255
255 255 255
255 255 255
255 255 255
255 255 255
255 255 255
255 255 255
255 255 255
255 255 255
255 255 255
255 255 255
255 255 255
255 255 255
255 255 255
255 255 255
0 0 0
0 0 0
0 0 0
0 0 0
0 0 0
0 0 0
0 0 0
0 0 0
0 0 0
0 0 0
0 0 0
0 0 0
0 0 0
0 0 0
0 0 0
0 0 0
0 0 0
0 0 0
0 0 0
0 0 0
0 0 0
0 0 0
0 0 0
0 0 0
0 0 0
0 0 0
0 0 0
0 0 0
0 0 0
0 0 0
0 0 0
0 0 0
0 0 0
0 0 0
0 0 0
0 0 0
0 0 0
0 0 0
0 0 0
0 0 0
0 0 0
0 0 0
0 0 0
0 0 0
0 0 0
0 0 0
0 0 0
0 0 0
0 0 0
0 0 0
0 0 0
0 0 0
0 0 0
0 0 0
0 0 0
0 0 0
0 0 0
0 0 0
0 0 0
0 0 0
0 0 0
0 0 0
0 0 0
0 0 0
0 0 0
0 0 0
0 0 0
0 0 0
0 0 0
0 0 0
0 0 0
0 0 0
0 0 0
0 0 0
0 0 0
0 0 0
0 0 0
0 0 0
0 0 0
0 0 0
0 0 0
0 0 0
0 0 0
0 0 0
0 0 0
0 0 0
0 0 0
0 0 0
0 0 0
0 0 0
0 0 0
0 0 0
0 0 0
0 0 0
0 0 0
0 0 0
0 0 0
0 0 0
0 0 0
0 0 0
0 0 0
0 0 0
0 0 0
0 0 0
0 0 0
0 0 0
0 0 0
0 0 0
0 0 0
0 0 0
0 0 0
0 0 0
0 0 0
0 0 0
0 0 0
0 0 0
0 0 0
0 0 0
0 0 0
0 0 0
0 0 0
0 0 0
0 0 0
0 0 0
0 0 0
0 0 0
0 0 0
0 0 0
0 0 0
0 0 0
0 0 0
0 0 0
0 0 0
0 0 0
0 0 0
0 0 0
0 0 0
0 0 0
0 0 0
0 0 0
0 0 0
0 0 0
0 0 0
0 0 0
0 0 0
0 0 0
0 0 0
0 0 0
0 0 0
0 0 0
0 0 0
0 0 0
0 0 0
0 0 0
0 0 0
0 0 0
0 0 0
0 0 0
0 0 0
0 0 0
0 0 0
0 0 0
0 0 0
0 0 0
0 0 0
0 0 0
0 0 0
0 0 0
0 0 0
0 0 0
0 0 0
0 0 0
0 0 0
0 0 0
0 0 0
0 0 0
0 0 0
0 0 0
0 0 0
0 0 0
0 0 0
0 0 0
0 0 0
0 0 0
0 0 0
0 0 0
0 0 0
0 0 0
0 0 0
0 0 0
0 0 0
0 0 0
0 0 0
0 0 0
0 0 0
0 0 0
0 0 0
0 0 0
0 0 0
0 0 0
0 0 0
0 0 0
0 0 0
0 0 0
0 0 0
0 0 0
0 0 0
0 0 0
0 0 0
0 0 0
0 0 0
0 0 0
0 0 0
0 0 0
0 0 0
0 0 0
0 0 0
0 0 0
0 0 0
0 0 0
0 0 0
0 0 0
0 0 0
0 0 0
0 0 0
0 0 0
0 0 0
0 0 0
0 0 0
0 0 0
0 0 0
0 0 0
0 0 0
0 0 0
0 0 0
0 0 0
0 0 0
0 0 0
0 0 0
0 0 0
0 0 0
0 0 0
0 0 0
0 0 0
0 0 0
0 0 0
0 0 0
0 0 0
0 0 0
0 0 0
0 0 0
0 0 0
0 0 0
0 0 0
0 0 0
0 0 0
0 0 0
0 0 0
0 0 0
0 0 0
0 0 0
0 0 0
0 0 0
0 0 0
0 0 0
0 0 0
0 0 0
0 0 0
0 0 0
0 0 0
0 0 0
0 0 0
0 0 0
0 0 0
0 0 0
0 0 0
0 0 0
0 0 0
0 0 0
0 0 0
0 0 0
0 0 0
0 0 0
0 0 0
0 0 0
0 0 0
0 0 0
0 0 0
0 0 0
0 0 0
0 0 0
0 0 0
0 0 0
0 0 0
0 0 0
0 0 0
0 0 0
0 0 0
0 0 0
0 0 0
0 0 0
0 0 0
0 0 0
0 0 0
0 0 0
0 0 0
0 0 0
0 0 0
0 0 0
0 0 0
0 0 0
0 0 0
0 0 0
0 0 0
0 0 0
0 0 0
0 0 0
0 0 0
0 0 0
0 0 0
0 0 0
0 0 0
0 0 0
0 0 0
0 0 0
0 0 0
0 0 0
255 255 255
255 255 255
255 255 255
255 255 255
255 255 255
255 255 255
255 255 255
255 255 255
255 255 255
255 255 255
255 255 255
255 255 255
255 255 255
255 255 255
255 255 255
255 255 255
255 255 255
255 255 255
255 255 255
255 255 255
255 255 255
255 255 255
255 255 255
255 255 255
255 255 255
255 255 255
255 255 255
255 255 255
255 255 255
255 255 255
255 255 255
255 255 255
255 255 255
255 255 255
255 255 255
255 255 255
255 255 255
255 255 255
255 255 255
255 255 255
255 255 255
255 255 255
255 255 255
255 255 255
255 255 255
255 255 255
255 255 255
255 255 255
255 255 255
255 255 255
255 255 255
255 255 255
255 255 255
255 255 255
255 255 255
255 255 255
255 255 255
255 255 255
255 255 255
255 255 255
255 255 255
255 255 255
255 255 255
255 255 255
255 255 255
255 255 255
255 255 255
255 255 255
255 255 255
255 255 255
255 255 255
255 255 255
0 0 0
0 0 0
0 0 0
0 0 0
0 0 0
0 0 0
0 0 0
0 0 0
0 0 0
0 0 0
0 0 0
0 0 0
0 0 0
0 0 0
0 0 0
0 0 0
0 0 0
0 0 0
0 0 0
0 0 0
0 0 0
0 0 0
0 0 0
0 0 0
0 0 0
0 0 0
0 0 0
0 0 0
0 0 0
0 0 0
0 0 0
0 0 0
0 0 0
0 0 0
0 0 0
0 0 0
0 0 0
0 0 0
0 0 0
0 0 0
0 0 0
0 0 0
0 0 0
0 0 0
0 0 0
0 0 0
0 0 0
0 0 0
0 0 0
0 0 0
0 0 0
0 0 0
0 0 0
0 0 0
0 0 0
0 0 0
0 0 0
0 0 0
0 0 0
0 0 0
0 0 0
0 0 0
0 0 0
0 0 0
0 0 0
0 0 0
0 0 0
0 0 0
0 0 0
0 0 0
0 0 0
0 0 0
0 0 0
0 0 0
0 0 0
0 0 0
0 0 0
0 0 0
0 0 0
0 0 0
0 0 0
0 0 0
0 0 0
0 0 0
0 0 0
0 0 0
0 0 0
0 0 0
0 0 0
0 0 0
0 0 0
0 0 0
0 0 0
0 0 0
0 0 0
0 0 0
0 0 0
0 0 0
0 0 0
0 0 0
0 0 0
0 0 0
0 0 0
0 0 0
0 0 0
0 0 0
0 0 0
0 0 0
0 0 0
0 0 0
0 0 0
0 0 0
0 0 0
0 0 0
0 0 0
0 0 0
0 0 0
0 0 0
0 0 0
0 0 0
0 0 0
0 0 0
0 0 0
0 0 0
0 0 0
0 0 0
0 0 0
0 0 0
0 0 0
0 0 0
0 0 0
0 0 0
0 0 0
0 0 0
0 0 0
0 0 0
0 0 0
0 0 0
0 0 0
0 0 0
0 0 0
0 0 0
0 0 0
0 0 0
0 0 0
0 0 0
0 0 0
0 0 0
0 0 0
0 0 0
0 0 0
0 0 0
0 0 0
0 0 0
0 0 0
0 0 0
0 0 0
0 0 0
0 0 0
0 0 0
0 0 0
0 0 0
0 0 0
0 0 0
0 0 0
0 0 0
0 0 0
0 0 0
0 0 0
0 0 0
0 0 0
0 0 0
0 0 0
0 0 0
0 0 0
0 0 0
0 0 0
0 0 0
0 0 0
0 0 0
0 0 0
0 0 0
0 0 0
0 0 0
0 0 0
0 0 0
0 0 0
0 0 0
0 0 0
0 0 0
0 0 0
0 0 0
0 0 0
0 0 0
0 0 0
0 0 0
0 0 0
0 0 0
0 0 0
0 0 0
0 0 0
0 0 0
0 0 0
0 0 0
0 0 0
0 0 0
0 0 0
0 0 0
0 0 0
0 0 0
0 0 0
0 0 0
0 0 0
0 0 0
0 0 0
0 0 0
0 0 0
0 0 0
0 0 0
0 0 0
0 0 0
0 0 0
0 0 0
0 0 0
0 0 0
0 0 0
0 0 0
0 0 0
0 0 0
0 0 0
0 0 0
0 0 0
0 0 0
0 0 0
0 0 0
0 0 0
0 0 0
0 0 0
0 0 0
0 0 0
0 0 0
0 0 0
0 0 0
0 0 0
0 0 0
0 0 0
0 0 0
0 0 0
0 0 0
0 0 0
0 0 0
0 0 0
0 0 0
0 0 0
0 0 0
0 0 0
0 0 0
0 0 0
0 0 0
0 0 0
0 0 0
0 0 0
0 0 0
0 0 0
0 0 0
0 0 0
0 0 0
0 0 0
0 0 0
0 0 0
0 0 0
0 0 0
0 0 0
0 0 0
0 0 0
0 0 0
0 0 0
0 0 0
0 0 0
0 0 0
0 0 0
0 0 0
0 0 0
0 0 0
0 0 0
0 0 0
0 0 0
0 0 0
0 0 0
0 0 0
0 0 0
0 0 0
0 0 0
0 0 0
0 0 0
0 0 0
0 0 0
0 0 0
0 0 0
0 0 0
0 0 0
0 0 0
0 0 0
0 0 0
0 0 0
0 0 0
0 0 0
0 0 0
0 0 0
0 0 0
0 0 0
0 0 0
0 0 0
0 0 0
0 0 0
0 0 0
0 0 0
0 0 0
0 0 0
0 0 0
0 0 0
0 0 0
0 0 0
0 0 0
0 0 0
0 0 0
0 0 0
0 0 0
51 51 51
255 255 255
255 255 255
255 255 255
255 255 255
255 255 255
255 255 255
255 255 255
255 255 255
255 255 255
255 255 255
255 255 255
255 255 255
255 255 255
255 255 255
255 255 255
255 255 255
255 255 255
255 255 255
255 255 255
255 255 255
255 255 255
255 255 255
255 255 255
255 255 255
255 255 255
255 255 255
255 255 255
255 255 255
255 255 255
255 255 255
255 255 255
255 255 255
255 255 255
255 255 255
255 255 255
255 255 255
255 255 255
255 255 255
255 255 255
255 255 255
255 255 255
255 255 255
255 255 255
255 255 255
255 255 255
255 255 255
255 255 255
255 255 255
255 255 255
255 255 255
255 255 255
255 255 255
255 255 255
255 255 255
255 255 255
255 255 255
255 255 255
255 255 255
255 255 255
255 255 255
255 255 255
255 255 255
255 255 255
255 255 255
255 255 255
255 255 255
255 255 255
255 255 255
255 255 255
255 255 255
0 0 0
0 0 0
0 0 0
0 0 0
0 0 0
0 0 0
0 0 0
0 0 0
0 0 0
0 0 0
0 0 0
0 0 0
0 0 0
0 0 0
0 0 0
0 0 0
0 0 0
0 0 0
0 0 0
0 0 0
0 0 0
0 0 0
0 0 0
0 0 0
0 0 0
0 0 0
0 0 0
0 0 0
0 0 0
0 0 0
0 0 0
0 0 0
0 0 0
0 0 0
0 0 0
0 0 0
0 0 0
0 0 0
0 0 0
0 0 0
0 0 0
0 0 0
0 0 0
0 0 0
0 0 0
0 0 0
0 0 0
0 0 0
0 0 0
0 0 0
0 0 0
0 0 0
0 0 0
0 0 0
0 0 0
0 0 0
0 0 0
0 0 0
0 0 0
0 0 0
0 0 0
0 0 0
0 0 0
0 0 0
0 0 0
0 0 0
0 0 0
0 0 0
0 0 0
0 0 0
0 0 0
0 0 0
0 0 0
0 0 0
0 0 0
0 0 0
0 0 0
0 0 0
0 0 0
0 0 0
0 0 0
0 0 0
0 0 0
0 0 0
0 0 0
0 0 0
0 0 0
0 0 0
0 0 0
0 0 0
0 0 0
0 0 0
0 0 0
0 0 0
0 0 0
0 0 0
0 0 0
0 0 0
0 0 0
0 0 0
0 0 0
0 0 0
0 0 0
0 0 0
0 0 0
0 0 0
0 0 0
0 0 0
0 0 0
0 0 0
0 0 0
0 0 0
0 0 0
0 0 0
0 0 0
0 0 0
0 0 0
0 0 0
0 0 0
0 0 0
0 0 0
0 0 0
0 0 0
0 0 0
0 0 0
0 0 0
0 0 0
0 0 0
0 0 0
0 0 0
0 0 0
0 0 0
0 0 0
0 0 0
0 0 0
0 0 0
0 0 0
0 0 0
0 0 0
0 0 0
0 0 0
0 0 0
0 0 0
0 0 0
0 0 0
0 0 0
0 0 0
0 0 0
0 0 0
0 0 0
0 0 0
0 0 0
0 0 0
0 0 0
0 0 0
0 0 0
0 0 0
0 0 0
0 0 0
0 0 0
0 0 0
0 0 0
0 0 0
0 0 0
0 0 0
0 0 0
0 0 0
0 0 0
0 0 0
0 0 0
0 0 0
0 0 0
0 0 0
0 0 0
0 0 0
0 0 0
0 0 0
0 0 0
0 0 0
0 0 0
0 0 0
0 0 0
0 0 0
0 0 0
0 0 0
0 0 0
0 0 0
0 0 0
0 0 0
0 0 0
0 0 0
0 0 0
0 0 0
0 0 0
0 0 0
0 0 0
0 0 0
0 0 0
0 0 0
0 0 0
0 0 0
0 0 0
0 0 0
0 0 0
0 0 0
0 0 0
0 0 0
0 0 0
0 0 0
0 0 0
0 0 0
0 0 0
0 0 0
0 0 0
0 0 0
0 0 0
0 0 0
0 0 0
0 0 0
0 0 0
0 0 0
0 0 0
0 0 0
0 0 0
0 0 0
0 0 0
0 0 0
0 0 0
0 0 0
0 0 0
0 0 0
0 0 0
0 0 0
0 0 0
0 0 0
0 0 0
0 0 0
0 0 0
0 0 0
0 0 0
0 0 0
0 0 0
0 0 0
0 0 0
0 0 0
0 0 0
0 0 0
0 0 0
0 0 0
0 0 0
0 0 0
0 0 0
0 0 0
0 0 0
0 0 0
0 0 0
0 0 0
0 0 0
0 0 0
0 0 0
0 0 0
0 0 0
0 0 0
0 0 0
0 0 0
0 0 0
0 0 0
0 0 0
0 0 0
0 0 0
0 0 0
0 0 0
0 0 0
0 0 0
0 0 0
0 0 0
0 0 0
0 0 0
0 0 0
0 0 0
0 0 0
0 0 0
0 0 0
0 0 0
0 0 0
0 0 0
0 0 0
0 0 0
0 0 0
0 0 0
0 0 0
0 0 0
0 0 0
0 0 0
0 0 0
0 0 0
0 0 0
0 0 0
0 0 0
0 0 0
0 0 0
0 0 0
0 0 0
0 0 0
0 0 0
0 0 0
0 0 0
0 0 0
0 0 0
0 0 0
0 0 0
0 0 0
0 0 0
0 0 0
0 0 0
0 0 0
0 0 0
0 0 0
0 0 0
0 0 0
0 0 0
0 0 0
0 0 0
0 0 0
0 0 0
0 0 0
0 0 0
0 0 0
0 0 0
0 0 0
0 0 0
255 255 255
255 255 255
255 255 255
255 255 255
255 255 255
255 255 255
255 255 255
255 255 255
255 255 255
255 255 255
255 255 255
255 255 255
255 255 255
255 255 255
255 255 255
255 255 255
255 255 255
255 255 255
255 255 255
255 255 255
255 255 255
255 255 255
255 255 255
255 255 255
255 255 255
255 255 255
255 255 255
255 255 255
255 255 255
255 255 255
255 255 255
255 255 255
255 255 255
255 255 255
255 255 255
255 255 255
255 255 255
255 255 255
255 255 255
255 255 255
255 255 255
255 255 255
255 255 255
255 255 255
255 255 255
255 255 255
255 255 255
255 255 255
255 255 255
255 255 255
255 255 255
255 255 255
255 255 255
255 255 255
255 255 255
255 255 255
255 255 255
255 255 255
255 255 255
255 255 255
255 255 255
255 255 255
255 255 255
255 255 255
255 255 255
255 255 255
255 255 255
255 255 255
0 0 0
0 0 0
0 0 0
0 0 0
0 0 0
0 0 0
0 0 0
0 0 0
0 0 0
0 0 0
0 0 0
0 0 0
0 0 0
0 0 0
0 0 0
0 0 0
0 0 0
0 0 0
0 0 0
0 0 0
0 0 0
0 0 0
0 0 0
0 0 0
0 0 0
0 0 0
0 0 0
0 0 0
0 0 0
0 0 0
0 0 0
0 0 0
0 0 0
0 0 0
0 0 0
0 0 0
0 0 0
0 0 0
0 0 0
0 0 0
0 0 0
0 0 0
0 0 0
0 0 0
0 0 0
0 0 0
0 0 0
0 0 0
0 0 0
0 0 0
0 0 0
0 0 0
0 0 0
0 0 0
0 0 0
0 0 0
0 0 0
0 0 0
0 0 0
0 0 0
0 0 0
0 0 0
0 0 0
0 0 0
0 0 0
0 0 0
0 0 0
0 0 0
0 0 0
0 0 0
0 0 0
0 0 0
0 0 0
0 0 0
0 0 0
0 0 0
0 0 0
0 0 0
0 0 0
0 0 0
0 0 0
0 0 0
0 0 0
0 0 0
0 0 0
0 0 0
0 0 0
0 0 0
0 0 0
0 0 0
0 0 0
0 0 0
0 0 0
0 0 0
0 0 0
0 0 0
0 0 0
0 0 0
0 0 0
0 0 0
0 0 0
0 0 0
0 0 0
0 0 0
0 0 0
0 0 0
0 0 0
0 0 0
0 0 0
0 0 0
0 0 0
0 0 0
0 0 0
0 0 0
0 0 0
0 0 0
0 0 0
0 0 0
0 0 0
0 0 0
0 0 0
0 0 0
0 0 0
0 0 0
0 0 0
0 0 0
0 0 0
0 0 0
0 0 0
0 0 0
0 0 0
0 0 0
0 0 0
0 0 0
0 0 0
0 0 0
0 0 0
0 0 0
0 0 0
0 0 0
0 0 0
0 0 0
0 0 0
0 0 0
0 0 0
0 0 0
0 0 0
0 0 0
0 0 0
0 0 0
0 0 0
0 0 0
0 0 0
0 0 0
0 0 0
0 0 0
0 0 0
0 0 0
0 0 0
0 0 0
0 0 0
0 0 0
0 0 0
0 0 0
0 0 0
0 0 0
0 0 0
0 0 0
0 0 0
0 0 0
0 0 0
0 0 0
0 0 0
0 0 0
0 0 0
0 0 0
0 0 0
0 0 0
0 0 0
0 0 0
0 0 0
0 0 0
0 0 0
0 0 0
0 0 0
0 0 0
0 0 0
0 0 0
0 0 0
0 0 0
0 0 0
0 0 0
0 0 0
0 0 0
0 0 0
0 0 0
0 0 0
0 0 0
0 0 0
0 0 0
0 0 0
0 0 0
0 0 0
0 0 0
0 0 0
0 0 0
0 0 0
0 0 0
0 0 0
0 0 0
0 0 0
0 0 0
0 0 0
0 0 0
0 0 0
0 0 0
0 0 0
0 0 0
0 0 0
0 0 0
0 0 0
0 0 0
0 0 0
0 0 0
0 0 0
0 0 0
0 0 0
0 0 0
0 0 0
0 0 0
0 0 0
0 0 0
0 0 0
0 0 0
0 0 0
0 0 0
0 0 0
0 0 0
0 0 0
0 0 0
0 0 0
0 0 0
0 0 0
0 0 0
0 0 0
0 0 0
0 0 0
0 0 0
0 0 0
0 0 0
0 0 0
0 0 0
0 0 0
0 0 0
0 0 0
0 0 0
0 0 0
0 0 0
0 0 0
0 0 0
0 0 0
0 0 0
0 0 0
0 0 0
0 0 0
0 0 0
0 0 0
0 0 0
0 0 0
0 0 0
0 0 0
0 0 0
0 0 0
0 0 0
0 0 0
0 0 0
0 0 0
0 0 0
0 0 0
0 0 0
0 0 0
0 0 0
0 0 0
0 0 0
0 0 0
0 0 0
0 0 0
0 0 0
0 0 0
0 0 0
0 0 0
0 0 0
0 0 0
0 0 0
0 0 0
0 0 0
0 0 0
0 0 0
0 0 0
0 0 0
0 0 0
0 0 0
0 0 0
0 0 0
0 0 0
0 0 0
0 0 0
0 0 0
0 0 0
0 0 0
0 0 0
0 0 0
0 0 0
0 0 0
0 0 0
0 0 0
0 0 0
0 0 0
0 0 0
0 0 0
0 0 0
0 0 0
0 0 0
0 0 0
0 0 0
0 0 0
0 0 0
0 0 0
0 0 0
0 0 0
0 0 0
0 0 0
0 0 0
255 255 255
255 255 255
255 255 255
255 255 255
255 255 255
255 255 255
255 255 255
255 255 255
255 255 255
255 255 255
255 255 255
255 255 255
255 255 255
255 255 255
255 255 255
255 255 255
255 255 255
255 255 255
255 255 255
255 255 255
255 255 255
255 255 255
255 255 255
255 255 255
195 212 255
97 127 191
93 131 207
77 109 173
85 121 191
87 123 194
84 118 188
90 127 201
74 104 165
87 123 194
88 125 198
87 123 194
80 114 181
68 97 153
87 123 194
72 102 161
75 107 169
214 228 255
240 250 255
255 255 255
255 255 255
255 255 255
255 255 255
255 255 255
255 255 255
255 255 255
255 255 255
255 255 255
255 255 255
255 255 255
255 255 255
255 255 255
255 255 255
255 255 255
255 255 255
255 255 255
255 255 255
255 255 255
255 255 255
255 255 255
255 255 255
255 255 255
0 0 0
0 0 0
0 0 0
0 0 0
0 0 0
0 0 0
0 0 0
0 0 0
0 0 0
0 0 0
0 0 0
0 0 0
0 0 0
0 0 0
0 0 0
0 0 0
0 0 0
0 0 0
0 0 0
0 0 0
0 0 0
0 0 0
0 0 0
0 0 0
0 0 0
0 0 0
0 0 0
0 0 0
0 0 0
0 0 0
0 0 0
0 0 0
0 0 0
0 0 0
0 0 0
0 0 0
0 0 0
0 0 0
0 0 0
0 0 0
0 0 0
0 0 0
0 0 0
0 0 0
0 0 0
0 0 0
0 0 0
0 0 0
0 0 0
0 0 0
0 0 0
0 0 0
0 0 0
0 0 0
0 0 0
0 0 0
0 0 0
0 0 0
0 0 0
0 0 0
0 0 0
0 0 0
0 0 0
0 0 0
0 0 0
0 0 0
0 0 0
0 0 0
0 0 0
0 0 0
0 0 0
0 0 0
0 0 0
0 0 0
0 0 0
0 0 0
0 0 0
0 0 0
0 0 0
0 0 0
0 0 0
0 0 0
0 0 0
0 0 0
0 0 0
0 0 0
0 0 0
0 0 0
0 0 0
0 0 0
0 0 0
0 0 0
0 0 0
0 0 0
0 0 0
0 0 0
0 0 0
0 0 0
0 0 0
0 0 0
0 0 0
0 0 0
0 0 0
0 0 0
0 0 0
0 0 0
0 0 0
0 0 0
0 0 0
0 0 0
0 0 0
0 0 0
0 0 0
0 0 0
0 0 0
0 0 0
0 0 0
0 0 0
0 0 0
0 0 0
0 0 0
0 0 0
0 0 0
0 0 0
0 0 0
0 0 0
0 0 0
0 0 0
0 0 0
0 0 0
0 0 0
0 0 0
0 0 0
0 0 0
0 0 0
0 0 0
0 0 0
0 0 0
0 0 0
0 0 0
0 0 0
0 0 0
0 0 0
0 0 0
0 0 0
0 0 0
0 0 0
0 0 0
0 0 0
0 0 0
0 0 0
0 0 0
0 0 0
0 0 0
0 0 0
0 0 0
0 0 0
0 0 0
0 0 0
0 0 0
0 0 0
0 0 0
0 0 0
0 0 0
0 0 0
0 0 0
0 0 0
0 0 0
0 0 0
0 0 0
0 0 0
0 0 0
0 0 0
0 0 0
0 0 0
0 0 0
0 0 0
0 0 0
0 0 0
0 0 0
0 0 0
0 0 0
0 0 0
0 0 0
0 0 0
0 0 0
0 0 0
0 0 0
0 0 0
0 0 0
0 0 0
0 0 0
0 0 0
0 0 0
0 0 0
0 0 0
0 0 0
0 0 0
0 0 0
0 0 0
0 0 0
0 0 0
0 0 0
0 0 0
0 0 0
0 0 0
0 0 0
0 0 0
0 0 0
0 0 0
0 0 0
0 0 0
0 0 0
0 0 0
0 0 0
0 0 0
0 0 0
0 0 0
0 0 0
0 0 0
0 0 0
0 0 0
0 0 0
0 0 0
0 0 0
0 0 0
0 0 0
0 0 0
0 0 0
0 0 0
0 0 0
0 0 0
0 0 0
0 0 0
0 0 0
0 0 0
0 0 0
0 0 0
0 0 0
0 0 0
0 0 0
0 0 0
0 0 0
0 0 0
0 0 0
0 0 0
0 0 0
0 0 0
0 0 0
0 0 0
0 0 0
0 0 0
0 0 0
0 0 0
0 0 0
0 0 0
0 0 0
0 0 0
0 0 0
0 0 0
0 0 0
0 0 0
0 0 0
0 0 0
0 0 0
0 0 0
0 0 0
0 0 0
0 0 0
0 0 0
0 0 0
0 0 0
0 0 0
0 0 0
0 0 0
0 0 0
0 0 0
0 0 0
0 0 0
0 0 0
0 0 0
0 0 0
0 0 0
0 0 0
0 0 0
0 0 0
0 0 0
0 0 0
0 0 0
0 0 0
0 0 0
0 0 0
0 0 0
0 0 0
0 0 0
0 0 0
0 0 0
0 0 0
0 0 0
0 0 0
0 0 0
0 0 0
0 0 0
0 0 0
0 0 0
0 0 0
0 0 0
0 0 0
0 0 0
0 0 0
0 0 0
0 0 0
0 0 0
0 0 0
0 0 0
0 0 0
0 0 0
0 0 0
0 0 0
0 0 0
0 0 0
0 0 0
0 0 0
0 0 0
0 0 0
0 0 0
0 0 0
0 0 0
0 0 0
0 0 0
0 0 0
0 0 0
0 0 0
0 0 0
0 0 0
255 255 255
255 255 255
255 255 255
255 255 255
255 255 255
255 255 255
255 255 255
255 255 255
255 255 255
255 255 255
255 255 255
255 255 255
255 255 255
255 255 255
255 255 255
255 255 255
255 255 255
248 255 255
102 125 177
85 121 191
77 109 173
70 99 157
80 114 181
80 114 181
70 99 157
68 97 153
75 107 169
84 118 188
66 94 149
66 94 149
82 116 184
80 114 181
79 112 177
74 104 165
68 97 153
72 102 161
68 97 153
62 88 140
64 91 144
68 97 153
68 97 153
64 91 144
82 116 184
68 97 153
79 112 177
97 127 191
231 240 255
255 255 255
255 255 255
255 255 255
255 255 255
255 255 255
255 255 255
255 255 255
255 255 255
255 255 255
255 255 255
255 255 255
255 255 255
255 255 255
255 255 255
255 255 255
255 255 255
255 255 255
0 0 0
0 0 0
0 0 0
0 0 0
0 0 0
0 0 0
0 0 0
0 0 0
0 0 0
0 0 0
0 0 0
0 0 0
0 0 0
0 0 0
0 0 0
0 0 0
0 0 0
0 0 0
0 0 0
0 0 0
0 0 0
0 0 0
0 0 0
0 0 0
0 0 0
0 0 0
0 0 0
0 0 0
0 0 0
0 0 0
0 0 0
0 0 0
0 0 0
0 0 0
0 0 0
0 0 0
0 0 0
0 0 0
0 0 0
0 0 0
0 0 0
0 0 0
0 0 0
0 0 0
0 0 0
0 0 0
0 0 0
0 0 0
0 0 0
0 0 0
0 0 0
0 0 0
0 0 0
0 0 0
0 0 0
0 0 0
0 0 0
0 0 0
0 0 0
0 0 0
0 0 0
0 0 0
0 0 0
0 0 0
0 0 0
0 0 0
0 0 0
0 0 0
0 0 0
0 0 0
0 0 0
0 0 0
0 0 0
0 0 0
0 0 0
0 0 0
0 0 0
0 0 0
0 0 0
0 0 0
0 0 0
0 0 0
0 0 0
0 0 0
0 0 0
0 0 0
0 0 0
0 0 0
0 0 0
0 0 0
0 0 0
0 0 0
0 0 0
0 0 0
0 0 0
0 0 0
0 0 0
0 0 0
0 0 0
0 0 0
0 0 0
0 0 0
0 0 0
0 0 0
0 0 0
0 0 0
0 0 0
0 0 0
0 0 0
0 0 0
0 0 0
0 0 0
0 0 0
0 0 0
0 0 0
0 0 0
0 0 0
0 0 0
0 0 0
0 0 0
0 0 0
0 0 0
0 0 0
0 0 0
0 0 0
0 0 0
0 0 0
0 0 0
0 0 0
0 0 0
0 0 0
0 0 0
0 0 0
0 0 0
0 0 0
0 0 0
0 0 0
0 0 0
0 0 0
0 0 0
0 0 0
0 0 0
0 0 0
0 0 0
0 0 0
0 0 0
0 0 0
0 0 0
0 0 0
0 0 0
0 0 0
0 0 0
0 0 0
0 0 0
0 0 0
0 0 0
0 0 0
0 0 0
0 0 0
0 0 0
0 0 0
0 0 0
0 0 0
0 0 0
0 0 0
0 0 0
0 0 0
0 0 0
0 0 0
0 0 0
0 0 0
0 0 0
0 0 0
0 0 0
0 0 0
0 0 0
0 0 0
0 0 0
0 0 0
0 0 0
0 0 0
0 0 0
0 0 0
0 0 0
0 0 0
0 0 0
0 0 0
0 0 0
0 0 0
0 0 0
0 0 0
0 0 0
0 0 0
0 0 0
0 0 0
0 0 0
0 0 0
0 0 0
0 0 0
0 0 0
0 0 0
0 0 0
0 0 0
0 0 0
0 0 0
0 0 0
0 0 0
0 0 0
0 0 0
0 0 0
0 0 0
0 0 0
0 0 0
0 0 0
0 0 0
0 0 0
0 0 0
0 0 0
0 0 0
0 0 0
0 0 0
0 0 0
0 0 0
0 0 0
0 0 0
0 0 0
0 0 0
0 0 0
0 0 0
0 0 0
0 0 0
0 0 0
0 0 0
0 0 0
0 0 0
0 0 0
0 0 0
0 0 0
0 0 0
0 0 0
0 0 0
0 0 0
0 0 0
0 0 0
0 0 0
0 0 0
0 0 0
0 0 0
0 0 0
0 0 0
0 0 0
0 0 0
0 0 0
0 0 0
0 0 0
0 0 0
0 0 0
0 0 0
0 0 0
0 0 0
0 0 0
0 0 0
0 0 0
0 0 0
0 0 0
0 0 0
0 0 0
0 0 0
0 0 0
0 0 0
0 0 0
0 0 0
0 0 0
0 0 0
0 0 0
0 0 0
0 0 0
0 0 0
0 0 0
0 0 0
0 0 0
0 0 0
0 0 0
0 0 0
0 0 0
0 0 0
0 0 0
0 0 0
0 0 0
0 0 0
0 0 0
0 0 0
0 0 0
0 0 0
0 0 0
0 0 0
0 0 0
0 0 0
0 0 0
0 0 0
0 0 0
0 0 0
0 0 0
0 0 0
0 0 0
0 0 0
0 0 0
0 0 0
0 0 0
0 0 0
0 0 0
0 0 0
0 0 0
0 0 0
0 0 0
0 0 0
0 0 0
0 0 0
0 0 0
0 0 0
0 0 0
0 0 0
0 0 0
0 0 0
0 0 0
0 0 0
0 0 0
0 0 0
0 0 0
0 0 0
0 0 0
0 0 0
0 0 0
0 0 0
0 0 0
0 0 0
0 0 0
198 198 198
255 255 255
255 255 255
255 255 255
255 255 255
255 255 255
255 255 255
255 255 255
255 255 255
255 255 255
255 255 255
255 255 255
255 255 255
88 114 169
75 107 169
64 91 144
77 109 173
84 118 188
75 107 169
66 94 149
70 99 157
64 91 144
70 99 157
68 97 153
66 94 149
85 121 191
62 88 140
62 88 140
60 85 135
58 82 130
68 97 153
60 85 135
68 97 153
70 99 157
60 85 135
72 102 161
62 88 140
72 102 161
64 91 140
60 85 135
74 104 165
82 116 184
74 104 165
68 97 153
66 94 149
72 102 161
80 114 181
79 112 177
85 109 161
255 255 255
255 255 255
255 255 255
255 255 255
255 255 255
255 255 255
255 255 255
255 255 255
255 255 255
255 255 255
255 255 255
255 255 255
204 204 204
0 0 0
0 0 0
0 0 0
0 0 0
0 0 0
0 0 0
0 0 0
0 0 0
0 0 0
0 0 0
0 0 0
0 0 0
0 0 0
0 0 0
0 0 0
0 0 0
0 0 0
0 0 0
0 0 0
0 0 0
0 0 0
0 0 0
0 0 0
0 0 0
0 0 0
0 0 0
0 0 0
0 0 0
0 0 0
0 0 0
0 0 0
0 0 0
0 0 0
0 0 0
0 0 0
0 0 0
0 0 0
0 0 0
0 0 0
0 0 0
0 0 0
0 0 0
0 0 0
0 0 0
0 0 0
0 0 0
0 0 0
0 0 0
0 0 0
0 0 0
0 0 0
0 0 0
0 0 0
0 0 0
0 0 0
0 0 0
0 0 0
0 0 0
0 0 0
0 0 0
0 0 0
0 0 0
0 0 0
0 0 0
0 0 0
0 0 0
0 0 0
0 0 0
0 0 0
0 0 0
0 0 0
0 0 0
0 0 0
0 0 0
0 0 0
0 0 0
0 0 0
0 0 0
0 0 0
0 0 0
0 0 0
0 0 0
0 0 0
0 0 0
0 0 0
0 0 0
0 0 0
0 0 0
0 0 0
0 0 0
0 0 0
0 0 0
0 0 0
0 0 0
0 0 0
0 0 0
0 0 0
0 0 0
0 0 0
0 0 0
0 0 0
0 0 0
0 0 0
0 0 0
0 0 0
0 0 0
0 0 0
0 0 0
0 0 0
0 0 0
0 0 0
0 0 0
0 0 0
0 0 0
0 0 0
0 0 0
0 0 0
0 0 0
0 0 0
0 0 0
0 0 0
0 0 0
0 0 0
0 0 0
0 0 0
0 0 0
0 0 0
0 0 0
0 0 0
0 0 0
0 0 0
0 0 0
0 0 0
0 0 0
0 0 0
0 0 0
0 0 0
0 0 0
0 0 0
0 0 0
0 0 0
0 0 0
0 0 0
0 0 0
0 0 0
0 0 0
0 0 0
0 0 0
0 0 0
0 0 0
0 0 0
0 0 0
0 0 0
0 0 0
0 0 0
0 0 0
0 0 0
0 0 0
0 0 0
0 0 0
0 0 0
0 0 0
0 0 0
0 0 0
0 0 0
0 0 0
0 0 0
0 0 0
0 0 0
0 0 0
0 0 0
0 0 0
0 0 0
0 0 0
0 0 0
0 0 0
0 0 0
0 0 0
0 0 0
0 0 0
0 0 0
0 0 0
0 0 0
0 0 0
0 0 0
0 0 0
0 0 0
0 0 0
0 0 0
0 0 0
0 0 0
0 0 0
0 0 0
0 0 0
0 0 0
0 0 0
0 0 0
0 0 0
0 0 0
0 0 0
0 0 0
0 0 0
0 0 0
0 0 0
0 0 0
0 0 0
0 0 0
0 0 0
0 0 0
0 0 0
0 0 0
0 0 0
0 0 0
0 0 0
0 0 0
0 0 0
0 0 0
0 0 0
0 0 0
0 0 0
0 0 0
0 0 0
0 0 0
0 0 0
0 0 0
0 0 0
0 0 0
0 0 0
0 0 0
0 0 0
0 0 0
0 0 0
0 0 0
0 0 0
0 0 0
0 0 0
0 0 0
0 0 0
0 0 0
0 0 0
0 0 0
0 0 0
0 0 0
0 0 0
0 0 0
0 0 0
0 0 0
0 0 0
0 0 0
0 0 0
0 0 0
0 0 0
0 0 0
0 0 0
0 0 0
0 0 0
0 0 0
0 0 0
0 0 0
0 0 0
0 0 0
0 0 0
0 0 0
0 0 0
0 0 0
0 0 0
0 0 0
0 0 0
0 0 0
0 0 0
0 0 0
0 0 0
0 0 0
0 0 0
0 0 0
0 0 0
0 0 0
0 0 0
0 0 0
0 0 0
0 0 0
0 0 0
0 0 0
0 0 0
0 0 0
0 0 0
0 0 0
0 0 0
0 0 0
0 0 0
0 0 0
0 0 0
0 0 0
0 0 0
0 0 0
0 0 0
0 0 0
0 0 0
0 0 0
0 0 0
0 0 0
0 0 0
0 0 0
0 0 0
0 0 0
0 0 0
0 0 0
0 0 0
0 0 0
0 0 0
0 0 0
0 0 0
0 0 0
0 0 0
0 0 0
0 0 0
0 0 0
0 0 0
0 0 0
0 0 0
0 0 0
0 0 0
0 0 0
0 0 0
0 0 0
0 0 0
0 0 0
0 0 0
0 0 0
0 0 0
0 0 0
0 0 0
0 0 0
0 0 0
0 0 0
0 0 0
0 0 0
0 0 0
0 0 0
135 135 135
255 255 255
255 255 255
255 255 255
255 255 255
255 255 255
255 255 255
255 255 255
243 252 255
79 112 177
84 118 188
75 107 169
75 107 169
72 102 161
64 91 144
62 88 140
58 82 130
66 94 149
53 75 120
70 99 157
45 64 102
58 82 130
68 96 149
50 71 108
73 104 161
48 68 108
42 59 88
48 68 108
64 91 144
56 79 125
53 75 120
60 85 130
70 99 157
58 82 130
60 85 135
56 79 125
66 94 149
72 102 161
68 97 153
64 91 144
68 97 153
62 88 135
64 91 144
70 99 157
55 78 120
82 116 184
64 91 144
68 97 153
75 107 169
64 91 144
75 107 169
255 255 255
255 255 255
255 255 255
255 255 255
255 255 255
255 255 255
255 255 255
255 255 255
88 88 88
0 0 0
0 0 0
0 0 0
0 0 0
0 0 0
0 0 0
0 0 0
0 0 0
0 0 0
0 0 0
0 0 0
0 0 0
0 0 0
0 0 0
0 0 0
0 0 0
0 0 0
0 0 0
0 0 0
0 0 0
0 0 0
0 0 0
0 0 0
0 0 0
0 0 0
0 0 0
0 0 0
0 0 0
0 0 0
0 0 0
0 0 0
0 0 0
0 0 0
0 0 0
0 0 0
0 0 0
0 0 0
0 0 0
0 0 0
0 0 0
0 0 0
0 0 0
0 0 0
0 0 0
0 0 0
0 0 0
0 0 0
0 0 0
0 0 0
0 0 0
0 0 0
0 0 0
0 0 0
0 0 0
0 0 0
0 0 0
0 0 0
0 0 0
0 0 0
0 0 0
0 0 0
0 0 0
0 0 0
0 0 0
0 0 0
0 0 0
0 0 0
0 0 0
0 0 0
0 0 0
0 0 0
0 0 0
0 0 0
0 0 0
0 0 0
0 0 0
0 0 0
0 0 0
0 0 0
0 0 0
0 0 0
0 0 0
0 0 0
0 0 0
0 0 0
0 0 0
0 0 0
0 0 0
0 0 0
0 0 0
0 0 0
0 0 0
0 0 0
0 0 0
0 0 0
0 0 0
0 0 0
0 0 0
0 0 0
0 0 0
0 0 0
0 0 0
0 0 0
0 0 0
0 0 0
0 0 0
0 0 0
0 0 0
0 0 0
0 0 0
0 0 0
0 0 0
0 0 0
0 0 0
0 0 0
0 0 0
0 0 0
0 0 0
0 0 0
0 0 0
0 0 0
0 0 0
0 0 0
0 0 0
0 0 0
0 0 0
0 0 0
0 0 0
0 0 0
0 0 0
0 0 0
0 0 0
0 0 0
0 0 0
0 0 0
0 0 0
0 0 0
0 0 0
0 0 0
0 0 0
0 0 0
0 0 0
0 0 0
0 0 0
0 0 0
0 0 0
0 0 0
0 0 0
0 0 0
0 0 0
0 0 0
0 0 0
0 0 0
0 0 0
0 0 0
0 0 0
0 0 0
0 0 0
0 0 0
0 0 0
0 0 0
0 0 0
0 0 0
0 0 0
0 0 0
0 0 0
0 0 0
0 0 0
0 0 0
0 0 0
0 0 0
0 0 0
0 0 0
0 0 0
0 0 0
0 0 0
0 0 0
0 0 0
0 0 0
0 0 0
0 0 0
0 0 0
0 0 0
0 0 0
0 0 0
0 0 0
0 0 0
0 0 0
0 0 0
0 0 0
0 0 0
0 0 0
0 0 0
0 0 0
0 0 0
0 0 0
0 0 0
0 0 0
0 0 0
0 0 0
0 0 0
0 0 0
0 0 0
0 0 0
0 0 0
0 0 0
0 0 0
0 0 0
0 0 0
0 0 0
0 0 0
0 0 0
0 0 0
0 0 0
0 0 0
0 0 0
0 0 0
0 0 0
0 0 0
0 0 0
0 0 0
0 0 0
0 0 0
0 0 0
0 0 0
0 0 0
0 0 0
0 0 0
0 0 0
0 0 0
0 0 0
0 0 0
0 0 0
0 0 0
0 0 0
0 0 0
0 0 0
0 0 0
0 0 0
0 0 0
0 0 0
0 0 0
0 0 0
0 0 0
0 0 0
0 0 0
0 0 0
0 0 0
0 0 0
0 0 0
0 0 0
0 0 0
0 0 0
0 0 0
0 0 0
0 0 0
0 0 0
0 0 0
0 0 0
0 0 0
0 0 0
0 0 0
0 0 0
0 0 0
0 0 0
0 0 0
0 0 0
0 0 0
0 0 0
0 0 0
0 0 0
0 0 0
0 0 0
0 0 0
0 0 0
0 0 0
0 0 0
0 0 0
0 0 0
0 0 0
0 0 0
0 0 0
0 0 0
0 0 0
0 0 0
0 0 0
0 0 0
0 0 0
0 0 0
0 0 0
0 0 0
0 0 0
0 0 0
0 0 0
0 0 0
0 0 0
0 0 0
0 0 0
0 0 0
0 0 0
0 0 0
0 0 0
0 0 0
0 0 0
0 0 0
0 0 0
0 0 0
0 0 0
0 0 0
0 0 0
0 0 0
0 0 0
0 0 0
0 0 0
0 0 0
0 0 0
0 0 0
0 0 0
0 0 0
0 0 0
0 0 0
0 0 0
0 0 0
0 0 0
0 0 0
0 0 0
0 0 0
0 0 0
0 0 0
0 0 0
0 0 0
0 0 0
0 0 0
0 0 0
0 0 0
0 0 0
0 0 0
0 0 0
0 0 0
0 0 0
0 0 0
0 0 0
255 255 255
255 255 255
255 255 255
255 255 255
74 91 130
68 97 153
66 93 144
60 85 135
70 99 157
74 104 165
70 99 157
62 88 140
45 64 102
60 85 135
62 88 140
58 82 130
51 72 114
75 107 169
70 99 157
56 79 125
45 64 102
53 75 120
58 82 130
48 68 108
66 94 149
62 88 140
56 79 125
58 82 130
68 97 153
48 68 108
55 78 120
56 79 125
57 81 125
70 99 157
64 91 144
51 72 114
53 75 120
64 91 144
58 82 130
68 97 153
48 68 108
73 104 161
77 109 173
53 75 120
56 79 125
56 79 125
53 75 120
68 97 153
64 91 144
68 97 153
64 91 144
136 155 201
255 255 255
255 255 255
255 255 255
255 255 255
0 0 0
0 0 0
0 0 0
0 0 0
0 0 0
0 0 0
0 0 0
0 0 0
0 0 0
0 0 0
0 0 0
0 0 0
0 0 0
0 0 0
0 0 0
0 0 0
0 0 0
0 0 0
0 0 0
0 0 0
0 0 0
0 0 0
0 0 0
0 0 0
0 0 0
0 0 0
0 0 0
0 0 0
0 0 0
0 0 0
0 0 0
0 0 0
0 0 0
0 0 0
0 0 0
0 0 0
0 0 0
0 0 0
0 0 0
0 0 0
0 0 0
0 0 0
0 0 0
0 0 0
0 0 0
0 0 0
0 0 0
0 0 0
0 0 0
0 0 0
0 0 0
0 0 0
0 0 0
0 0 0
0 0 0
0 0 0
0 0 0
0 0 0
0 0 0
0 0 0
0 0 0
0 0 0
0 0 0
0 0 0
0 0 0
0 0 0
0 0 0
0 0 0
0 0 0
0 0 0
0 0 0
0 0 0
0 0 0
0 0 0
0 0 0
0 0 0
0 0 0
0 0 0
0 0 0
0 0 0
0 0 0
0 0 0
0 0 0
0 0 0
0 0 0
0 0 0
0 0 0
0 0 0
0 0 0
0 0 0
0 0 0
0 0 0
0 0 0
0 0 0
0 0 0
0 0 0
0 0 0
0 0 0
0 0 0
0 0 0
0 0 0
0 0 0
0 0 0
0 0 0
0 0 0
0 0 0
0 0 0
0 0 0
0 0 0
0 0 0
0 0 0
0 0 0
0 0 0
0 0 0
0 0 0
0 0 0
0 0 0
0 0 0
0 0 0
0 0 0
0 0 0
0 0 0
0 0 0
0 0 0
0 0 0
0 0 0
0 0 0
0 0 0
0 0 0
0 0 0
0 0 0
0 0 0
0 0 0
0 0 0
0 0 0
0 0 0
0 0 0
0 0 0
0 0 0
0 0 0
0 0 0
0 0 0
0 0 0
0 0 0
0 0 0
0 0 0
0 0 0
0 0 0
0 0 0
0 0 0
0 0 0
0 0 0
0 0 0
0 0 0
0 0 0
0 0 0
0 0 0
0 0 0
0 0 0
0 0 0
0 0 0
0 0 0
0 0 0
0 0 0
0 0 0
0 0 0
0 0 0
0 0 0
0 0 0
0 0 0
0 0 0
0 0 0
0 0 0
0 0 0
0 0 0
0 0 0
0 0 0
0 0 0
0 0 0
0 0 0
0 0 0
0 0 0
0 0 0
0 0 0
0 0 0
0 0 0
0 0 0
0 0 0
0 0 0
0 0 0
0 0 0
0 0 0
0 0 0
0 0 0
0 0 0
0 0 0
0 0 0
0 0 0
0 0 0
0 0 0
0 0 0
0 0 0
0 0 0
0 0 0
0 0 0
0 0 0
0 0 0
0 0 0
0 0 0
0 0 0
0 0 0
0 0 0
0 0 0
0 0 0
0 0 0
0 0 0
0 0 0
0 0 0
0 0 0
0 0 0
0 0 0
0 0 0
0 0 0
0 0 0
0 0 0
0 0 0
0 0 0
0 0 0
0 0 0
0 0 0
0 0 0
0 0 0
0 0 0
0 0 0
0 0 0
0 0 0
0 0 0
0 0 0
0 0 0
0 0 0
0 0 0
0 0 0
0 0 0
0 0 0
0 0 0
0 0 0
0 0 0
0 0 0
0 0 0
0 0 0
0 0 0
0 0 0
0 0 0
0 0 0
0 0 0
0 0 0
0 0 0
0 0 0
0 0 0
0 0 0
0 0 0
0 0 0
0 0 0
0 0 0
0 0 0
0 0 0
0 0 0
0 0 0
0 0 0
0 0 0
0 0 0
0 0 0
0 0 0
0 0 0
0 0 0
0 0 0
0 0 0
0 0 0
0 0 0
0 0 0
0 0 0
0 0 0
0 0 0
0 0 0
0 0 0
0 0 0
0 0 0
0 0 0
0 0 0
0 0 0
0 0 0
0 0 0
0 0 0
0 0 0
0 0 0
0 0 0
0 0 0
0 0 0
0 0 0
0 0 0
0 0 0
0 0 0
0 0 0
0 0 0
0 0 0
0 0 0
0 0 0
0 0 0
0 0 0
0 0 0
0 0 0
0 0 0
0 0 0
0 0 0
0 0 0
0 0 0
0 0 0
0 0 0
0 0 0
0 0 0
0 0 0
0 0 0
0 0 0
0 0 0
0 0 0
0 0 0
0 0 0
0 0 0
0 0 0
0 0 0
0 0 0
0 0 0
0 0 0
0 0 0
0 0 0
0 0 0
0 0 0
0 0 0
0 0 0
0 0 0
0 0 0
0 0 0
0 0 0
0 0 0
51 72 114
103 127 181
66 93 144
62 88 140
62 88 140
60 85 135
60 85 135
51 72 114
60 85 130
42 60 95
62 88 135
53 75 114
28 39 62
70 99 157
51 72 114
42 60 95
42 60 95
60 85 135
64 91 144
42 59 88
31 44 62
53 75 120
62 88 140
48 68 108
58 82 130
48 68 108
66 93 144
53 75 114
42 60 95
51 72 114
70 99 157
57 81 125
62 88 140
55 78 120
51 72 114
53 75 120
56 79 125
56 79 125
51 72 114
64 91 144
62 88 140
53 75 120
58 82 130
60 85 135
51 72 114
42 59 88
66 94 149
53 75 120
60 85 130
56 79 125
64 91 144
68 97 153
70 99 157
77 109 173
119 135 169
53 75 120
0 0 0
0 0 0
0 0 0
0 0 0
0 0 0
0 0 0
0 0 0
0 0 0
0 0 0
0 0 0
0 0 0
0 0 0
0 0 0
0 0 0
0 0 0
0 0 0
0 0 0
0 0 0
0 0 0
0 0 0
0 0 0
0 0 0
0 0 0
0 0 0
0 0 0
0 0 0
0 0 0
0 0 0
0 0 0
0 0 0
0 0 0
0 0 0
0 0 0
0 0 0
0 0 0
0 0 0
0 0 0
0 0 0
0 0 0
0 0 0
0 0 0
0 0 0
0 0 0
0 0 0
0 0 0
0 0 0
0 0 0
0 0 0
0 0 0
0 0 0
0 0 0
0 0 0
0 0 0
0 0 0
0 0 0
0 0 0
0 0 0
0 0 0
0 0 0
0 0 0
0 0 0
0 0 0
0 0 0
0 0 0
0 0 0
0 0 0
0 0 0
0 0 0
0 0 0
0 0 0
0 0 0
0 0 0
0 0 0
0 0 0
0 0 0
0 0 0
0 0 0
0 0 0
0 0 0
0 0 0
0 0 0
0 0 0
0 0 0
0 0 0
0 0 0
0 0 0
0 0 0
0 0 0
0 0 0
0 0 0
0 0 0
0 0 0
0 0 0
0 0 0
0 0 0
0 0 0
0 0 0
0 0 0
0 0 0
0 0 0
0 0 0
0 0 0
0 0 0
0 0 0
0 0 0
0 0 0
0 0 0
0 0 0
0 0 0
0 0 0
0 0 0
0 0 0
0 0 0
0 0 0
0 0 0
0 0 0
0 0 0
0 0 0
0 0 0
0 0 0
0 0 0
0 0 0
0 0 0
0 0 0
0 0 0
0 0 0
0 0 0
0 0 0
0 0 0
0 0 0
0 0 0
0 0 0
0 0 0
0 0 0
0 0 0
0 0 0
0 0 0
0 0 0
0 0 0
0 0 0
0 0 0
0 0 0
0 0 0
0 0 0
0 0 0
0 0 0
0 0 0
0 0 0
0 0 0
0 0 0
0 0 0
0 0 0
0 0 0
0 0 0
0 0 0
0 0 0
0 0 0
0 0 0
0 0 0
0 0 0
0 0 0
0 0 0
0 0 0
0 0 0
0 0 0
0 0 0
0 0 0
0 0 0
0 0 0
0 0 0
0 0 0
0 0 0
0 0 0
0 0 0
0 0 0
0 0 0
0 0 0
0 0 0
0 0 0
0 0 0
0 0 0
0 0 0
0 0 0
0 0 0
0 0 0
0 0 0
0 0 0
0 0 0
0 0 0
0 0 0
0 0 0
0 0 0
0 0 0
0 0 0
0 0 0
0 0 0
0 0 0
0 0 0
0 0 0
0 0 0
0 0 0
0 0 0
0 0 0
0 0 0
0 0 0
0 0 0
0 0 0
0 0 0
0 0 0
0 0 0
0 0 0
0 0 0
0 0 0
0 0 0
0 0 0
0 0 0
0 0 0
0 0 0
0 0 0
0 0 0
0 0 0
0 0 0
0 0 0
0 0 0
0 0 0
0 0 0
0 0 0
0 0 0
0 0 0
0 0 0
0 0 0
0 0 0
0 0 0
0 0 0
0 0 0
0 0 0
0 0 0
0 0 0
0 0 0
0 0 0
0 0 0
0 0 0
0 0 0
0 0 0
0 0 0
0 0 0
0 0 0
0 0 0
0 0 0
0 0 0
0 0 0
0 0 0
0 0 0
0 0 0
0 0 0
0 0 0
0 0 0
0 0 0
0 0 0
0 0 0
0 0 0
0 0 0
0 0 0
0 0 0
0 0 0
0 0 0
0 0 0
0 0 0
0 0 0
0 0 0
0 0 0
0 0 0
0 0 0
0 0 0
0 0 0
0 0 0
0 0 0
0 0 0
0 0 0
0 0 0
0 0 0
0 0 0
0 0 0
0 0 0
0 0 0
0 0 0
0 0 0
0 0 0
0 0 0
0 0 0
0 0 0
0 0 0
0 0 0
0 0 0
0 0 0
0 0 0
0 0 0
0 0 0
0 0 0
0 0 0
0 0 0
0 0 0
0 0 0
0 0 0
0 0 0
0 0 0
0 0 0
0 0 0
0 0 0
0 0 0
0 0 0
0 0 0
0 0 0
0 0 0
0 0 0
0 0 0
0 0 0
0 0 0
0 0 0
0 0 0
0 0 0
0 0 0
0 0 0
0 0 0
0 0 0
0 0 0
0 0 0
0 0 0
0 0 0
0 0 0
0 0 0
0 0 0
0 0 0
0 0 0
0 0 0
0 0 0
0 0 0
0 0 0
0 0 0
0 0 0
0 0 0
16 22 36
22 32 51
64 91 144
53 75 120
53 75 120
64 91 144
68 97 153
48 68 108
64 91 144
66 94 149
64 91 144
42 60 95
39 56 88
48 68 108
56 79 125
39 56 88
53 75 120
70 99 157
48 68 108
48 68 108
39 56 88
48 68 108
50 71 108
42 60 95
58 82 130
51 72 114
51 72 114
62 88 140
45 64 102
45 64 102
45 63 95
48 68 108
56 79 125
53 75 114
56 79 125
51 72 114
48 68 108
58 82 130
62 88 140
42 60 95
57 81 125
53 75 120
45 64 102
39 56 88
42 60 95
48 68 108
48 68 108
60 85 130
45 64 102
56 79 125
51 72 114
53 75 114
60 85 130
62 88 140
66 94 149
66 94 149
45 63 95
62 88 140
64 91 144
53 75 120
22 32 51
22 32 51
0 0 0
0 0 0
0 0 0
0 0 0
0 0 0
0 0 0
0 0 0
0 0 0
0 0 0
0 0 0
0 0 0
0 0 0
0 0 0
0 0 0
0 0 0
0 0 0
0 0 0
0 0 0
0 0 0
0 0 0
0 0 0
0 0 0
0 0 0
0 0 0
0 0 0
0 0 0
0 0 0
0 0 0
0 0 0
0 0 0
0 0 0
0 0 0
0 0 0
0 0 0
0 0 0
0 0 0
0 0 0
0 0 0
0 0 0
0 0 0
0 0 0
0 0 0
0 0 0
0 0 0
0 0 0
0 0 0
0 0 0
0 0 0
0 0 0
0 0 0
0 0 0
0 0 0
0 0 0
0 0 0
0 0 0
0 0 0
0 0 0
0 0 0
0 0 0
0 0 0
0 0 0
0 0 0
0 0 0
0 0 0
0 0 0
0 0 0
0 0 0
0 0 0
0 0 0
0 0 0
0 0 0
0 0 0
0 0 0
0 0 0
0 0 0
0 0 0
0 0 0
0 0 0
0 0 0
0 0 0
0 0 0
0 0 0
0 0 0
0 0 0
0 0 0
0 0 0
0 0 0
0 0 0
0 0 0
0 0 0
0 0 0
0 0 0
0 0 0
0 0 0
0 0 0
0 0 0
0 0 0
0 0 0
0 0 0
0 0 0
0 0 0
0 0 0
0 0 0
0 0 0
0 0 0
0 0 0
0 0 0
0 0 0
0 0 0
0 0 0
0 0 0
0 0 0
0 0 0
0 0 0
0 0 0
0 0 0
0 0 0
0 0 0
0 0 0
0 0 0
0 0 0
0 0 0
0 0 0
0 0 0
0 0 0
0 0 0
0 0 0
0 0 0
0 0 0
0 0 0
0 0 0
0 0 0
0 0 0
0 0 0
0 0 0
0 0 0
0 0 0
0 0 0
0 0 0
0 0 0
0 0 0
0 0 0
0 0 0
0 0 0
0 0 0
0 0 0
0 0 0
0 0 0
0 0 0
0 0 0
0 0 0
0 0 0
0 0 0
0 0 0
0 0 0
0 0 0
0 0 0
0 0 0
0 0 0
0 0 0
0 0 0
0 0 0
0 0 0
0 0 0
0 0 0
0 0 0
0 0 0
0 0 0
0 0 0
0 0 0
0 0 0
0 0 0
0 0 0
0 0 0
0 0 0
0 0 0
0 0 0
0 0 0
0 0 0
0 0 0
0 0 0
0 0 0
0 0 0
0 0 0
0 0 0
0 0 0
0 0 0
0 0 0
0 0 0
0 0 0
0 0 0
0 0 0
0 0 0
0 0 0
0 0 0
0 0 0
0 0 0
0 0 0
0 0 0
0 0 0
0 0 0
0 0 0
0 0 0
0 0 0
0 0 0
0 0 0
0 0 0
0 0 0
0 0 0
0 0 0
0 0 0
0 0 0
0 0 0
0 0 0
0 0 0
0 0 0
0 0 0
0 0 0
0 0 0
0 0 0
0 0 0
0 0 0
0 0 0
0 0 0
0 0 0
0 0 0
0 0 0
0 0 0
0 0 0
0 0 0
0 0 0
0 0 0
0 0 0
0 0 0
0 0 0
0 0 0
0 0 0
0 0 0
0 0 0
0 0 0
0 0 0
0 0 0
0 0 0
0 0 0
0 0 0
0 0 0
0 0 0
0 0 0
0 0 0
0 0 0
0 0 0
0 0 0
0 0 0
0 0 0
0 0 0
0 0 0
0 0 0
0 0 0
0 0 0
0 0 0
0 0 0
0 0 0
0 0 0
0 0 0
0 0 0
0 0 0
0 0 0
0 0 0
0 0 0
0 0 0
0 0 0
0 0 0
0 0 0
0 0 0
0 0 0
0 0 0
0 0 0
0 0 0
0 0 0
0 0 0
0 0 0
0 0 0
0 0 0
0 0 0
0 0 0
0 0 0
0 0 0
0 0 0
0 0 0
0 0 0
0 0 0
0 0 0
0 0 0
0 0 0
0 0 0
0 0 0
0 0 0
0 0 0
0 0 0
0 0 0
0 0 0
0 0 0
0 0 0
0 0 0
0 0 0
0 0 0
0 0 0
0 0 0
0 0 0
0 0 0
0 0 0
0 0 0
0 0 0
0 0 0
0 0 0
0 0 0
0 0 0
0 0 0
0 0 0
0 0 0
0 0 0
0 0 0
0 0 0
0 0 0
0 0 0
0 0 0
0 0 0
0 0 0
0 0 0
0 0 0
0 0 0
0 0 0
0 0 0
0 0 0
0 0 0
0 0 0
16 22 36
27 38 51
48 68 108
48 68 108
58 82 130
60 85 130
39 56 88
53 75 120
56 79 125
45 64 102
48 68 108
48 68 108
53 75 120
48 68 108
36 51 80
39 56 88
51 72 114
36 51 80
56 79 125
53 75 120
45 64 102
53 75 120
39 56 88
56 79 125
64 91 144
50 71 108
53 75 120
56 79 125
39 56 88
58 82 130
42 60 95
51 72 114
45 64 102
39 56 88
53 75 120
56 79 125
39 56 88
55 78 120
39 56 88
45 63 95
39 56 88
32 45 72
53 75 120
45 64 102
48 68 108
53 75 120
45 64 102
56 79 125
56 79 125
39 56 88
42 60 95
60 85 130
48 67 102
48 68 108
45 63 95
56 79 125
58 82 130
39 56 88
60 85 135
60 85 135
62 88 140
64 91 144
56 79 125
51 72 114
42 60 95
0 0 0
0 0 0
0 0 0
0 0 0
0 0 0
0 0 0
0 0 0
0 0 0
0 0 0
0 0 0
0 0 0
0 0 0
0 0 0
0 0 0
0 0 0
0 0 0
0 0 0
0 0 0
0 0 0
0 0 0
0 0 0
0 0 0
0 0 0
0 0 0
0 0 0
0 0 0
0 0 0
0 0 0
0 0 0
0 0 0
0 0 0
0 0 0
0 0 0
0 0 0
0 0 0
0 0 0
0 0 0
0 0 0
0 0 0
0 0 0
0 0 0
0 0 0
0 0 0
0 0 0
0 0 0
0 0 0
0 0 0
0 0 0
0 0 0
0 0 0
0 0 0
0 0 0
0 0 0
0 0 0
0 0 0
0 0 0
0 0 0
0 0 0
0 0 0
0 0 0
0 0 0
0 0 0
0 0 0
0 0 0
0 0 0
0 0 0
0 0 0
0 0 0
0 0 0
0 0 0
0 0 0
0 0 0
0 0 0
0 0 0
0 0 0
0 0 0
0 0 0
0 0 0
0 0 0
0 0 0
0 0 0
0 0 0
0 0 0
0 0 0
0 0 0
0 0 0
0 0 0
0 0 0
0 0 0
0 0 0
0 0 0
0 0 0
0 0 0
0 0 0
0 0 0
0 0 0
0 0 0
0 0 0
0 0 0
0 0 0
0 0 0
0 0 0
0 0 0
0 0 0
0 0 0
0 0 0
0 0 0
0 0 0
0 0 0
0 0 0
0 0 0
0 0 0
0 0 0
0 0 0
0 0 0
0 0 0
0 0 0
0 0 0
0 0 0
0 0 0
0 0 0
0 0 0
0 0 0
0 0 0
0 0 0
0 0 0
0 0 0
0 0 0
0 0 0
0 0 0
0 0 0
0 0 0
0 0 0
0 0 0
0 0 0
0 0 0
0 0 0
0 0 0
0 0 0
0 0 0
0 0 0
0 0 0
0 0 0
0 0 0
0 0 0
0 0 0
0 0 0
0 0 0
0 0 0
0 0 0
0 0 0
0 0 0
0 0 0
0 0 0
0 0 0
0 0 0
0 0 0
0 0 0
0 0 0
0 0 0
0 0 0
0 0 0
0 0 0
0 0 0
0 0 0
0 0 0
0 0 0
0 0 0
0 0 0
0 0 0
0 0 0
0 0 0
0 0 0
0 0 0
0 0 0
0 0 0
0 0 0
0 0 0
0 0 0
0 0 0
0 0 0
0 0 0
0 0 0
0 0 0
0 0 0
0 0 0
0 0 0
0 0 0
0 0 0
0 0 0
0 0 0
0 0 0
0 0 0
0 0 0
0 0 0
0 0 0
0 0 0
0 0 0
0 0 0
0 0 0
0 0 0
0 0 0
0 0 0
0 0 0
0 0 0
0 0 0
0 0 0
0 0 0
0 0 0
0 0 0
0 0 0
0 0 0
0 0 0
0 0 0
0 0 0
0 0 0
0 0 0
0 0 0
0 0 0
0 0 0
0 0 0
0 0 0
0 0 0
0 0 0
0 0 0
0 0 0
0 0 0
0 0 0
0 0 0
0 0 0
0 0 0
0 0 0
0 0 0
0 0 0
0 0 0
0 0 0
0 0 0
0 0 0
0 0 0
0 0 0
0 0 0
0 0 0
0 0 0
0 0 0
0 0 0
0 0 0
0 0 0
0 0 0
0 0 0
0 0 0
0 0 0
0 0 0
0 0 0
0 0 0
0 0 0
0 0 0
0 0 0
0 0 0
0 0 0
0 0 0
0 0 0
0 0 0
0 0 0
0 0 0
0 0 0
0 0 0
0 0 0
0 0 0
0 0 0
0 0 0
0 0 0
0 0 0
0 0 0
0 0 0
0 0 0
0 0 0
0 0 0
0 0 0
0 0 0
0 0 0
0 0 0
0 0 0
0 0 0
0 0 0
0 0 0
0 0 0
0 0 0
0 0 0
0 0 0
0 0 0
0 0 0
0 0 0
0 0 0
0 0 0
0 0 0
0 0 0
0 0 0
0 0 0
0 0 0
0 0 0
0 0 0
0 0 0
0 0 0
0 0 0
0 0 0
0 0 0
0 0 0
0 0 0
0 0 0
0 0 0
0 0 0
0 0 0
0 0 0
0 0 0
0 0 0
0 0 0
0 0 0
0 0 0
0 0 0
0 0 0
0 0 0
0 0 0
0 0 0
0 0 0
0 0 0
0 0 0
0 0 0
0 0 0
0 0 0
0 0 0
0 0 0
0 0 0
0 0 0
0 0 0
28 39 62
56 79 125
56 79 125
48 68 108
45 64 102
53 75 120
56 79 125
48 68 108
53 75 120
56 79 125
60 85 135
36 51 80
39 56 88
51 72 114
58 82 130
36 51 80
39 56 88
62 88 140
42 60 95
45 64 102
36 51 80
45 64 102
45 63 95
48 68 108
42 60 95
45 64 102
56 79 125
58 82 130
45 64 102
45 64 102
39 56 88
42 60 95
53 75 114
60 85 130
51 72 114
48 68 108
48 68 108
51 72 114
58 82 130
22 32 51
53 75 120
53 75 120
28 39 62
42 60 95
32 45 72
48 68 108
45 64 102
48 67 102
45 63 95
48 68 108
42 60 95
32 45 72
62 88 135
42 60 95
58 82 130
39 56 88
48 67 102
55 78 120
42 60 95
53 75 120
45 64 102
48 68 108
70 99 157
56 79 125
58 82 130
62 88 140
70 99 157
36 51 80
0 0 0
0 0 0
0 0 0
0 0 0
0 0 0
0 0 0
0 0 0
0 0 0
0 0 0
0 0 0
0 0 0
0 0 0
0 0 0
0 0 0
0 0 0
0 0 0
0 0 0
0 0 0
0 0 0
0 0 0
0 0 0
0 0 0
0 0 0
0 0 0
0 0 0
0 0 0
0 0 0
0 0 0
0 0 0
0 0 0
0 0 0
0 0 0
0 0 0
0 0 0
0 0 0
0 0 0
0 0 0
0 0 0
0 0 0
0 0 0
0 0 0
0 0 0
0 0 0
0 0 0
0 0 0
0 0 0
0 0 0
0 0 0
0 0 0
0 0 0
0 0 0
0 0 0
0 0 0
0 0 0
0 0 0
0 0 0
0 0 0
0 0 0
0 0 0
0 0 0
0 0 0
0 0 0
0 0 0
0 0 0
0 0 0
0 0 0
0 0 0
0 0 0
0 0 0
0 0 0
0 0 0
0 0 0
0 0 0
0 0 0
0 0 0
0 0 0
0 0 0
0 0 0
0 0 0
0 0 0
0 0 0
0 0 0
0 0 0
0 0 0
0 0 0
0 0 0
0 0 0
0 0 0
0 0 0
0 0 0
0 0 0
0 0 0
0 0 0
0 0 0
0 0 0
0 0 0
0 0 0
0 0 0
0 0 0
0 0 0
0 0 0
0 0 0
0 0 0
0 0 0
0 0 0
0 0 0
0 0 0
0 0 0
0 0 0
0 0 0
0 0 0
0 0 0
0 0 0
0 0 0
0 0 0
0 0 0
0 0 0
0 0 0
0 0 0
0 0 0
0 0 0
0 0 0
0 0 0
0 0 0
0 0 0
0 0 0
0 0 0
0 0 0
0 0 0
0 0 0
0 0 0
0 0 0
0 0 0
0 0 0
0 0 0
0 0 0
0 0 0
0 0 0
0 0 0
0 0 0
0 0 0
0 0 0
0 0 0
0 0 0
0 0 0
0 0 0
0 0 0
0 0 0
0 0 0
0 0 0
0 0 0
0 0 0
0 0 0
0 0 0
0 0 0
0 0 0
0 0 0
0 0 0
0 0 0
0 0 0
0 0 0
0 0 0
0 0 0
0 0 0
0 0 0
0 0 0
0 0 0
0 0 0
0 0 0
0 0 0
0 0 0
0 0 0
0 0 0
0 0 0
0 0 0
0 0 0
0 0 0
0 0 0
0 0 0
0 0 0
0 0 0
0 0 0
0 0 0
0 0 0
0 0 0
0 0 0
0 0 0
0 0 0
0 0 0
0 0 0
0 0 0
0 0 0
0 0 0
0 0 0
0 0 0
0 0 0
0 0 0
0 0 0
0 0 0
0 0 0
0 0 0
0 0 0
0 0 0
0 0 0
0 0 0
0 0 0
0 0 0
0 0 0
0 0 0
0 0 0
0 0 0
0 0 0
0 0 0
0 0 0
0 0 0
0 0 0
0 0 0
0 0 0
0 0 0
0 0 0
0 0 0
0 0 0
0 0 0
0 0 0
0 0 0
0 0 0
0 0 0
0 0 0
0 0 0
0 0 0
0 0 0
0 0 0
0 0 0
0 0 0
0 0 0
0 0 0
0 0 0
0 0 0
0 0 0
0 0 0
0 0 0
0 0 0
0 0 0
0 0 0
0 0 0
0 0 0
0 0 0
0 0 0
0 0 0
0 0 0
0 0 0
0 0 0
0 0 0
0 0 0
0 0 0
0 0 0
0 0 0
0 0 0
0 0 0
0 0 0
0 0 0
0 0 0
0 0 0
0 0 0
0 0 0
0 0 0
0 0 0
0 0 0
0 0 0
0 0 0
0 0 0
0 0 0
0 0 0
0 0 0
0 0 0
0 0 0
0 0 0
0 0 0
0 0 0
0 0 0
0 0 0
0 0 0
0 0 0
0 0 0
0 0 0
0 0 0
0 0 0
0 0 0
0 0 0
0 0 0
0 0 0
0 0 0
0 0 0
0 0 0
0 0 0
0 0 0
0 0 0
0 0 0
0 0 0
0 0 0
0 0 0
0 0 0
0 0 0
0 0 0
0 0 0
0 0 0
0 0 0
0 0 0
0 0 0
0 0 0
0 0 0
0 0 0
0 0 0
0 0 0
0 0 0
0 0 0
0 0 0
0 0 0
0 0 0
0 0 0
0 0 0
0 0 0
0 0 0
0 0 0
0 0 0
0 0 0
0 0 0
0 0 0
0 0 0
0 0 0
16 22 36
48 68 108
57 81 125
53 75 114
60 85 135
51 72 114
56 79 125
51 72 114
39 56 88
48 67 102
53 75 120
42 60 95
56 79 125
53 75 120
42 60 95
48 68 108
42 60 95
53 75 120
58 82 130
45 63 95
48 68 108
53 75 120
42 59 88
56 79 125
39 56 88
42 60 95
48 68 108
42 60 95
48 67 102
53 75 120
45 64 102
45 64 102
39 56 88
28 39 62
36 51 80
28 39 62
45 64 102
51 72 114
42 60 95
62 88 140
42 60 95
48 68 108
48 68 108
39 56 88
32 45 72
45 64 102
42 60 95
28 39 62
45 64 102
55 78 120
50 71 108
32 45 72
36 51 80
60 85 135
50 71 108
45 64 102
36 51 80
58 82 130
62 88 140
53 75 120
58 82 130
36 51 80
38 55 80
60 85 135
38 55 80
48 68 108
53 75 120
42 60 95
56 79 125
62 88 140
56 79 125
0 0 0
0 0 0
0 0 0
0 0 0
0 0 0
0 0 0
0 0 0
0 0 0
0 0 0
0 0 0
0 0 0
0 0 0
0 0 0
0 0 0
0 0 0
0 0 0
0 0 0
0 0 0
0 0 0
0 0 0
0 0 0
0 0 0
0 0 0
0 0 0
0 0 0
0 0 0
0 0 0
0 0 0
0 0 0
0 0 0
0 0 0
0 0 0
0 0 0
0 0 0
0 0 0
0 0 0
0 0 0
0 0 0
0 0 0
0 0 0
0 0 0
0 0 0
0 0 0
0 0 0
0 0 0
0 0 0
0 0 0
0 0 0
0 0 0
0 0 0
0 0 0
0 0 0
0 0 0
0 0 0
0 0 0
0 0 0
0 0 0
0 0 0
0 0 0
0 0 0
0 0 0
0 0 0
0 0 0
0 0 0
0 0 0
0 0 0
0 0 0
0 0 0
0 0 0
0 0 0
0 0 0
0 0 0
0 0 0
0 0 0
0 0 0
0 0 0
0 0 0
0 0 0
0 0 0
0 0 0
0 0 0
0 0 0
0 0 0
0 0 0
0 0 0
0 0 0
0 0 0
0 0 0
0 0 0
0 0 0
0 0 0
0 0 0
0 0 0
0 0 0
0 0 0
0 0 0
0 0 0
0 0 0
0 0 0
0 0 0
0 0 0
0 0 0
0 0 0
0 0 0
0 0 0
0 0 0
0 0 0
0 0 0
0 0 0
0 0 0
0 0 0
0 0 0
0 0 0
0 0 0
0 0 0
0 0 0
0 0 0
0 0 0
0 0 0
0 0 0
0 0 0
0 0 0
0 0 0
0 0 0
0 0 0
0 0 0
0 0 0
0 0 0
0 0 0
0 0 0
0 0 0
0 0 0
0 0 0
0 0 0
0 0 0
0 0 0
0 0 0
0 0 0
0 0 0
0 0 0
0 0 0
0 0 0
0 0 0
0 0 0
0 0 0
0 0 0
0 0 0
0 0 0
0 0 0
0 0 0
0 0 0
0 0 0
0 0 0
0 0 0
0 0 0
0 0 0
0 0 0
0 0 0
0 0 0
0 0 0
0 0 0
0 0 0
0 0 0
0 0 0
0 0 0
0 0 0
0 0 0
0 0 0
0 0 0
0 0 0
0 0 0
0 0 0
0 0 0
0 0 0
0 0 0
0 0 0
0 0 0
0 0 0
0 0 0
0 0 0
0 0 0
0 0 0
0 0 0
0 0 0
0 0 0
0 0 0
0 0 0
0 0 0
0 0 0
0 0 0
0 0 0
0 0 0
0 0 0
0 0 0
0 0 0
0 0 0
0 0 0
0 0 0
0 0 0
0 0 0
0 0 0
0 0 0
0 0 0
0 0 0
0 0 0
0 0 0
0 0 0
0 0 0
0 0 0
0 0 0
0 0 0
0 0 0
0 0 0
0 0 0
0 0 0
0 0 0
0 0 0
0 0 0
0 0 0
0 0 0
0 0 0
0 0 0
0 0 0
0 0 0
0 0 0
0 0 0
0 0 0
0 0 0
0 0 0
0 0 0
0 0 0
0 0 0
0 0 0
0 0 0
0 0 0
0 0 0
0 0 0
0 0 0
0 0 0
0 0 0
0 0 0
0 0 0
0 0 0
0 0 0
0 0 0
0 0 0
0 0 0
0 0 0
0 0 0
0 0 0
0 0 0
0 0 0
0 0 0
0 0 0
0 0 0
0 0 0
0 0 0
0 0 0
0 0 0
0 0 0
0 0 0
0 0 0
0 0 0
0 0 0
0 0 0
0 0 0
0 0 0
0 0 0
0 0 0
0 0 0
0 0 0
0 0 0
0 0 0
0 0 0
0 0 0
0 0 0
0 0 0
0 0 0
0 0 0
0 0 0
0 0 0
0 0 0
0 0 0
0 0 0
0 0 0
0 0 0
0 0 0
0 0 0
0 0 0
0 0 0
0 0 0
0 0 0
0 0 0
0 0 0
0 0 0
0 0 0
0 0 0
0 0 0
0 0 0
0 0 0
0 0 0
0 0 0
0 0 0
0 0 0
0 0 0
0 0 0
0 0 0
0 0 0
0 0 0
0 0 0
0 0 0
0 0 0
0 0 0
0 0 0
0 0 0
0 0 0
0 0 0
0 0 0
0 0 0
0 0 0
0 0 0
0 0 0
0 0 0
0 0 0
0 0 0
0 0 0
0 0 0
0 0 0
28 39 62
51 72 114
32 45 72
53 75 120
45 64 102
39 56 88
53 75 120
45 64 102
36 51 80
51 72 114
51 72 114
28 39 62
45 64 102
32 45 72
45 64 102
48 68 108
36 51 80
53 75 120
48 68 108
48 68 108
36 51 80
28 39 62
48 67 102
42 60 95
51 72 114
42 60 95
48 68 108
39 56 88
42 60 95
48 68 108
35 50 72
36 51 80
48 68 108
53 75 120
51 72 114
45 64 102
51 72 114
53 75 120
45 64 102
16 22 36
48 68 108
45 63 95
28 39 62
39 56 88
22 32 51
45 64 102
42 59 88
32 45 72
53 75 114
39 56 88
39 56 88
45 64 102
53 75 114
36 51 80
53 75 114
32 45 72
50 71 108
48 68 108
32 45 72
53 75 120
32 45 72
60 85 135
48 68 108
38 55 80
53 75 120
48 67 102
53 75 120
42 60 95
53 75 120
53 75 120
51 72 114
55 78 120
39 56 88
36 51 80
0 0 0
0 0 0
0 0 0
0 0 0
0 0 0
0 0 0
0 0 0
0 0 0
0 0 0
0 0 0
0 0 0
0 0 0
0 0 0
0 0 0
0 0 0
0 0 0
0 0 0
0 0 0
0 0 0
0 0 0
0 0 0
0 0 0
0 0 0
0 0 0
0 0 0
0 0 0
0 0 0
0 0 0
0 0 0
0 0 0
0 0 0
0 0 0
0 0 0
0 0 0
0 0 0
0 0 0
0 0 0
0 0 0
0 0 0
0 0 0
0 0 0
0 0 0
0 0 0
0 0 0
0 0 0
0 0 0
0 0 0
0 0 0
0 0 0
0 0 0
0 0 0
0 0 0
0 0 0
0 0 0
0 0 0
0 0 0
0 0 0
0 0 0
0 0 0
0 0 0
0 0 0
0 0 0
0 0 0
0 0 0
0 0 0
0 0 0
0 0 0
0 0 0
0 0 0
0 0 0
0 0 0
0 0 0
0 0 0
0 0 0
0 0 0
0 0 0
0 0 0
0 0 0
0 0 0
0 0 0
0 0 0
0 0 0
0 0 0
0 0 0
0 0 0
0 0 0
0 0 0
0 0 0
0 0 0
0 0 0
0 0 0
0 0 0
0 0 0
0 0 0
0 0 0
0 0 0
0 0 0
0 0 0
0 0 0
0 0 0
0 0 0
0 0 0
0 0 0
0 0 0
0 0 0
0 0 0
0 0 0
0 0 0
0 0 0
0 0 0
0 0 0
0 0 0
0 0 0
0 0 0
0 0 0
0 0 0
0 0 0
0 0 0
0 0 0
0 0 0
0 0 0
0 0 0
0 0 0
0 0 0
0 0 0
0 0 0
0 0 0
0 0 0
0 0 0
0 0 0
0 0 0
0 0 0
0 0 0
0 0 0
0 0 0
0 0 0
0 0 0
0 0 0
0 0 0
0 0 0
0 0 0
0 0 0
0 0 0
0 0 0
0 0 0
0 0 0
0 0 0
0 0 0
0 0 0
0 0 0
0 0 0
0 0 0
0 0 0
0 0 0
0 0 0
0 0 0
0 0 0
0 0 0
0 0 0
0 0 0
0 0 0
0 0 0
0 0 0
0 0 0
0 0 0
0 0 0
0 0 0
0 0 0
0 0 0
0 0 0
0 0 0
0 0 0
0 0 0
0 0 0
0 0 0
0 0 0
0 0 0
0 0 0
0 0 0
0 0 0
0 0 0
0 0 0
0 0 0
0 0 0
0 0 0
0 0 0
0 0 0
0 0 0
0 0 0
0 0 0
0 0 0
0 0 0
0 0 0
0 0 0
0 0 0
0 0 0
0 0 0
0 0 0
0 0 0
0 0 0
0 0 0
0 0 0
0 0 0
0 0 0
0 0 0
0 0 0
0 0 0
0 0 0
0 0 0
0 0 0
0 0 0
0 0 0
0 0 0
0 0 0
0 0 0
0 0 0
0 0 0
0 0 0
0 0 0
0 0 0
0 0 0
0 0 0
0 0 0
0 0 0
0 0 0
0 0 0
0 0 0
0 0 0
0 0 0
0 0 0
0 0 0
0 0 0
0 0 0
0 0 0
0 0 0
0 0 0
0 0 0
0 0 0
0 0 0
0 0 0
0 0 0
0 0 0
0 0 0
0 0 0
0 0 0
0 0 0
0 0 0
0 0 0
0 0 0
0 0 0
0 0 0
0 0 0
0 0 0
0 0 0
0 0 0
0 0 0
0 0 0
0 0 0
0 0 0
0 0 0
0 0 0
0 0 0
0 0 0
0 0 0
0 0 0
0 0 0
0 0 0
0 0 0
0 0 0
0 0 0
0 0 0
0 0 0
0 0 0
0 0 0
0 0 0
0 0 0
0 0 0
0 0 0
0 0 0
0 0 0
0 0 0
0 0 0
0 0 0
0 0 0
0 0 0
0 0 0
0 0 0
0 0 0
0 0 0
0 0 0
0 0 0
0 0 0
0 0 0
0 0 0
0 0 0
0 0 0
0 0 0
0 0 0
0 0 0
0 0 0
0 0 0
0 0 0
0 0 0
0 0 0
0 0 0
0 0 0
0 0 0
0 0 0
0 0 0
0 0 0
0 0 0
0 0 0
0 0 0
0 0 0
0 0 0
0 0 0
0 0 0
0 0 0
0 0 0
0 0 0
0 0 0
0 0 0
0 0 0
0 0 0
0 0 0
42 60 95
51 72 114
55 78 120
53 75 120
51 72 114
53 75 120
48 68 108
53 75 114
45 64 102
45 64 102
45 64 102
56 79 125
66 94 149
36 51 80
48 68 108
45 63 95
50 71 108
45 64 102
36 51 80
39 56 88
53 75 114
42 59 88
36 51 80
51 72 114
45 64 102
42 60 95
32 45 72
22 32 51
36 51 80
32 45 72
39 56 88
39 56 88
51 72 114
45 64 102
39 56 88
39 56 88
31 44 62
32 45 72
42 59 88
45 63 95
39 56 88
39 56 88
48 67 102
48 67 102
42 59 88
35 50 72
39 56 88
42 59 88
48 67 102
32 45 72
45 64 102
56 79 125
42 60 95
53 75 120
45 63 95
28 39 62
38 55 80
50 71 108
32 45 72
53 75 120
39 56 88
0 0 0
45 64 102
45 64 102
32 45 72
16 22 36
32 45 72
45 64 102
56 79 125
48 68 108
48 68 108
45 64 102
48 68 108
53 75 114
53 75 120
36 51 80
16 22 36
0 0 0
0 0 0
0 0 0
0 0 0
0 0 0
0 0 0
0 0 0
0 0 0
0 0 0
0 0 0
0 0 0
0 0 0
0 0 0
0 0 0
0 0 0
0 0 0
0 0 0
0 0 0
0 0 0
0 0 0
0 0 0
0 0 0
0 0 0
0 0 0
0 0 0
0 0 0
0 0 0
0 0 0
0 0 0
0 0 0
0 0 0
0 0 0
0 0 0
0 0 0
0 0 0
0 0 0
0 0 0
0 0 0
0 0 0
0 0 0
0 0 0
0 0 0
0 0 0
0 0 0
0 0 0
0 0 0
0 0 0
0 0 0
0 0 0
0 0 0
0 0 0
0 0 0
0 0 0
0 0 0
0 0 0
0 0 0
0 0 0
0 0 0
0 0 0
0 0 0
0 0 0
0 0 0
0 0 0
0 0 0
0 0 0
0 0 0
0 0 0
0 0 0
0 0 0
0 0 0
0 0 0
0 0 0
0 0 0
0 0 0
0 0 0
0 0 0
0 0 0
0 0 0
0 0 0
0 0 0
0 0 0
0 0 0
0 0 0
0 0 0
0 0 0
0 0 0
0 0 0
0 0 0
0 0 0
0 0 0
0 0 0
0 0 0
0 0 0
0 0 0
0 0 0
0 0 0
0 0 0
0 0 0
0 0 0
0 0 0
0 0 0
0 0 0
0 0 0
0 0 0
0 0 0
0 0 0
0 0 0
0 0 0
0 0 0
0 0 0
0 0 0
0 0 0
0 0 0
0 0 0
0 0 0
0 0 0
0 0 0
0 0 0
0 0 0
0 0 0
0 0 0
0 0 0
0 0 0
0 0 0
0 0 0
0 0 0
0 0 0
0 0 0
0 0 0
0 0 0
0 0 0
0 0 0
0 0 0
0 0 0
0 0 0
0 0 0
0 0 0
0 0 0
0 0 0
0 0 0
0 0 0
0 0 0
0 0 0
0 0 0
0 0 0
0 0 0
0 0 0
0 0 0
0 0 0
0 0 0
0 0 0
0 0 0
0 0 0
0 0 0
0 0 0
0 0 0
0 0 0
0 0 0
0 0 0
0 0 0
0 0 0
0 0 0
0 0 0
0 0 0
0 0 0
0 0 0
0 0 0
0 0 0
0 0 0
0 0 0
0 0 0
0 0 0
0 0 0
0 0 0
0 0 0
0 0 0
0 0 0
0 0 0
0 0 0
0 0 0
0 0 0
0 0 0
0 0 0
0 0 0
0 0 0
0 0 0
0 0 0
0 0 0
0 0 0
0 0 0
0 0 0
0 0 0
0 0 0
0 0 0
0 0 0
0 0 0
0 0 0
0 0 0
0 0 0
0 0 0
0 0 0
0 0 0
0 0 0
0 0 0
0 0 0
0 0 0
0 0 0
0 0 0
0 0 0
0 0 0
0 0 0
0 0 0
0 0 0
0 0 0
0 0 0
0 0 0
0 0 0
0 0 0
0 0 0
0 0 0
0 0 0
0 0 0
0 0 0
0 0 0
0 0 0
0 0 0
0 0 0
0 0 0
0 0 0
0 0 0
0 0 0
0 0 0
0 0 0
0 0 0
0 0 0
0 0 0
0 0 0
0 0 0
0 0 0
0 0 0
0 0 0
0 0 0
0 0 0
0 0 0
0 0 0
0 0 0
0 0 0
0 0 0
0 0 0
0 0 0
0 0 0
0 0 0
0 0 0
0 0 0
0 0 0
0 0 0
0 0 0
0 0 0
0 0 0
0 0 0
0 0 0
0 0 0
0 0 0
0 0 0
0 0 0
0 0 0
0 0 0
0 0 0
0 0 0
0 0 0
0 0 0
0 0 0
0 0 0
0 0 0
0 0 0
0 0 0
0 0 0
0 0 0
0 0 0
0 0 0
0 0 0
0 0 0
0 0 0
0 0 0
0 0 0
0 0 0
0 0 0
0 0 0
0 0 0
0 0 0
0 0 0
0 0 0
0 0 0
0 0 0
0 0 0
0 0 0
0 0 0
0 0 0
0 0 0
0 0 0
0 0 0
0 0 0
0 0 0
0 0 0
0 0 0
0 0 0
0 0 0
0 0 0
0 0 0
0 0 0
0 0 0
0 0 0
0 0 0
0 0 0
0 0 0
0 0 0
0 0 0
0 0 0
0 0 0
0 0 0
0 0 0
22 32 51
51 72 114
53 75 120
39 56 88
39 56 88
42 60 95
42 60 95
53 75 120
32 45 72
42 60 95
48 68 108
45 64 102
36 51 80
22 32 51
36 51 80
48 68 108
32 45 72
22 32 51
51 72 114
39 56 88
36 51 80
28 39 62
36 51 80
38 55 80
39 56 88
39 56 88
42 60 95
45 64 102
32 45 72
42 59 88
35 50 72
32 45 72
39 56 88
53 75 120
32 45 72
48 67 102
45 64 102
45 64 102
48 68 108
36 51 80
39 56 88
38 55 80
28 39 62
42 60 95
31 44 62
36 51 80
22 32 51
35 50 72
48 67 102
48 68 108
42 60 95
27 38 51
48 67 102
22 32 51
38 55 80
28 39 62
41 58 80
39 56 88
39 56 88
48 68 108
32 45 72
53 75 120
48 68 108
35 50 72
45 64 102
42 59 88
39 56 88
39 56 88
42 60 95
39 56 88
36 51 80
32 45 72
39 56 88
62 88 140
62 88 140
51 72 114
60 85 135
73 104 161
36 51 80
0 0 0
0 0 0
0 0 0
0 0 0
0 0 0
0 0 0
0 0 0
0 0 0
0 0 0
0 0 0
0 0 0
0 0 0
0 0 0
0 0 0
0 0 0
0 0 0
0 0 0
0 0 0
0 0 0
0 0 0
0 0 0
0 0 0
0 0 0
0 0 0
0 0 0
0 0 0
0 0 0
0 0 0
0 0 0
0 0 0
0 0 0
0 0 0
0 0 0
0 0 0
0 0 0
0 0 0
0 0 0
0 0 0
0 0 0
0 0 0
0 0 0
0 0 0
0 0 0
0 0 0
0 0 0
0 0 0
0 0 0
0 0 0
0 0 0
0 0 0
0 0 0
0 0 0
0 0 0
0 0 0
0 0 0
0 0 0
0 0 0
0 0 0
0 0 0
0 0 0
0 0 0
0 0 0
0 0 0
0 0 0
0 0 0
0 0 0
0 0 0
0 0 0
0 0 0
0 0 0
0 0 0
0 0 0
0 0 0
0 0 0
0 0 0
0 0 0
0 0 0
0 0 0
0 0 0
0 0 0
0 0 0
0 0 0
0 0 0
0 0 0
0 0 0
0 0 0
0 0 0
0 0 0
0 0 0
0 0 0
0 0 0
0 0 0
0 0 0
0 0 0
0 0 0
0 0 0
0 0 0
0 0 0
0 0 0
0 0 0
0 0 0
0 0 0
0 0 0
0 0 0
0 0 0
0 0 0
0 0 0
0 0 0
0 0 0
0 0 0
0 0 0
0 0 0
0 0 0
0 0 0
0 0 0
0 0 0
0 0 0
0 0 0
0 0 0
0 0 0
0 0 0
0 0 0
0 0 0
0 0 0
0 0 0
0 0 0
0 0 0
0 0 0
0 0 0
0 0 0
0 0 0
0 0 0
0 0 0
0 0 0
0 0 0
0 0 0
0 0 0
0 0 0
0 0 0
0 0 0
0 0 0
0 0 0
0 0 0
0 0 0
0 0 0
0 0 0
0 0 0
0 0 0
0 0 0
0 0 0
0 0 0
0 0 0
0 0 0
0 0 0
0 0 0
0 0 0
0 0 0
0 0 0
0 0 0
0 0 0
0 0 0
0 0 0
0 0 0
0 0 0
0 0 0
0 0 0
0 0 0
0 0 0
0 0 0
0 0 0
0 0 0
0 0 0
0 0 0
0 0 0
0 0 0
0 0 0
0 0 0
0 0 0
0 0 0
0 0 0
0 0 0
0 0 0
0 0 0
0 0 0
0 0 0
0 0 0
0 0 0
0 0 0
0 0 0
0 0 0
0 0 0
0 0 0
0 0 0
0 0 0
0 0 0
0 0 0
0 0 0
0 0 0
0 0 0
0 0 0
0 0 0
0 0 0
0 0 0
0 0 0
0 0 0
0 0 0
0 0 0
0 0 0
0 0 0
0 0 0
0 0 0
0 0 0
0 0 0
0 0 0
0 0 0
0 0 0
0 0 0
0 0 0
0 0 0
0 0 0
0 0 0
0 0 0
0 0 0
0 0 0
0 0 0
0 0 0
0 0 0
0 0 0
0 0 0
0 0 0
0 0 0
0 0 0
0 0 0
0 0 0
0 0 0
0 0 0
0 0 0
0 0 0
0 0 0
0 0 0
0 0 0
0 0 0
0 0 0
0 0 0
0 0 0
0 0 0
0 0 0
0 0 0
0 0 0
0 0 0
0 0 0
0 0 0
0 0 0
0 0 0
0 0 0
0 0 0
0 0 0
0 0 0
0 0 0
0 0 0
0 0 0
0 0 0
0 0 0
0 0 0
0 0 0
0 0 0
0 0 0
0 0 0
0 0 0
0 0 0
0 0 0
0 0 0
0 0 0
0 0 0
0 0 0
0 0 0
0 0 0
0 0 0
0 0 0
0 0 0
0 0 0
0 0 0
0 0 0
0 0 0
0 0 0
0 0 0
0 0 0
0 0 0
0 0 0
0 0 0
0 0 0
0 0 0
0 0 0
0 0 0
0 0 0
0 0 0
0 0 0
0 0 0
0 0 0
0 0 0
0 0 0
0 0 0
0 0 0
0 0 0
0 0 0
0 0 0
0 0 0
0 0 0
0 0 0
0 0 0
0 0 0
0 0 0
0 0 0
0 0 0
0 0 0
0 0 0
0 0 0
0 0 0
0 0 0
0 0 0
16 22 36
55 78 120
45 63 95
45 63 95
58 82 130
39 56 88
42 60 95
58 82 130
51 72 114
28 39 62
39 56 88
45 63 95
39 56 88
45 64 102
28 39 62
53 75 120
31 44 62
38 55 80
42 60 95
39 56 88
39 56 88
45 63 95
16 22 36
28 39 62
22 32 51
28 39 62
38 55 80
48 68 108
53 75 120
42 60 95
22 32 51
36 51 80
34 49 62
28 39 62
48 67 102
38 55 80
42 60 95
32 45 72
50 71 108
42 60 95
31 44 62
39 56 88
32 45 72
38 54 72
39 56 88
35 50 72
53 75 120
42 59 88
39 56 88
48 68 108
28 39 62
36 51 80
45 64 102
38 54 72
39 56 88
47 67 95
14 20 0
32 45 72
39 56 88
32 45 72
14 20 0
22 32 51
45 63 95
48 68 108
39 56 88
36 51 80
36 51 80
36 51 80
28 39 62
35 50 72
36 51 80
42 60 95
48 68 108
45 64 102
45 64 102
39 56 88
53 75 120
45 64 102
39 56 88
48 68 108
60 85 135
39 56 88
0 0 0
0 0 0
0 0 0
0 0 0
0 0 0
0 0 0
0 0 0
0 0 0
0 0 0
0 0 0
0 0 0
0 0 0
0 0 0
0 0 0
0 0 0
0 0 0
0 0 0
0 0 0
0 0 0
0 0 0
0 0 0
0 0 0
0 0 0
0 0 0
0 0 0
0 0 0
0 0 0
0 0 0
0 0 0
0 0 0
0 0 0
0 0 0
0 0 0
0 0 0
0 0 0
0 0 0
0 0 0
0 0 0
0 0 0
0 0 0
0 0 0
0 0 0
0 0 0
0 0 0
0 0 0
0 0 0
0 0 0
0 0 0
0 0 0
0 0 0
0 0 0
0 0 0
0 0 0
0 0 0
0 0 0
0 0 0
0 0 0
0 0 0
0 0 0
0 0 0
0 0 0
0 0 0
0 0 0
0 0 0
0 0 0
0 0 0
0 0 0
0 0 0
0 0 0
0 0 0
0 0 0
0 0 0
0 0 0
0 0 0
0 0 0
0 0 0
0 0 0
0 0 0
0 0 0
0 0 0
0 0 0
0 0 0
0 0 0
0 0 0
0 0 0
0 0 0
0 0 0
0 0 0
0 0 0
0 0 0
0 0 0
0 0 0
0 0 0
0 0 0
0 0 0
0 0 0
0 0 0
0 0 0
0 0 0
0 0 0
0 0 0
0 0 0
0 0 0
0 0 0
0 0 0
0 0 0
0 0 0
0 0 0
0 0 0
0 0 0
0 0 0
0 0 0
0 0 0
0 0 0
0 0 0
0 0 0
0 0 0
0 0 0
0 0 0
0 0 0
0 0 0
0 0 0
0 0 0
0 0 0
0 0 0
0 0 0
0 0 0
0 0 0
0 0 0
0 0 0
0 0 0
0 0 0
0 0 0
0 0 0
0 0 0
0 0 0
0 0 0
0 0 0
0 0 0
0 0 0
0 0 0
0 0 0
0 0 0
0 0 0
0 0 0
0 0 0
0 0 0
0 0 0
0 0 0
0 0 0
0 0 0
0 0 0
0 0 0
0 0 0
0 0 0
0 0 0
0 0 0
0 0 0
0 0 0
0 0 0
0 0 0
0 0 0
0 0 0
0 0 0
0 0 0
0 0 0
0 0 0
0 0 0
0 0 0
0 0 0
0 0 0
0 0 0
0 0 0
0 0 0
0 0 0
0 0 0
0 0 0
0 0 0
0 0 0
0 0 0
0 0 0
0 0 0
0 0 0
0 0 0
0 0 0
0 0 0
0 0 0
0 0 0
0 0 0
0 0 0
0 0 0
0 0 0
0 0 0
0 0 0
0 0 0
0 0 0
0 0 0
0 0 0
0 0 0
0 0 0
0 0 0
0 0 0
0 0 0
0 0 0
0 0 0
0 0 0
0 0 0
0 0 0
0 0 0
0 0 0
0 0 0
0 0 0
0 0 0
0 0 0
0 0 0
0 0 0
0 0 0
0 0 0
0 0 0
0 0 0
0 0 0
0 0 0
0 0 0
0 0 0
0 0 0
0 0 0
0 0 0
0 0 0
0 0 0
0 0 0
0 0 0
0 0 0
0 0 0
0 0 0
0 0 0
0 0 0
0 0 0
0 0 0
0 0 0
0 0 0
0 0 0
0 0 0
0 0 0
0 0 0
0 0 0
0 0 0
0 0 0
0 0 0
0 0 0
0 0 0
0 0 0
0 0 0
0 0 0
0 0 0
0 0 0
0 0 0
0 0 0
0 0 0
0 0 0
0 0 0
0 0 0
0 0 0
0 0 0
0 0 0
0 0 0
0 0 0
0 0 0
0 0 0
0 0 0
0 0 0
0 0 0
0 0 0
0 0 0
0 0 0
0 0 0
0 0 0
0 0 0
0 0 0
0 0 0
0 0 0
0 0 0
0 0 0
0 0 0
0 0 0
0 0 0
0 0 0
0 0 0
0 0 0
0 0 0
0 0 0
0 0 0
0 0 0
0 0 0
0 0 0
0 0 0
0 0 0
0 0 0
0 0 0
0 0 0
0 0 0
0 0 0
0 0 0
0 0 0
0 0 0
0 0 0
0 0 0
0 0 0
0 0 0
0 0 0
0 0 0
0 0 0
0 0 0
0 0 0
0 0 0
0 0 0
0 0 0
0 0 0
28 39 62
56 79 125
39 56 88
36 51 80
36 51 80
39 56 88
36 51 80
53 75 120
16 22 36
42 60 95
39 56 88
39 56 88
32 45 72
22 32 51
28 39 62
48 68 108
28 39 62
16 22 36
48 68 108
36 51 80
32 45 72
28 39 62
36 51 80
36 51 80
36 51 80
36 51 80
39 56 88
42 60 95
28 39 62
38 55 80
31 44 62
28 39 62
48 68 108
39 56 88
36 51 80
38 55 80
42 60 95
32 45 72
45 64 102
22 32 51
39 56 88
35 50 72
28 39 62
39 56 88
21 30 36
22 32 51
32 46 72
28 39 62
38 55 80
45 64 102
31 44 62
42 59 88
27 38 51
31 44 62
28 39 62
14 20 0
28 39 62
39 56 88
32 45 72
48 68 108
28 39 62
32 45 72
28 39 62
42 59 88
22 32 51
41 58 80
32 45 72
42 60 95
36 51 80
39 56 88
32 45 72
22 32 51
48 68 108
39 56 88
32 45 72
64 91 144
56 79 125
38 55 80
32 45 72
56 79 125
48 68 108
42 60 95
56 79 125
39 56 88
0 0 0
0 0 0
0 0 0
0 0 0
0 0 0
0 0 0
0 0 0
0 0 0
0 0 0
0 0 0
0 0 0
0 0 0
0 0 0
0 0 0
0 0 0
0 0 0
0 0 0
0 0 0
0 0 0
0 0 0
0 0 0
0 0 0
0 0 0
0 0 0
0 0 0
0 0 0
0 0 0
0 0 0
0 0 0
0 0 0
0 0 0
0 0 0
0 0 0
0 0 0
0 0 0
0 0 0
0 0 0
0 0 0
0 0 0
0 0 0
0 0 0
0 0 0
0 0 0
0 0 0
0 0 0
0 0 0
0 0 0
0 0 0
0 0 0
0 0 0
0 0 0
0 0 0
0 0 0
0 0 0
0 0 0
0 0 0
0 0 0
0 0 0
0 0 0
0 0 0
0 0 0
0 0 0
0 0 0
0 0 0
0 0 0
0 0 0
0 0 0
0 0 0
0 0 0
0 0 0
0 0 0
0 0 0
0 0 0
0 0 0
0 0 0
0 0 0
0 0 0
0 0 0
0 0 0
0 0 0
0 0 0
0 0 0
0 0 0
0 0 0
0 0 0
0 0 0
0 0 0
0 0 0
0 0 0
0 0 0
0 0 0
0 0 0
0 0 0
0 0 0
0 0 0
0 0 0
0 0 0
0 0 0
0 0 0
0 0 0
0 0 0
0 0 0
0 0 0
0 0 0
0 0 0
0 0 0
0 0 0
0 0 0
0 0 0
0 0 0
0 0 0
0 0 0
0 0 0
0 0 0
0 0 0
0 0 0
0 0 0
0 0 0
0 0 0
0 0 0
0 0 0
0 0 0
0 0 0
0 0 0
0 0 0
0 0 0
0 0 0
0 0 0
0 0 0
0 0 0
0 0 0
0 0 0
0 0 0
0 0 0
0 0 0
0 0 0
0 0 0
0 0 0
0 0 0
0 0 0
0 0 0
0 0 0
0 0 0
0 0 0
0 0 0
0 0 0
0 0 0
0 0 0
0 0 0
0 0 0
0 0 0
0 0 0
0 0 0
0 0 0
0 0 0
0 0 0
0 0 0
0 0 0
0 0 0
0 0 0
0 0 0
0 0 0
0 0 0
0 0 0
0 0 0
0 0 0
0 0 0
0 0 0
0 0 0
0 0 0
0 0 0
0 0 0
0 0 0
0 0 0
0 0 0
0 0 0
0 0 0
0 0 0
0 0 0
0 0 0
0 0 0
0 0 0
0 0 0
0 0 0
0 0 0
0 0 0
0 0 0
0 0 0
0 0 0
0 0 0
0 0 0
0 0 0
0 0 0
0 0 0
0 0 0
0 0 0
0 0 0
0 0 0
0 0 0
0 0 0
0 0 0
0 0 0
0 0 0
0 0 0
0 0 0
0 0 0
0 0 0
0 0 0
0 0 0
0 0 0
0 0 0
0 0 0
0 0 0
0 0 0
0 0 0
0 0 0
0 0 0
0 0 0
0 0 0
0 0 0
0 0 0
0 0 0
0 0 0
0 0 0
0 0 0
0 0 0
0 0 0
0 0 0
0 0 0
0 0 0
0 0 0
0 0 0
0 0 0
0 0 0
0 0 0
0 0 0
0 0 0
0 0 0
0 0 0
0 0 0
0 0 0
0 0 0
0 0 0
0 0 0
0 0 0
0 0 0
0 0 0
0 0 0
0 0 0
0 0 0
0 0 0
0 0 0
0 0 0
0 0 0
0 0 0
0 0 0
0 0 0
0 0 0
0 0 0
0 0 0
0 0 0
0 0 0
0 0 0
0 0 0
0 0 0
0 0 0
0 0 0
0 0 0
0 0 0
0 0 0
0 0 0
0 0 0
0 0 0
0 0 0
0 0 0
0 0 0
0 0 0
0 0 0
0 0 0
0 0 0
0 0 0
0 0 0
0 0 0
0 0 0
0 0 0
0 0 0
0 0 0
0 0 0
0 0 0
0 0 0
0 0 0
0 0 0
0 0 0
0 0 0
0 0 0
0 0 0
0 0 0
0 0 0
0 0 0
0 0 0
0 0 0
0 0 0
0 0 0
0 0 0
0 0 0
0 0 0
0 0 0
0 0 0
0 0 0
0 0 0
0 0 0
0 0 0
0 0 0
0 0 0
0 0 0
32 45 72
51 72 114
58 82 130
55 78 120
32 45 72
28 39 62
38 54 72
32 45 72
45 64 102
32 45 72
39 56 88
48 67 102
38 55 80
32 45 72
36 51 80
42 60 95
42 59 88
35 50 72
16 22 36
28 39 62
22 32 51
35 50 72
42 60 95
42 60 95
22 32 51
28 39 62
39 56 88
34 49 62
32 45 72
42 59 88
34 49 62
32 45 72
32 45 72
32 45 72
42 60 95
28 39 62
31 44 62
36 51 80
30 43 51
22 32 51
27 38 51
51 72 114
45 63 95
31 44 62
48 68 108
36 51 80
35 50 72
32 45 72
30 43 51
28 39 62
50 70 102
21 30 36
28 39 62
35 50 72
32 45 72
27 38 51
28 39 62
32 45 72
48 68 108
36 51 80
36 51 80
22 32 51
32 45 72
39 56 88
22 32 51
32 45 72
32 45 72
45 64 102
36 51 80
38 54 72
50 71 108
48 68 108
42 60 95
30 43 51
36 51 80
39 56 88
28 39 62
45 64 102
60 85 135
51 72 114
28 39 62
28 39 62
36 51 80
45 64 102
32 45 72
48 68 108
0 0 0
0 0 0
0 0 0
0 0 0
0 0 0
0 0 0
0 0 0
0 0 0
0 0 0
0 0 0
0 0 0
0 0 0
0 0 0
0 0 0
0 0 0
0 0 0
0 0 0
0 0 0
0 0 0
0 0 0
0 0 0
0 0 0
0 0 0
0 0 0
0 0 0
0 0 0
0 0 0
0 0 0
0 0 0
0 0 0
0 0 0
0 0 0
0 0 0
0 0 0
0 0 0
0 0 0
0 0 0
0 0 0
0 0 0
0 0 0
0 0 0
0 0 0
0 0 0
0 0 0
0 0 0
0 0 0
0 0 0
0 0 0
0 0 0
0 0 0
0 0 0
0 0 0
0 0 0
0 0 0
0 0 0
0 0 0
0 0 0
0 0 0
0 0 0
0 0 0
0 0 0
0 0 0
0 0 0
0 0 0
0 0 0
0 0 0
0 0 0
0 0 0
0 0 0
0 0 0
0 0 0
0 0 0
0 0 0
0 0 0
0 0 0
0 0 0
0 0 0
0 0 0
0 0 0
0 0 0
0 0 0
0 0 0
0 0 0
0 0 0
0 0 0
0 0 0
0 0 0
0 0 0
0 0 0
0 0 0
0 0 0
0 0 0
0 0 0
0 0 0
0 0 0
0 0 0
0 0 0
0 0 0
0 0 0
0 0 0
0 0 0
0 0 0
0 0 0
0 0 0
0 0 0
0 0 0
0 0 0
0 0 0
0 0 0
0 0 0
0 0 0
0 0 0
0 0 0
0 0 0
0 0 0
0 0 0
0 0 0
0 0 0
0 0 0
0 0 0
0 0 0
0 0 0
0 0 0
0 0 0
0 0 0
0 0 0
0 0 0
0 0 0
0 0 0
0 0 0
0 0 0
0 0 0
0 0 0
0 0 0
0 0 0
0 0 0
0 0 0
0 0 0
0 0 0
0 0 0
0 0 0
0 0 0
0 0 0
0 0 0
0 0 0
0 0 0
0 0 0
0 0 0
0 0 0
0 0 0
0 0 0
0 0 0
0 0 0
0 0 0
0 0 0
0 0 0
0 0 0
0 0 0
0 0 0
0 0 0
0 0 0
0 0 0
0 0 0
0 0 0
0 0 0
0 0 0
0 0 0
0 0 0
0 0 0
0 0 0
0 0 0
0 0 0
0 0 0
0 0 0
0 0 0
0 0 0
0 0 0
0 0 0
0 0 0
0 0 0
0 0 0
0 0 0
0 0 0
0 0 0
0 0 0
0 0 0
0 0 0
0 0 0
0 0 0
0 0 0
0 0 0
0 0 0
0 0 0
0 0 0
0 0 0
0 0 0
0 0 0
0 0 0
0 0 0
0 0 0
0 0 0
0 0 0
0 0 0
0 0 0
0 0 0
0 0 0
0 0 0
0 0 0
0 0 0
0 0 0
0 0 0
0 0 0
0 0 0
0 0 0
0 0 0
0 0 0
0 0 0
0 0 0
0 0 0
0 0 0
0 0 0
0 0 0
0 0 0
0 0 0
0 0 0
0 0 0
0 0 0
0 0 0
0 0 0
0 0 0
0 0 0
0 0 0
0 0 0
0 0 0
0 0 0
0 0 0
0 0 0
0 0 0
0 0 0
0 0 0
0 0 0
0 0 0
0 0 0
0 0 0
0 0 0
0 0 0
0 0 0
0 0 0
0 0 0
0 0 0
0 0 0
0 0 0
0 0 0
0 0 0
0 0 0
0 0 0
0 0 0
0 0 0
0 0 0
0 0 0
0 0 0
0 0 0
0 0 0
0 0 0
0 0 0
0 0 0
0 0 0
0 0 0
0 0 0
0 0 0
0 0 0
0 0 0
0 0 0
0 0 0
0 0 0
0 0 0
0 0 0
0 0 0
0 0 0
0 0 0
0 0 0
0 0 0
0 0 0
0 0 0
0 0 0
0 0 0
0 0 0
0 0 0
0 0 0
0 0 0
0 0 0
0 0 0
0 0 0
0 0 0
0 0 0
0 0 0
0 0 0
0 0 0
0 0 0
0 0 0
0 0 0
0 0 0
0 0 0
0 0 0
0 0 0
0 0 0
0 0 0
0 0 0
0 0 0
0 0 0
0 0 0
0 0 0
0 0 0
28 39 62
39 56 88
51 72 114
28 39 62
39 56 88
36 51 80
36 51 80
51 72 114
16 22 36
39 56 88
42 60 95
39 56 88
28 39 62
22 32 51
22 32 51
45 64 102
16 22 36
22 32 51
48 68 108
28 39 62
32 45 72
22 32 51
32 45 72
32 45 72
36 51 80
32 45 72
36 51 80
39 56 88
28 39 62
21 30 36
27 38 51
31 44 62
45 64 102
39 56 88
45 63 95
36 51 80
36 51 80
39 56 88
32 45 72
22 32 51
39 56 88
31 44 62
27 38 51
35 50 72
16 22 36
16 22 36
32 45 72
16 22 36
28 39 62
39 56 88
35 50 72
35 50 72
22 32 51
32 45 72
22 32 51
21 30 36
28 39 62
28 39 62
36 51 80
36 51 80
39 56 88
22 32 51
31 44 62
32 45 72
27 38 51
38 55 80
42 60 95
22 32 51
36 51 80
28 39 62
28 39 62
36 51 80
39 56 88
42 59 88
42 60 95
51 72 114
39 56 88
16 22 36
36 51 80
36 51 80
42 60 95
45 64 102
48 67 102
22 32 51
53 75 120
45 64 102
36 51 80
36 51 80
0 0 0
0 0 0
0 0 0
0 0 0
0 0 0
0 0 0
0 0 0
0 0 0
0 0 0
0 0 0
0 0 0
0 0 0
0 0 0
0 0 0
0 0 0
0 0 0
0 0 0
0 0 0
0 0 0
0 0 0
0 0 0
0 0 0
0 0 0
0 0 0
0 0 0
0 0 0
0 0 0
0 0 0
0 0 0
0 0 0
0 0 0
0 0 0
0 0 0
0 0 0
0 0 0
0 0 0
0 0 0
0 0 0
0 0 0
0 0 0
0 0 0
0 0 0
0 0 0
0 0 0
0 0 0
0 0 0
0 0 0
0 0 0
0 0 0
0 0 0
0 0 0
0 0 0
0 0 0
0 0 0
0 0 0
0 0 0
0 0 0
0 0 0
0 0 0
0 0 0
0 0 0
0 0 0
0 0 0
0 0 0
0 0 0
0 0 0
0 0 0
0 0 0
0 0 0
0 0 0
0 0 0
0 0 0
0 0 0
0 0 0
0 0 0
0 0 0
0 0 0
0 0 0
0 0 0
0 0 0
0 0 0
0 0 0
0 0 0
0 0 0
0 0 0
0 0 0
0 0 0
0 0 0
0 0 0
0 0 0
0 0 0
0 0 0
0 0 0
0 0 0
0 0 0
0 0 0
0 0 0
0 0 0
0 0 0
0 0 0
0 0 0
0 0 0
0 0 0
0 0 0
0 0 0
0 0 0
0 0 0
0 0 0
0 0 0
0 0 0
0 0 0
0 0 0
0 0 0
0 0 0
0 0 0
0 0 0
0 0 0
0 0 0
0 0 0
0 0 0
0 0 0
0 0 0
0 0 0
0 0 0
0 0 0
0 0 0
0 0 0
0 0 0
0 0 0
0 0 0
0 0 0
0 0 0
0 0 0
0 0 0
0 0 0
0 0 0
0 0 0
0 0 0
0 0 0
0 0 0
0 0 0
0 0 0
0 0 0
0 0 0
0 0 0
0 0 0
0 0 0
0 0 0
0 0 0
0 0 0
0 0 0
0 0 0
0 0 0
0 0 0
0 0 0
0 0 0
0 0 0
0 0 0
0 0 0
0 0 0
0 0 0
0 0 0
0 0 0
0 0 0
0 0 0
0 0 0
0 0 0
0 0 0
0 0 0
0 0 0
0 0 0
0 0 0
0 0 0
0 0 0
0 0 0
0 0 0
0 0 0
0 0 0
0 0 0
0 0 0
0 0 0
0 0 0
0 0 0
0 0 0
0 0 0
0 0 0
0 0 0
0 0 0
0 0 0
0 0 0
0 0 0
0 0 0
0 0 0
0 0 0
0 0 0
0 0 0
0 0 0
0 0 0
0 0 0
0 0 0
0 0 0
0 0 0
0 0 0
0 0 0
0 0 0
0 0 0
0 0 0
0 0 0
0 0 0
0 0 0
0 0 0
0 0 0
0 0 0
0 0 0
0 0 0
0 0 0
0 0 0
0 0 0
0 0 0
0 0 0
0 0 0
0 0 0
0 0 0
0 0 0
0 0 0
0 0 0
0 0 0
0 0 0
0 0 0
0 0 0
0 0 0
0 0 0
0 0 0
0 0 0
0 0 0
0 0 0
0 0 0
0 0 0
0 0 0
0 0 0
0 0 0
0 0 0
0 0 0
0 0 0
0 0 0
0 0 0
0 0 0
0 0 0
0 0 0
0 0 0
0 0 0
0 0 0
0 0 0
0 0 0
0 0 0
0 0 0
0 0 0
0 0 0
0 0 0
0 0 0
0 0 0
0 0 0
0 0 0
0 0 0
0 0 0
0 0 0
0 0 0
0 0 0
0 0 0
0 0 0
0 0 0
0 0 0
0 0 0
0 0 0
0 0 0
0 0 0
0 0 0
0 0 0
0 0 0
0 0 0
0 0 0
0 0 0
0 0 0
0 0 0
0 0 0
0 0 0
0 0 0
0 0 0
0 0 0
0 0 0
0 0 0
0 0 0
0 0 0
0 0 0
0 0 0
0 0 0
0 0 0
0 0 0
0 0 0
0 0 0
0 0 0
0 0 0
0 0 0
0 0 0
0 0 0
0 0 0
0 0 0
0 0 0
0 0 0
0 0 0
0 0 0
21 30 36
45 64 102
38 54 72
48 68 108
39 56 88
36 51 80
48 68 108
28 39 62
27 38 51
36 51 80
39 56 88
22 32 51
41 58 80
27 38 51
32 45 72
16 22 36
42 60 95
32 46 72
32 45 72
36 51 80
36 51 80
42 60 95
27 38 51
35 50 72
39 56 88
41 58 80
38 54 72
32 45 72
39 56 88
32 45 72
27 38 51
50 71 108
0 0 0
32 45 72
28 39 62
22 32 51
45 64 102
22 32 51
31 44 62
36 51 80
32 45 72
41 58 80
39 56 88
26 36 36
22 32 51
32 45 72
33 48 51
28 39 62
28 39 62
39 56 88
21 30 36
22 32 51
22 32 51
36 51 80
32 45 72
38 55 80
28 39 62
28 39 62
36 51 80
31 44 62
32 45 72
32 45 72
39 56 88
22 32 51
35 50 72
47 67 95
51 72 114
39 56 88
38 55 80
28 39 62
31 44 62
22 32 51
50 70 102
45 63 95
32 45 72
27 38 51
22 32 51
45 64 102
28 39 62
36 51 80
35 50 72
39 56 88
45 63 95
41 58 80
45 64 102
32 45 72
39 56 88
48 68 108
42 60 95
42 60 95
0 0 0
0 0 0
0 0 0
0 0 0
0 0 0
0 0 0
0 0 0
0 0 0
0 0 0
0 0 0
0 0 0
0 0 0
0 0 0
0 0 0
0 0 0
0 0 0
0 0 0
0 0 0
0 0 0
0 0 0
0 0 0
0 0 0
0 0 0
0 0 0
0 0 0
0 0 0
0 0 0
0 0 0
0 0 0
0 0 0
0 0 0
0 0 0
0 0 0
0 0 0
0 0 0
0 0 0
0 0 0
0 0 0
0 0 0
0 0 0
0 0 0
0 0 0
0 0 0
0 0 0
0 0 0
0 0 0
0 0 0
0 0 0
0 0 0
0 0 0
0 0 0
0 0 0
0 0 0
0 0 0
0 0 0
0 0 0
0 0 0
0 0 0
0 0 0
0 0 0
0 0 0
0 0 0
0 0 0
0 0 0
0 0 0
0 0 0
0 0 0
0 0 0
0 0 0
0 0 0
0 0 0
0 0 0
0 0 0
0 0 0
0 0 0
0 0 0
0 0 0
0 0 0
0 0 0
0 0 0
0 0 0
0 0 0
0 0 0
0 0 0
0 0 0
0 0 0
0 0 0
0 0 0
0 0 0
0 0 0
0 0 0
0 0 0
0 0 0
0 0 0
0 0 0
0 0 0
0 0 0
0 0 0
0 0 0
0 0 0
0 0 0
0 0 0
0 0 0
0 0 0
0 0 0
0 0 0
0 0 0
0 0 0
0 0 0
0 0 0
0 0 0
0 0 0
0 0 0
0 0 0
0 0 0
0 0 0
0 0 0
0 0 0
0 0 0
0 0 0
0 0 0
0 0 0
0 0 0
0 0 0
0 0 0
0 0 0
0 0 0
0 0 0
0 0 0
0 0 0
0 0 0
0 0 0
0 0 0
0 0 0
0 0 0
0 0 0
0 0 0
0 0 0
0 0 0
0 0 0
0 0 0
0 0 0
0 0 0
0 0 0
0 0 0
0 0 0
0 0 0
0 0 0
0 0 0
0 0 0
0 0 0
0 0 0
0 0 0
0 0 0
0 0 0
0 0 0
0 0 0
0 0 0
0 0 0
0 0 0
0 0 0
0 0 0
0 0 0
0 0 0
0 0 0
0 0 0
0 0 0
0 0 0
0 0 0
0 0 0
0 0 0
0 0 0
0 0 0
0 0 0
0 0 0
0 0 0
0 0 0
0 0 0
0 0 0
0 0 0
0 0 0
0 0 0
0 0 0
0 0 0
0 0 0
0 0 0
0 0 0
0 0 0
0 0 0
0 0 0
0 0 0
0 0 0
0 0 0
0 0 0
0 0 0
0 0 0
0 0 0
0 0 0
0 0 0
0 0 0
0 0 0
0 0 0
0 0 0
0 0 0
0 0 0
0 0 0
0 0 0
0 0 0
0 0 0
0 0 0
0 0 0
0 0 0
0 0 0
0 0 0
0 0 0
0 0 0
0 0 0
0 0 0
0 0 0
0 0 0
0 0 0
0 0 0
0 0 0
0 0 0
0 0 0
0 0 0
0 0 0
0 0 0
0 0 0
0 0 0
0 0 0
0 0 0
0 0 0
0 0 0
0 0 0
0 0 0
0 0 0
0 0 0
0 0 0
0 0 0
0 0 0
0 0 0
0 0 0
0 0 0
0 0 0
0 0 0
0 0 0
0 0 0
0 0 0
0 0 0
0 0 0
0 0 0
0 0 0
0 0 0
0 0 0
0 0 0
0 0 0
0 0 0
0 0 0
0 0 0
0 0 0
0 0 0
0 0 0
0 0 0
0 0 0
0 0 0
0 0 0
0 0 0
0 0 0
0 0 0
0 0 0
0 0 0
0 0 0
0 0 0
0 0 0
0 0 0
0 0 0
0 0 0
0 0 0
0 0 0
0 0 0
0 0 0
0 0 0
0 0 0
0 0 0
0 0 0
0 0 0
0 0 0
0 0 0
0 0 0
0 0 0
0 0 0
0 0 0
0 0 0
0 0 0
0 0 0
0 0 0
0 0 0
0 0 0
0 0 0
0 0 0
0 0 0
0 0 0
0 0 0
0 0 0
0 0 0
0 0 0
0 0 0
0 0 0
28 39 62
36 51 80
36 51 80
42 60 95
32 45 72
39 56 88
16 22 36
39 56 88
22 32 51
32 45 72
39 56 88
39 56 88
22 32 51
28 39 62
16 22 36
42 60 95
16 22 36
30 43 51
45 64 102
32 45 72
32 45 72
16 22 36
32 45 72
16 22 36
32 45 72
22 32 51
28 39 62
36 51 80
35 50 72
21 30 36
27 38 51
27 38 51
45 64 102
39 56 88
38 55 80
28 39 62
28 39 62
39 56 88
32 45 72
0 0 0
32 45 72
31 44 62
34 49 62
31 44 62
0 0 0
21 30 36
32 45 72
16 22 36
36 51 80
32 45 72
31 44 62
42 59 88
22 32 51
32 45 72
0 0 0
27 38 51
36 51 80
22 32 51
39 56 88
22 32 51
42 59 88
16 22 36
21 30 36
36 51 80
27 38 51
34 49 62
36 51 80
32 45 72
0 0 0
22 32 51
32 45 72
36 51 80
50 71 108
27 38 51
48 68 108
39 56 88
32 45 72
28 39 62
28 39 62
36 51 80
32 45 72
48 67 102
22 32 51
22 32 51
42 59 88
42 60 95
39 56 88
36 51 80
39 56 88
45 63 95
42 60 95
45 64 102
0 0 0
0 0 0
0 0 0
0 0 0
0 0 0
0 0 0
0 0 0
0 0 0
0 0 0
0 0 0
0 0 0
0 0 0
0 0 0
0 0 0
0 0 0
0 0 0
0 0 0
0 0 0
0 0 0
0 0 0
0 0 0
0 0 0
0 0 0
0 0 0
0 0 0
0 0 0
0 0 0
0 0 0
0 0 0
0 0 0
0 0 0
0 0 0
0 0 0
0 0 0
0 0 0
0 0 0
0 0 0
0 0 0
0 0 0
0 0 0
0 0 0
0 0 0
0 0 0
0 0 0
0 0 0
0 0 0
0 0 0
0 0 0
0 0 0
0 0 0
0 0 0
0 0 0
0 0 0
0 0 0
0 0 0
0 0 0
0 0 0
0 0 0
0 0 0
0 0 0
0 0 0
0 0 0
0 0 0
0 0 0
0 0 0
0 0 0
0 0 0
0 0 0
0 0 0
0 0 0
0 0 0
0 0 0
0 0 0
0 0 0
0 0 0
0 0 0
0 0 0
0 0 0
0 0 0
0 0 0
0 0 0
0 0 0
0 0 0
0 0 0
0 0 0
0 0 0
0 0 0
0 0 0
0 0 0
0 0 0
0 0 0
0 0 0
0 0 0
0 0 0
0 0 0
0 0 0
0 0 0
0 0 0
0 0 0
0 0 0
0 0 0
0 0 0
0 0 0
0 0 0
0 0 0
0 0 0
0 0 0
0 0 0
0 0 0
0 0 0
0 0 0
0 0 0
0 0 0
0 0 0
0 0 0
0 0 0
0 0 0
0 0 0
0 0 0
0 0 0
0 0 0
0 0 0
0 0 0
0 0 0
0 0 0
0 0 0
0 0 0
0 0 0
0 0 0
0 0 0
0 0 0
0 0 0
0 0 0
0 0 0
0 0 0
0 0 0
0 0 0
0 0 0
0 0 0
0 0 0
0 0 0
0 0 0
0 0 0
0 0 0
0 0 0
0 0 0
0 0 0
0 0 0
0 0 0
0 0 0
0 0 0
0 0 0
0 0 0
0 0 0
0 0 0
0 0 0
0 0 0
0 0 0
0 0 0
0 0 0
0 0 0
0 0 0
0 0 0
0 0 0
0 0 0
0 0 0
0 0 0
0 0 0
0 0 0
0 0 0
0 0 0
0 0 0
0 0 0
0 0 0
0 0 0
0 0 0
0 0 0
0 0 0
0 0 0
0 0 0
0 0 0
0 0 0
0 0 0
0 0 0
0 0 0
0 0 0
0 0 0
0 0 0
0 0 0
0 0 0
0 0 0
0 0 0
0 0 0
0 0 0
0 0 0
0 0 0
0 0 0
0 0 0
0 0 0
0 0 0
0 0 0
0 0 0
0 0 0
0 0 0
0 0 0
0 0 0
0 0 0
0 0 0
0 0 0
0 0 0
0 0 0
0 0 0
0 0 0
0 0 0
0 0 0
0 0 0
0 0 0
0 0 0
0 0 0
0 0 0
0 0 0
0 0 0
0 0 0
0 0 0
0 0 0
0 0 0
0 0 0
0 0 0
0 0 0
0 0 0
0 0 0
0 0 0
0 0 0
0 0 0
0 0 0
0 0 0
0 0 0
0 0 0
0 0 0
0 0 0
0 0 0
0 0 0
0 0 0
0 0 0
0 0 0
0 0 0
0 0 0
0 0 0
0 0 0
0 0 0
0 0 0
0 0 0
0 0 0
0 0 0
0 0 0
0 0 0
0 0 0
0 0 0
0 0 0
0 0 0
0 0 0
0 0 0
0 0 0
0 0 0
0 0 0
0 0 0
0 0 0
0 0 0
0 0 0
0 0 0
0 0 0
0 0 0
0 0 0
0 0 0
0 0 0
0 0 0
0 0 0
0 0 0
0 0 0
0 0 0
0 0 0
0 0 0
0 0 0
0 0 0
0 0 0
0 0 0
0 0 0
0 0 0
0 0 0
0 0 0
0 0 0
0 0 0
0 0 0
0 0 0
0 0 0
0 0 0
0 0 0
0 0 0
0 0 0
0 0 0
0 0 0
0 0 0
0 0 0
0 0 0
0 0 0
0 0 0
0 0 0
45 64 102
36 51 80
42 60 95
38 55 80
16 22 36
36 51 80
31 44 62
22 32 51
35 50 72
28 39 62
31 44 62
16 22 36
36 51 80
31 44 62
31 44 62
32 45 72
36 51 80
28 39 62
35 50 72
31 44 62
32 45 72
47 67 95
38 54 72
22 32 51
32 45 72
28 39 62
31 44 62
35 50 72
28 39 62
36 51 80
28 39 62
16 22 36
36 51 80
32 45 72
31 44 62
22 32 51
31 44 62
41 58 80
36 51 80
26 36 36
16 24 36
32 45 72
29 42 36
22 32 51
22 32 51
42 60 95
27 38 51
16 22 36
22 32 51
39 56 88
23 33 51
35 50 72
32 45 72
31 44 62
28 39 62
21 30 36
32 45 72
32 45 72
36 51 80
0 0 0
31 44 62
42 60 95
45 64 102
32 45 72
35 50 72
22 32 51
22 32 51
34 49 62
36 51 80
36 51 80
22 32 51
27 38 51
32 45 72
48 68 108
16 22 36
31 44 62
36 51 80
39 56 88
44 63 88
42 59 88
32 45 72
32 45 72
32 45 72
32 45 72
22 32 51
38 55 80
28 39 62
45 63 95
45 64 102
48 67 102
42 60 95
45 64 102
36 51 80
28 39 62
0 0 0
0 0 0
0 0 0
0 0 0
0 0 0
0 0 0
0 0 0
0 0 0
0 0 0
0 0 0
0 0 0
0 0 0
0 0 0
0 0 0
0 0 0
0 0 0
0 0 0
0 0 0
0 0 0
0 0 0
0 0 0
0 0 0
0 0 0
0 0 0
0 0 0
0 0 0
0 0 0
0 0 0
0 0 0
0 0 0
0 0 0
0 0 0
0 0 0
0 0 0
0 0 0
0 0 0
0 0 0
0 0 0
0 0 0
0 0 0
0 0 0
0 0 0
0 0 0
0 0 0
0 0 0
0 0 0
0 0 0
0 0 0
0 0 0
0 0 0
0 0 0
0 0 0
0 0 0
0 0 0
0 0 0
0 0 0
0 0 0
0 0 0
0 0 0
0 0 0
0 0 0
0 0 0
0 0 0
0 0 0
0 0 0
0 0 0
0 0 0
0 0 0
0 0 0
0 0 0
0 0 0
0 0 0
0 0 0
0 0 0
0 0 0
0 0 0
0 0 0
0 0 0
0 0 0
0 0 0
0 0 0
0 0 0
0 0 0
0 0 0
0 0 0
0 0 0
0 0 0
0 0 0
0 0 0
0 0 0
0 0 0
0 0 0
0 0 0
0 0 0
0 0 0
0 0 0
0 0 0
0 0 0
0 0 0
0 0 0
0 0 0
0 0 0
0 0 0
0 0 0
0 0 0
0 0 0
0 0 0
0 0 0
0 0 0
0 0 0
0 0 0
0 0 0
0 0 0
0 0 0
0 0 0
0 0 0
0 0 0
0 0 0
0 0 0
0 0 0
0 0 0
0 0 0
0 0 0
0 0 0
0 0 0
0 0 0
0 0 0
0 0 0
0 0 0
0 0 0
0 0 0
0 0 0
0 0 0
0 0 0
0 0 0
0 0 0
0 0 0
0 0 0
0 0 0
0 0 0
0 0 0
0 0 0
0 0 0
0 0 0
0 0 0
0 0 0
0 0 0
0 0 0
0 0 0
0 0 0
0 0 0
0 0 0
0 0 0
0 0 0
0 0 0
0 0 0
0 0 0
0 0 0
0 0 0
0 0 0
0 0 0
0 0 0
0 0 0
0 0 0
0 0 0
0 0 0
0 0 0
0 0 0
0 0 0
0 0 0
0 0 0
0 0 0
0 0 0
0 0 0
0 0 0
0 0 0
0 0 0
0 0 0
0 0 0
0 0 0
0 0 0
0 0 0
0 0 0
0 0 0
0 0 0
0 0 0
0 0 0
0 0 0
0 0 0
0 0 0
0 0 0
0 0 0
0 0 0
0 0 0
0 0 0
0 0 0
0 0 0
0 0 0
0 0 0
0 0 0
0 0 0
0 0 0
0 0 0
0 0 0
0 0 0
0 0 0
0 0 0
0 0 0
0 0 0
0 0 0
0 0 0
0 0 0
0 0 0
0 0 0
0 0 0
0 0 0
0 0 0
0 0 0
0 0 0
0 0 0
0 0 0
0 0 0
0 0 0
0 0 0
0 0 0
0 0 0
0 0 0
0 0 0
0 0 0
0 0 0
0 0 0
0 0 0
0 0 0
0 0 0
0 0 0
0 0 0
0 0 0
0 0 0
0 0 0
0 0 0
0 0 0
0 0 0
0 0 0
0 0 0
0 0 0
0 0 0
0 0 0
0 0 0
0 0 0
0 0 0
0 0 0
0 0 0
0 0 0
0 0 0
0 0 0
0 0 0
0 0 0
0 0 0
0 0 0
0 0 0
0 0 0
0 0 0
0 0 0
0 0 0
0 0 0
0 0 0
0 0 0
0 0 0
0 0 0
0 0 0
0 0 0
0 0 0
0 0 0
0 0 0
0 0 0
0 0 0
0 0 0
0 0 0
0 0 0
0 0 0
0 0 0
0 0 0
0 0 0
0 0 0
0 0 0
0 0 0
0 0 0
0 0 0
0 0 0
0 0 0
0 0 0
0 0 0
0 0 0
0 0 0
0 0 0
0 0 0
0 0 0
0 0 0
0 0 0
0 0 0
0 0 0
0 0 0
0 0 0
0 0 0
16 22 36
16 22 36
39 56 88
45 64 102
39 56 88
28 39 62
32 45 72
32 45 72
22 32 51
32 45 72
22 32 51
36 51 80
28 39 62
16 22 36
32 45 72
0 0 0
32 45 72
32 45 72
22 32 51
44 63 88
32 45 72
28 39 62
16 22 36
32 45 72
0 0 0
22 32 51
22 32 51
22 32 51
35 50 72
35 50 72
0 0 0
30 43 51
16 22 36
42 59 88
42 60 95
28 39 62
35 50 72
28 39 62
32 45 72
36 51 80
0 0 0
22 32 51
31 44 62
28 39 62
30 43 51
0 0 0
16 22 36
28 39 62
16 22 36
36 51 80
32 45 72
31 44 62
38 55 80
22 32 51
28 39 62
0 0 0
21 30 36
32 45 72
22 32 51
32 45 72
22 32 51
42 60 95
16 22 36
21 30 36
38 55 80
16 22 36
27 38 51
32 45 72
16 22 36
16 22 36
16 22 36
32 45 72
28 39 62
45 63 95
27 38 51
48 67 102
39 56 88
32 45 72
22 32 51
22 32 51
28 39 62
28 39 62
32 45 72
22 32 51
32 45 72
35 50 72
36 51 80
32 45 72
35 50 72
39 56 88
32 45 72
38 55 80
50 71 108
53 75 120
0 0 0
39 56 88
32 45 72
16 22 36
0 0 0
0 0 0
0 0 0
0 0 0
0 0 0
0 0 0
0 0 0
0 0 0
0 0 0
0 0 0
0 0 0
0 0 0
0 0 0
0 0 0
0 0 0
0 0 0
0 0 0
0 0 0
0 0 0
0 0 0
0 0 0
0 0 0
0 0 0
0 0 0
0 0 0
0 0 0
0 0 0
0 0 0
0 0 0
0 0 0
0 0 0
0 0 0
0 0 0
0 0 0
0 0 0
0 0 0
0 0 0
0 0 0
0 0 0
0 0 0
0 0 0
0 0 0
0 0 0
0 0 0
0 0 0
0 0 0
0 0 0
0 0 0
0 0 0
0 0 0
0 0 0
0 0 0
0 0 0
0 0 0
0 0 0
0 0 0
0 0 0
0 0 0
0 0 0
0 0 0
0 0 0
0 0 0
0 0 0
0 0 0
0 0 0
0 0 0
0 0 0
0 0 0
0 0 0
0 0 0
0 0 0
0 0 0
0 0 0
0 0 0
0 0 0
0 0 0
0 0 0
0 0 0
0 0 0
0 0 0
0 0 0
0 0 0
0 0 0
0 0 0
0 0 0
0 0 0
0 0 0
0 0 0
0 0 0
0 0 0
0 0 0
0 0 0
0 0 0
0 0 0
0 0 0
0 0 0
0 0 0
0 0 0
0 0 0
0 0 0
0 0 0
0 0 0
0 0 0
0 0 0
0 0 0
0 0 0
0 0 0
0 0 0
0 0 0
0 0 0
0 0 0
0 0 0
0 0 0
0 0 0
0 0 0
0 0 0
0 0 0
0 0 0
0 0 0
0 0 0
0 0 0
0 0 0
0 0 0
0 0 0
0 0 0
0 0 0
0 0 0
0 0 0
0 0 0
0 0 0
0 0 0
0 0 0
0 0 0
0 0 0
0 0 0
0 0 0
0 0 0
0 0 0
0 0 0
0 0 0
0 0 0
0 0 0
0 0 0
0 0 0
0 0 0
0 0 0
0 0 0
0 0 0
0 0 0
0 0 0
0 0 0
0 0 0
0 0 0
0 0 0
0 0 0
0 0 0
0 0 0
0 0 0
0 0 0
0 0 0
0 0 0
0 0 0
0 0 0
0 0 0
0 0 0
0 0 0
0 0 0
0 0 0
0 0 0
0 0 0
0 0 0
0 0 0
0 0 0
0 0 0
0 0 0
0 0 0
0 0 0
0 0 0
0 0 0
0 0 0
0 0 0
0 0 0
0 0 0
0 0 0
0 0 0
0 0 0
0 0 0
0 0 0
0 0 0
0 0 0
0 0 0
0 0 0
0 0 0
0 0 0
0 0 0
0 0 0
0 0 0
0 0 0
0 0 0
0 0 0
0 0 0
0 0 0
0 0 0
0 0 0
0 0 0
0 0 0
0 0 0
0 0 0
0 0 0
0 0 0
0 0 0
0 0 0
0 0 0
0 0 0
0 0 0
0 0 0
0 0 0
0 0 0
0 0 0
0 0 0
0 0 0
0 0 0
0 0 0
0 0 0
0 0 0
0 0 0
0 0 0
0 0 0
0 0 0
0 0 0
0 0 0
0 0 0
0 0 0
0 0 0
0 0 0
0 0 0
0 0 0
0 0 0
0 0 0
0 0 0
0 0 0
0 0 0
0 0 0
0 0 0
0 0 0
0 0 0
0 0 0
0 0 0
0 0 0
0 0 0
0 0 0
0 0 0
0 0 0
0 0 0
0 0 0
0 0 0
0 0 0
0 0 0
0 0 0
0 0 0
0 0 0
0 0 0
0 0 0
0 0 0
0 0 0
0 0 0
0 0 0
0 0 0
0 0 0
0 0 0
0 0 0
0 0 0
0 0 0
0 0 0
0 0 0
0 0 0
0 0 0
0 0 0
0 0 0
0 0 0
0 0 0
0 0 0
0 0 0
0 0 0
0 0 0
0 0 0
0 0 0
0 0 0
0 0 0
0 0 0
0 0 0
0 0 0
0 0 0
0 0 0
0 0 0
0 0 0
0 0 0
0 0 0
0 0 0
0 0 0
0 0 0
16 22 36
22 32 51
31 44 62
42 60 95
16 22 36
16 22 36
27 38 51
22 32 51
28 39 62
16 22 36
32 45 72
35 50 72
16 22 36
31 44 62
22 32 51
32 45 72
21 30 36
28 39 62
42 59 88
37 53 62
39 56 88
22 32 51
28 39 62
28 39 62
32 45 72
38 55 80
16 22 36
22 32 51
16 22 36
22 32 51
42 60 95
27 38 51
27 38 51
28 39 62
21 30 36
38 54 72
32 45 72
26 36 36
16 22 36
27 38 51
16 22 36
22 32 51
32 45 72
32 45 72
36 52 51
28 39 62
22 32 51
32 45 72
23 33 51
27 38 51
42 59 88
22 32 51
21 30 36
31 44 62
28 39 62
27 38 51
28 39 62
22 32 51
32 45 72
42 60 95
28 39 62
16 22 36
44 63 88
0 0 0
31 44 62
16 22 36
32 45 72
22 32 51
27 38 51
22 32 51
42 60 95
22 32 51
22 32 51
31 44 62
32 45 72
42 59 88
35 50 72
32 45 72
31 44 62
22 32 51
36 51 80
27 38 51
22 32 51
28 39 62
42 60 95
39 56 88
48 68 108
32 45 72
22 32 51
35 50 72
32 45 72
32 45 72
36 51 80
38 55 80
32 45 72
27 38 51
32 45 72
32 45 72
16 22 36
0 0 0
0 0 0
0 0 0
0 0 0
0 0 0
0 0 0
0 0 0
0 0 0
0 0 0
0 0 0
0 0 0
0 0 0
0 0 0
0 0 0
0 0 0
0 0 0
0 0 0
0 0 0
0 0 0
0 0 0
0 0 0
0 0 0
0 0 0
0 0 0
0 0 0
0 0 0
0 0 0
0 0 0
0 0 0
0 0 0
0 0 0
0 0 0
0 0 0
0 0 0
0 0 0
0 0 0
0 0 0
0 0 0
0 0 0
0 0 0
0 0 0
0 0 0
0 0 0
0 0 0
0 0 0
0 0 0
0 0 0
0 0 0
0 0 0
0 0 0
0 0 0
0 0 0
0 0 0
0 0 0
0 0 0
0 0 0
0 0 0
0 0 0
0 0 0
0 0 0
0 0 0
0 0 0
0 0 0
0 0 0
0 0 0
0 0 0
0 0 0
0 0 0
0 0 0
0 0 0
0 0 0
0 0 0
0 0 0
0 0 0
0 0 0
0 0 0
0 0 0
0 0 0
0 0 0
0 0 0
0 0 0
0 0 0
0 0 0
0 0 0
0 0 0
0 0 0
0 0 0
0 0 0
0 0 0
0 0 0
0 0 0
0 0 0
0 0 0
0 0 0
0 0 0
0 0 0
0 0 0
0 0 0
0 0 0
0 0 0
0 0 0
0 0 0
0 0 0
0 0 0
0 0 0
0 0 0
0 0 0
0 0 0
0 0 0
0 0 0
0 0 0
0 0 0
0 0 0
0 0 0
0 0 0
0 0 0
0 0 0
0 0 0
0 0 0
0 0 0
0 0 0
0 0 0
0 0 0
0 0 0
0 0 0
0 0 0
0 0 0
0 0 0
0 0 0
0 0 0
0 0 0
0 0 0
0 0 0
0 0 0
0 0 0
0 0 0
0 0 0
0 0 0
0 0 0
0 0 0
0 0 0
0 0 0
0 0 0
0 0 0
0 0 0
0 0 0
0 0 0
0 0 0
0 0 0
0 0 0
0 0 0
0 0 0
0 0 0
0 0 0
0 0 0
0 0 0
0 0 0
0 0 0
0 0 0
0 0 0
0 0 0
0 0 0
0 0 0
0 0 0
0 0 0
0 0 0
0 0 0
0 0 0
0 0 0
0 0 0
0 0 0
0 0 0
0 0 0
0 0 0
0 0 0
0 0 0
0 0 0
0 0 0
0 0 0
0 0 0
0 0 0
0 0 0
0 0 0
0 0 0
0 0 0
0 0 0
0 0 0
0 0 0
0 0 0
0 0 0
0 0 0
0 0 0
0 0 0
0 0 0
0 0 0
0 0 0
0 0 0
0 0 0
0 0 0
0 0 0
0 0 0
0 0 0
0 0 0
0 0 0
0 0 0
0 0 0
0 0 0
0 0 0
0 0 0
0 0 0
0 0 0
0 0 0
0 0 0
0 0 0
0 0 0
0 0 0
0 0 0
0 0 0
0 0 0
0 0 0
0 0 0
0 0 0
0 0 0
0 0 0
0 0 0
0 0 0
0 0 0
0 0 0
0 0 0
0 0 0
0 0 0
0 0 0
0 0 0
0 0 0
0 0 0
0 0 0
0 0 0
0 0 0
0 0 0
0 0 0
0 0 0
0 0 0
0 0 0
0 0 0
0 0 0
0 0 0
0 0 0
0 0 0
0 0 0
0 0 0
0 0 0
0 0 0
0 0 0
0 0 0
0 0 0
0 0 0
0 0 0
0 0 0
0 0 0
0 0 0
0 0 0
0 0 0
0 0 0
0 0 0
0 0 0
0 0 0
0 0 0
0 0 0
0 0 0
0 0 0
0 0 0
0 0 0
0 0 0
0 0 0
0 0 0
0 0 0
0 0 0
0 0 0
0 0 0
0 0 0
0 0 0
0 0 0
0 0 0
0 0 0
0 0 0
0 0 0
0 0 0
0 0 0
0 0 0
0 0 0
0 0 0
0 0 0
0 0 0
0 0 0
0 0 0
0 0 0
0 0 0
0 0 0
0 0 0
0 0 0
0 0 0
22 32 51
28 39 62
42 60 95
22 32 51
36 51 80
28 39 62
28 39 62
31 44 62
28 39 62
28 39 62
28 39 62
35 50 72
16 22 36
21 30 36
28 39 62
14 20 0
42 60 95
22 32 51
27 38 51
50 71 108
28 39 62
22 32 51
22 32 51
16 22 36
0 0 0
32 45 72
16 22 36
31 44 62
16 22 36
27 38 51
21 30 36
21 30 36
32 45 72
36 51 80
36 51 80
30 43 51
22 32 51
28 39 62
36 51 80
22 32 51
0 0 0
31 44 62
16 22 36
27 38 51
21 30 36
22 32 51
28 39 62
0 0 0
22 32 51
28 39 62
27 38 51
42 59 88
27 38 51
22 32 51
0 0 0
21 30 36
16 22 36
28 39 62
16 22 36
32 45 72
32 45 72
22 32 51
21 30 36
38 55 80
16 22 36
27 38 51
21 30 36
16 22 36
16 22 36
0 0 0
35 50 72
22 32 51
41 58 80
21 30 36
45 63 95
38 54 72
28 39 62
28 39 62
22 32 51
22 32 51
22 32 51
32 45 72
16 22 36
16 22 36
31 44 62
31 44 62
28 39 62
35 50 72
32 45 72
35 50 72
41 58 80
39 56 88
39 56 88
0 0 0
22 32 51
32 45 72
42 59 88
42 60 95
16 22 36
28 39 62
0 0 0
0 0 0
0 0 0
0 0 0
0 0 0
0 0 0
0 0 0
0 0 0
0 0 0
0 0 0
0 0 0
0 0 0
0 0 0
0 0 0
0 0 0
0 0 0
0 0 0
0 0 0
0 0 0
0 0 0
0 0 0
0 0 0
0 0 0
0 0 0
0 0 0
0 0 0
0 0 0
0 0 0
0 0 0
0 0 0
0 0 0
0 0 0
0 0 0
0 0 0
0 0 0
0 0 0
0 0 0
0 0 0
0 0 0
0 0 0
0 0 0
0 0 0
0 0 0
0 0 0
0 0 0
0 0 0
0 0 0
0 0 0
0 0 0
0 0 0
0 0 0
0 0 0
0 0 0
0 0 0
0 0 0
0 0 0
0 0 0
0 0 0
0 0 0
0 0 0
0 0 0
0 0 0
0 0 0
0 0 0
0 0 0
0 0 0
0 0 0
0 0 0
0 0 0
0 0 0
0 0 0
0 0 0
0 0 0
0 0 0
0 0 0
0 0 0
0 0 0
0 0 0
0 0 0
0 0 0
0 0 0
0 0 0
0 0 0
0 0 0
0 0 0
0 0 0
0 0 0
0 0 0
0 0 0
0 0 0
0 0 0
0 0 0
0 0 0
0 0 0
0 0 0
0 0 0
0 0 0
0 0 0
0 0 0
0 0 0
0 0 0
0 0 0
0 0 0
0 0 0
0 0 0
0 0 0
0 0 0
0 0 0
0 0 0
0 0 0
0 0 0
0 0 0
0 0 0
0 0 0
0 0 0
0 0 0
0 0 0
0 0 0
0 0 0
0 0 0
0 0 0
0 0 0
0 0 0
0 0 0
0 0 0
0 0 0
0 0 0
0 0 0
0 0 0
0 0 0
0 0 0
0 0 0
0 0 0
0 0 0
0 0 0
0 0 0
0 0 0
0 0 0
0 0 0
0 0 0
0 0 0
0 0 0
0 0 0
0 0 0
0 0 0
0 0 0
0 0 0
0 0 0
0 0 0
0 0 0
0 0 0
0 0 0
0 0 0
0 0 0
0 0 0
0 0 0
0 0 0
0 0 0
0 0 0
0 0 0
0 0 0
0 0 0
0 0 0
0 0 0
0 0 0
0 0 0
0 0 0
0 0 0
0 0 0
0 0 0
0 0 0
0 0 0
0 0 0
0 0 0
0 0 0
0 0 0
0 0 0
0 0 0
0 0 0
0 0 0
0 0 0
0 0 0
0 0 0
0 0 0
0 0 0
0 0 0
0 0 0
0 0 0
0 0 0
0 0 0
0 0 0
0 0 0
0 0 0
0 0 0
0 0 0
0 0 0
0 0 0
0 0 0
0 0 0
0 0 0
0 0 0
0 0 0
0 0 0
0 0 0
0 0 0
0 0 0
0 0 0
0 0 0
0 0 0
0 0 0
0 0 0
0 0 0
0 0 0
0 0 0
0 0 0
0 0 0
0 0 0
0 0 0
0 0 0
0 0 0
0 0 0
0 0 0
0 0 0
0 0 0
0 0 0
0 0 0
0 0 0
0 0 0
0 0 0
0 0 0
0 0 0
0 0 0
0 0 0
0 0 0
0 0 0
0 0 0
0 0 0
0 0 0
0 0 0
0 0 0
0 0 0
0 0 0
0 0 0
0 0 0
0 0 0
0 0 0
0 0 0
0 0 0
0 0 0
0 0 0
0 0 0
0 0 0
0 0 0
0 0 0
0 0 0
0 0 0
0 0 0
0 0 0
0 0 0
0 0 0
0 0 0
0 0 0
0 0 0
0 0 0
0 0 0
0 0 0
0 0 0
0 0 0
0 0 0
0 0 0
0 0 0
0 0 0
0 0 0
0 0 0
0 0 0
0 0 0
0 0 0
0 0 0
0 0 0
0 0 0
0 0 0
0 0 0
0 0 0
0 0 0
0 0 0
0 0 0
0 0 0
0 0 0
0 0 0
0 0 0
0 0 0
0 0 0
0 0 0
0 0 0
0 0 0
0 0 0
0 0 0
0 0 0
0 0 0
0 0 0
32 45 72
27 38 51
32 45 72
34 49 62
16 22 36
31 44 62
28 39 62
22 32 51
32 45 72
28 39 62
32 45 72
27 38 51
28 39 62
38 55 80
34 49 62
39 56 88
28 39 62
31 44 62
22 32 51
32 45 72
36 51 80
16 22 36
16 22 36
0 0 0
22 32 51
36 51 80
21 30 36
31 44 62
16 22 36
34 49 62
38 55 80
22 32 51
21 30 36
0 0 0
31 44 62
0 0 0
22 32 51
28 39 62
30 43 51
38 54 72
22 32 51
32 45 72
22 32 51
23 33 51
27 38 51
38 55 80
21 30 36
30 43 51
21 30 36
22 32 51
21 30 36
22 32 51
22 32 51
32 45 72
36 51 80
23 33 51
22 32 51
35 50 72
16 22 36
31 44 62
0 0 0
39 56 88
16 22 36
31 44 62
32 45 72
36 51 80
21 30 36
22 32 51
22 32 51
36 51 80
34 49 62
36 51 80
28 39 62
27 38 51
27 38 51
27 38 51
21 30 36
35 50 72
28 39 62
28 39 62
36 51 80
36 51 80
36 51 80
14 20 0
42 60 95
32 45 72
28 39 62
38 55 80
39 56 88
14 20 0
32 45 72
22 32 51
22 32 51
26 36 36
32 45 72
0 0 0
32 45 72
28 39 62
36 52 80
38 54 72
28 39 62
0 0 0
0 0 0
0 0 0
0 0 0
0 0 0
0 0 0
0 0 0
0 0 0
0 0 0
0 0 0
0 0 0
0 0 0
0 0 0
0 0 0
0 0 0
0 0 0
0 0 0
0 0 0
0 0 0
0 0 0
0 0 0
0 0 0
0 0 0
0 0 0
0 0 0
0 0 0
0 0 0
0 0 0
0 0 0
0 0 0
0 0 0
0 0 0
0 0 0
0 0 0
0 0 0
0 0 0
0 0 0
0 0 0
0 0 0
0 0 0
0 0 0
0 0 0
0 0 0
0 0 0
0 0 0
0 0 0
0 0 0
0 0 0
0 0 0
0 0 0
0 0 0
0 0 0
0 0 0
0 0 0
0 0 0
0 0 0
0 0 0
0 0 0
0 0 0
0 0 0
0 0 0
0 0 0
0 0 0
0 0 0
0 0 0
0 0 0
0 0 0
0 0 0
0 0 0
0 0 0
0 0 0
0 0 0
0 0 0
0 0 0
0 0 0
0 0 0
0 0 0
0 0 0
0 0 0
0 0 0
0 0 0
0 0 0
0 0 0
0 0 0
0 0 0
0 0 0
0 0 0
0 0 0
0 0 0
0 0 0
0 0 0
0 0 0
0 0 0
0 0 0
0 0 0
0 0 0
0 0 0
0 0 0
0 0 0
0 0 0
0 0 0
0 0 0
0 0 0
0 0 0
0 0 0
0 0 0
0 0 0
0 0 0
0 0 0
0 0 0
0 0 0
0 0 0
0 0 0
0 0 0
0 0 0
0 0 0
0 0 0
0 0 0
0 0 0
0 0 0
0 0 0
0 0 0
0 0 0
0 0 0
0 0 0
0 0 0
0 0 0
0 0 0
0 0 0
0 0 0
0 0 0
0 0 0
0 0 0
0 0 0
0 0 0
0 0 0
0 0 0
0 0 0
0 0 0
0 0 0
0 0 0
0 0 0
0 0 0
0 0 0
0 0 0
0 0 0
0 0 0
0 0 0
0 0 0
0 0 0
0 0 0
0 0 0
0 0 0
0 0 0
0 0 0
0 0 0
0 0 0
0 0 0
0 0 0
0 0 0
0 0 0
0 0 0
0 0 0
0 0 0
0 0 0
0 0 0
0 0 0
0 0 0
0 0 0
0 0 0
0 0 0
0 0 0
0 0 0
0 0 0
0 0 0
0 0 0
0 0 0
0 0 0
0 0 0
0 0 0
0 0 0
0 0 0
0 0 0
0 0 0
0 0 0
0 0 0
0 0 0
0 0 0
0 0 0
0 0 0
0 0 0
0 0 0
0 0 0
0 0 0
0 0 0
0 0 0
0 0 0
0 0 0
0 0 0
0 0 0
0 0 0
0 0 0
0 0 0
0 0 0
0 0 0
0 0 0
0 0 0
0 0 0
0 0 0
0 0 0
0 0 0
0 0 0
0 0 0
0 0 0
0 0 0
0 0 0
0 0 0
0 0 0
0 0 0
0 0 0
0 0 0
0 0 0
0 0 0
0 0 0
0 0 0
0 0 0
0 0 0
0 0 0
0 0 0
0 0 0
0 0 0
0 0 0
0 0 0
0 0 0
0 0 0
0 0 0
0 0 0
0 0 0
0 0 0
0 0 0
0 0 0
0 0 0
0 0 0
0 0 0
0 0 0
0 0 0
0 0 0
0 0 0
0 0 0
0 0 0
0 0 0
0 0 0
0 0 0
0 0 0
0 0 0
0 0 0
0 0 0
0 0 0
0 0 0
0 0 0
0 0 0
0 0 0
0 0 0
0 0 0
0 0 0
0 0 0
0 0 0
0 0 0
0 0 0
0 0 0
0 0 0
0 0 0
0 0 0
0 0 0
0 0 0
0 0 0
0 0 0
0 0 0
0 0 0
0 0 0
0 0 0
0 0 0
0 0 0
0 0 0
0 0 0
0 0 0
0 0 0
0 0 0
0 0 0
0 0 0
0 0 0
0 0 0
0 0 0
0 0 0
0 0 0
0 0 0
0 0 0
16 22 36
22 32 51
39 56 88
32 45 72
32 45 72
22 32 51
28 39 62
36 51 80
27 38 51
28 39 62
16 22 36
32 45 72
26 36 36
16 22 36
26 36 36
16 22 36
21 30 36
36 51 80
28 39 62
42 59 88
28 39 62
22 32 51
16 22 36
28 39 62
0 0 0
16 22 36
22 32 51
27 38 51
31 44 62
27 38 51
14 20 0
27 38 51
16 22 36
39 56 88
32 45 72
28 39 62
34 49 62
22 32 51
32 45 72
28 39 62
0 0 0
31 44 62
14 20 0
0 0 0
27 38 51
22 32 51
16 22 36
22 32 51
0 0 0
32 45 72
22 32 51
33 48 51
45 63 95
16 22 36
16 22 36
0 0 0
16 22 36
22 32 51
28 39 62
32 45 72
16 22 36
36 51 80
21 30 36
21 30 36
22 32 51
16 22 36
21 30 36
16 22 36
16 22 36
16 22 36
28 39 62
21 30 36
34 49 62
27 38 51
38 55 80
34 49 62
22 32 51
0 0 0
22 32 51
16 22 36
22 32 51
22 32 51
16 22 36
21 30 36
35 50 72
21 30 36
30 43 51
30 43 51
28 39 62
35 50 72
30 43 51
36 51 80
39 56 88
0 0 0
16 22 36
28 39 62
36 51 80
27 38 51
0 0 0
28 40 62
28 39 62
28 39 62
32 45 72
0 0 0
0 0 0
0 0 0
0 0 0
0 0 0
0 0 0
0 0 0
0 0 0
0 0 0
0 0 0
0 0 0
0 0 0
0 0 0
0 0 0
0 0 0
0 0 0
0 0 0
0 0 0
0 0 0
0 0 0
0 0 0
0 0 0
0 0 0
0 0 0
0 0 0
0 0 0
0 0 0
0 0 0
0 0 0
0 0 0
0 0 0
0 0 0
0 0 0
0 0 0
0 0 0
0 0 0
0 0 0
0 0 0
0 0 0
0 0 0
0 0 0
0 0 0
0 0 0
0 0 0
0 0 0
0 0 0
0 0 0
0 0 0
0 0 0
0 0 0
0 0 0
0 0 0
0 0 0
0 0 0
0 0 0
0 0 0
0 0 0
0 0 0
0 0 0
0 0 0
0 0 0
0 0 0
0 0 0
0 0 0
0 0 0
0 0 0
0 0 0
0 0 0
0 0 0
0 0 0
0 0 0
0 0 0
0 0 0
0 0 0
0 0 0
0 0 0
0 0 0
0 0 0
0 0 0
0 0 0
0 0 0
0 0 0
0 0 0
0 0 0
0 0 0
0 0 0
0 0 0
0 0 0
0 0 0
0 0 0
0 0 0
0 0 0
0 0 0
0 0 0
0 0 0
0 0 0
0 0 0
0 0 0
0 0 0
0 0 0
0 0 0
0 0 0
0 0 0
0 0 0
0 0 0
0 0 0
0 0 0
0 0 0
0 0 0
0 0 0
0 0 0
0 0 0
0 0 0
0 0 0
0 0 0
0 0 0
0 0 0
0 0 0
0 0 0
0 0 0
0 0 0
0 0 0
0 0 0
0 0 0
0 0 0
0 0 0
0 0 0
0 0 0
0 0 0
0 0 0
0 0 0
0 0 0
0 0 0
0 0 0
0 0 0
0 0 0
0 0 0
0 0 0
0 0 0
0 0 0
0 0 0
0 0 0
0 0 0
0 0 0
0 0 0
0 0 0
0 0 0
0 0 0
0 0 0
0 0 0
0 0 0
0 0 0
0 0 0
0 0 0
0 0 0
0 0 0
0 0 0
0 0 0
0 0 0
0 0 0
0 0 0
0 0 0
0 0 0
0 0 0
0 0 0
0 0 0
0 0 0
0 0 0
0 0 0
0 0 0
0 0 0
0 0 0
0 0 0
0 0 0
0 0 0
0 0 0
0 0 0
0 0 0
0 0 0
0 0 0
0 0 0
0 0 0
0 0 0
0 0 0
0 0 0
0 0 0
0 0 0
0 0 0
0 0 0
0 0 0
0 0 0
0 0 0
0 0 0
0 0 0
0 0 0
0 0 0
0 0 0
0 0 0
0 0 0
0 0 0
0 0 0
0 0 0
0 0 0
0 0 0
0 0 0
0 0 0
0 0 0
0 0 0
0 0 0
0 0 0
0 0 0
0 0 0
0 0 0
0 0 0
0 0 0
0 0 0
0 0 0
0 0 0
0 0 0
0 0 0
0 0 0
0 0 0
0 0 0
0 0 0
0 0 0
0 0 0
0 0 0
0 0 0
0 0 0
0 0 0
0 0 0
0 0 0
0 0 0
0 0 0
0 0 0
0 0 0
0 0 0
0 0 0
0 0 0
0 0 0
0 0 0
0 0 0
0 0 0
0 0 0
0 0 0
0 0 0
0 0 0
0 0 0
0 0 0
0 0 0
0 0 0
0 0 0
0 0 0
0 0 0
0 0 0
0 0 0
0 0 0
0 0 0
0 0 0
0 0 0
0 0 0
0 0 0
0 0 0
0 0 0
0 0 0
0 0 0
0 0 0
0 0 0
0 0 0
0 0 0
0 0 0
0 0 0
0 0 0
0 0 0
0 0 0
0 0 0
0 0 0
0 0 0
0 0 0
0 0 0
0 0 0
0 0 0
0 0 0
0 0 0
0 0 0
0 0 0
0 0 0
0 0 0
0 0 0
0 0 0
0 0 0
0 0 0
0 0 0
0 0 0
0 0 0
0 0 0
0 0 0
35 50 72
32 45 72
32 45 72
28 39 62
22 32 51
32 45 72
39 56 88
16 22 36
16 22 36
31 44 62
28 39 62
31 44 62
41 58 80
22 32 51
32 45 72
16 22 36
31 44 62
39 56 88
22 32 51
16 22 36
21 30 36
22 32 51
31 44 62
22 32 51
14 20 0
28 39 62
27 38 51
38 54 72
28 39 62
27 38 51
22 32 51
22 32 51
14 20 0
16 22 36
22 32 51
32 45 72
28 40 0
28 39 62
28 39 62
16 22 36
28 40 62
21 30 36
32 45 72
21 30 36
31 44 62
27 38 51
22 32 51
14 20 0
22 32 51
22 32 51
16 22 36
28 39 62
27 38 51
16 24 36
38 55 80
0 0 0
41 58 80
0 0 0
32 45 72
16 22 36
27 38 51
32 45 72
31 44 62
16 22 36
16 22 36
32 45 72
22 32 51
26 36 36
27 38 51
35 50 72
27 38 51
0 0 0
22 32 51
22 32 51
31 44 62
22 32 51
28 39 62
28 39 62
22 32 51
31 44 62
27 38 51
42 59 88
22 32 51
31 44 62
36 51 80
22 32 51
27 38 51
16 22 36
28 39 62
0 0 0
0 0 0
16 22 36
27 38 51
32 45 72
32 45 72
27 38 51
28 39 62
16 22 36
31 44 62
35 50 72
28 39 62
31 44 62
51 72 114
32 45 72
0 0 0
0 0 0
0 0 0
0 0 0
0 0 0
0 0 0
0 0 0
0 0 0
0 0 0
0 0 0
0 0 0
0 0 0
0 0 0
0 0 0
0 0 0
0 0 0
0 0 0
0 0 0
0 0 0
0 0 0
0 0 0
0 0 0
0 0 0
0 0 0
0 0 0
0 0 0
0 0 0
0 0 0
0 0 0
0 0 0
0 0 0
0 0 0
0 0 0
0 0 0
0 0 0
0 0 0
0 0 0
0 0 0
0 0 0
0 0 0
0 0 0
0 0 0
0 0 0
0 0 0
0 0 0
0 0 0
0 0 0
0 0 0
0 0 0
0 0 0
0 0 0
0 0 0
0 0 0
0 0 0
0 0 0
0 0 0
0 0 0
0 0 0
0 0 0
0 0 0
0 0 0
0 0 0
0 0 0
0 0 0
0 0 0
0 0 0
0 0 0
0 0 0
0 0 0
0 0 0
0 0 0
0 0 0
0 0 0
0 0 0
0 0 0
0 0 0
0 0 0
0 0 0
0 0 0
0 0 0
0 0 0
0 0 0
0 0 0
0 0 0
0 0 0
0 0 0
0 0 0
0 0 0
0 0 0
0 0 0
0 0 0
0 0 0
0 0 0
0 0 0
0 0 0
0 0 0
0 0 0
0 0 0
0 0 0
0 0 0
0 0 0
0 0 0
0 0 0
0 0 0
0 0 0
0 0 0
0 0 0
0 0 0
0 0 0
0 0 0
0 0 0
0 0 0
0 0 0
0 0 0
0 0 0
0 0 0
0 0 0
0 0 0
0 0 0
0 0 0
0 0 0
0 0 0
0 0 0
0 0 0
0 0 0
0 0 0
0 0 0
0 0 0
0 0 0
0 0 0
0 0 0
0 0 0
0 0 0
0 0 0
0 0 0
0 0 0
0 0 0
0 0 0
0 0 0
0 0 0
0 0 0
0 0 0
0 0 0
0 0 0
0 0 0
0 0 0
0 0 0
0 0 0
0 0 0
0 0 0
0 0 0
0 0 0
0 0 0
0 0 0
0 0 0
0 0 0
0 0 0
0 0 0
0 0 0
0 0 0
0 0 0
0 0 0
0 0 0
0 0 0
0 0 0
0 0 0
0 0 0
0 0 0
0 0 0
0 0 0
0 0 0
0 0 0
0 0 0
0 0 0
0 0 0
0 0 0
0 0 0
0 0 0
0 0 0
0 0 0
0 0 0
0 0 0
0 0 0
0 0 0
0 0 0
0 0 0
0 0 0
0 0 0
0 0 0
0 0 0
0 0 0
0 0 0
0 0 0
0 0 0
0 0 0
0 0 0
0 0 0
0 0 0
0 0 0
0 0 0
0 0 0
0 0 0
0 0 0
0 0 0
0 0 0
0 0 0
0 0 0
0 0 0
0 0 0
0 0 0
0 0 0
0 0 0
0 0 0
0 0 0
0 0 0
0 0 0
0 0 0
0 0 0
0 0 0
0 0 0
0 0 0
0 0 0
0 0 0
0 0 0
0 0 0
0 0 0
0 0 0
0 0 0
0 0 0
0 0 0
0 0 0
0 0 0
0 0 0
0 0 0
0 0 0
0 0 0
0 0 0
0 0 0
0 0 0
0 0 0
0 0 0
0 0 0
0 0 0
0 0 0
0 0 0
0 0 0
0 0 0
0 0 0
0 0 0
0 0 0
0 0 0
0 0 0
0 0 0
0 0 0
0 0 0
0 0 0
0 0 0
0 0 0
0 0 0
0 0 0
0 0 0
0 0 0
0 0 0
0 0 0
0 0 0
0 0 0
0 0 0
0 0 0
0 0 0
0 0 0
0 0 0
0 0 0
0 0 0
0 0 0
0 0 0
0 0 0
0 0 0
0 0 0
0 0 0
0 0 0
0 0 0
0 0 0
0 0 0
0 0 0
0 0 0
0 0 0
0 0 0
0 0 0
0 0 0
0 0 0
0 0 0
0 0 0
0 0 0
0 0 0
0 0 0
22 32 51
16 22 36
36 51 80
28 39 62
39 56 88
0 0 0
28 39 62
35 50 72
22 32 51
22 32 51
22 32 51
34 49 62
0 0 0
14 20 0
27 38 51
0 0 0
28 39 62
22 32 51
22 32 51
38 55 80
28 39 62
16 22 36
16 22 36
22 32 51
0 0 0
22 32 51
16 22 36
30 43 51
22 32 51
21 30 36
14 20 0
16 22 36
28 39 62
36 51 80
32 45 72
21 30 36
28 39 62
28 39 62
36 51 80
16 22 36
14 20 0
20 28 0
0 0 0
22 32 51
14 20 0
27 38 51
31 44 62
0 0 0
22 32 51
22 32 51
27 38 51
34 49 62
30 43 51
26 36 36
0 0 0
0 0 0
28 39 62
22 32 51
22 32 51
22 32 51
38 55 80
22 32 51
27 38 51
27 38 51
16 22 36
14 20 0
28 39 62
16 22 36
16 22 36
16 22 36
21 30 36
22 32 51
33 46 36
14 20 0
38 54 72
31 44 62
16 22 36
0 0 0
22 32 51
14 20 0
22 32 51
21 30 36
21 30 36
27 38 51
35 50 72
27 38 51
31 44 62
16 22 36
31 44 62
34 49 62
32 45 72
32 45 72
21 30 36
22 32 51
28 39 62
28 39 62
34 49 62
0 0 0
22 32 51
28 39 62
28 39 62
27 38 51
28 39 62
21 30 36
48 67 102
28 39 62
0 0 0
0 0 0
0 0 0
0 0 0
0 0 0
0 0 0
0 0 0
0 0 0
0 0 0
0 0 0
0 0 0
0 0 0
0 0 0
0 0 0
0 0 0
0 0 0
0 0 0
0 0 0
0 0 0
0 0 0
0 0 0
0 0 0
0 0 0
0 0 0
0 0 0
0 0 0
0 0 0
0 0 0
0 0 0
0 0 0
0 0 0
0 0 0
0 0 0
0 0 0
0 0 0
0 0 0
0 0 0
0 0 0
0 0 0
0 0 0
0 0 0
0 0 0
0 0 0
0 0 0
0 0 0
0 0 0
0 0 0
0 0 0
0 0 0
0 0 0
0 0 0
0 0 0
0 0 0
0 0 0
0 0 0
0 0 0
0 0 0
0 0 0
0 0 0
0 0 0
0 0 0
0 0 0
0 0 0
0 0 0
0 0 0
0 0 0
0 0 0
0 0 0
0 0 0
0 0 0
0 0 0
0 0 0
0 0 0
0 0 0
0 0 0
0 0 0
0 0 0
0 0 0
0 0 0
0 0 0
0 0 0
0 0 0
0 0 0
0 0 0
0 0 0
0 0 0
0 0 0
0 0 0
0 0 0
0 0 0
0 0 0
0 0 0
0 0 0
0 0 0
0 0 0
0 0 0
0 0 0
0 0 0
0 0 0
0 0 0
0 0 0
0 0 0
0 0 0
0 0 0
0 0 0
0 0 0
0 0 0
0 0 0
0 0 0
0 0 0
0 0 0
0 0 0
0 0 0
0 0 0
0 0 0
0 0 0
0 0 0
0 0 0
0 0 0
0 0 0
0 0 0
0 0 0
0 0 0
0 0 0
0 0 0
0 0 0
0 0 0
0 0 0
0 0 0
0 0 0
0 0 0
0 0 0
0 0 0
0 0 0
0 0 0
0 0 0
0 0 0
0 0 0
0 0 0
0 0 0
0 0 0
0 0 0
0 0 0
0 0 0
0 0 0
0 0 0
0 0 0
0 0 0
0 0 0
0 0 0
0 0 0
0 0 0
0 0 0
0 0 0
0 0 0
0 0 0
0 0 0
0 0 0
0 0 0
0 0 0
0 0 0
0 0 0
0 0 0
0 0 0
0 0 0
0 0 0
0 0 0
0 0 0
0 0 0
0 0 0
0 0 0
0 0 0
0 0 0
0 0 0
0 0 0
0 0 0
0 0 0
0 0 0
0 0 0
0 0 0
0 0 0
0 0 0
0 0 0
0 0 0
0 0 0
0 0 0
0 0 0
0 0 0
0 0 0
0 0 0
0 0 0
0 0 0
0 0 0
0 0 0
0 0 0
0 0 0
0 0 0
0 0 0
0 0 0
0 0 0
0 0 0
0 0 0
0 0 0
0 0 0
0 0 0
0 0 0
0 0 0
0 0 0
0 0 0
0 0 0
0 0 0
0 0 0
0 0 0
0 0 0
0 0 0
0 0 0
0 0 0
0 0 0
0 0 0
0 0 0
0 0 0
0 0 0
0 0 0
0 0 0
0 0 0
0 0 0
0 0 0
0 0 0
0 0 0
0 0 0
0 0 0
0 0 0
0 0 0
0 0 0
0 0 0
0 0 0
0 0 0
0 0 0
0 0 0
0 0 0
0 0 0
0 0 0
0 0 0
0 0 0
0 0 0
0 0 0
0 0 0
0 0 0
0 0 0
0 0 0
0 0 0
0 0 0
0 0 0
0 0 0
0 0 0
0 0 0
0 0 0
0 0 0
0 0 0
0 0 0
0 0 0
0 0 0
0 0 0
0 0 0
0 0 0
0 0 0
0 0 0
0 0 0
0 0 0
0 0 0
0 0 0
0 0 0
0 0 0
0 0 0
0 0 0
0 0 0
0 0 0
0 0 0
0 0 0
0 0 0
0 0 0
0 0 0
0 0 0
0 0 0
0 0 0
0 0 0
0 0 0
0 0 0
0 0 0
0 0 0
0 0 0
0 0 0
0 0 0
0 0 0
35 50 72
32 45 72
28 39 62
28 39 62
22 32 51
22 32 51
28 39 62
30 43 51
32 45 72
35 50 72
22 32 51
16 22 36
22 32 51
32 45 72
32 45 72
0 0 0
14 20 0
0 0 0
22 32 51
31 45 62
22 32 51
31 44 62
14 20 0
35 50 72
27 38 51
28 39 62
30 43 51
22 32 51
21 30 36
0 0 0
22 32 51
28 39 62
26 36 36
26 36 36
28 39 62
22 32 51
22 32 51
31 44 62
28 39 62
21 30 36
27 38 51
28 39 62
21 30 36
21 30 36
21 30 36
0 0 0
0 0 0
22 32 51
16 22 36
27 38 51
22 32 51
22 32 51
14 20 0
16 22 36
16 22 36
16 22 36
21 30 36
16 22 36
16 22 36
27 38 51
0 0 0
22 32 51
28 39 62
27 38 51
27 38 51
14 20 0
35 50 72
27 38 51
22 32 51
16 22 36
31 44 62
16 22 36
16 22 36
22 32 51
0 0 0
16 22 36
30 44 51
32 45 72
32 45 72
16 22 36
27 38 51
28 39 62
14 20 0
16 22 36
28 39 62
27 38 51
0 0 0
22 32 51
21 30 36
32 45 72
28 39 62
27 38 51
36 51 80
28 39 62
34 49 62
31 44 62
37 53 62
20 28 0
35 50 72
28 39 62
31 44 62
0 0 0
22 32 51
32 45 72
16 22 36
35 50 72
16 22 36
0 0 0
0 0 0
0 0 0
0 0 0
0 0 0
0 0 0
0 0 0
0 0 0
0 0 0
0 0 0
0 0 0
0 0 0
0 0 0
0 0 0
0 0 0
0 0 0
0 0 0
0 0 0
0 0 0
0 0 0
0 0 0
0 0 0
0 0 0
0 0 0
0 0 0
0 0 0
0 0 0
0 0 0
0 0 0
0 0 0
0 0 0
0 0 0
0 0 0
0 0 0
0 0 0
0 0 0
0 0 0
0 0 0
0 0 0
0 0 0
0 0 0
0 0 0
0 0 0
0 0 0
0 0 0
0 0 0
0 0 0
0 0 0
0 0 0
0 0 0
0 0 0
0 0 0
0 0 0
0 0 0
0 0 0
0 0 0
0 0 0
0 0 0
0 0 0
0 0 0
0 0 0
0 0 0
0 0 0
0 0 0
0 0 0
0 0 0
0 0 0
0 0 0
0 0 0
0 0 0
0 0 0
0 0 0
0 0 0
0 0 0
0 0 0
0 0 0
0 0 0
0 0 0
0 0 0
0 0 0
0 0 0
0 0 0
0 0 0
0 0 0
0 0 0
0 0 0
0 0 0
0 0 0
0 0 0
0 0 0
0 0 0
0 0 0
0 0 0
0 0 0
0 0 0
0 0 0
0 0 0
0 0 0
0 0 0
0 0 0
0 0 0
0 0 0
0 0 0
0 0 0
0 0 0
0 0 0
0 0 0
0 0 0
0 0 0
0 0 0
0 0 0
0 0 0
0 0 0
0 0 0
0 0 0
0 0 0
0 0 0
0 0 0
0 0 0
0 0 0
0 0 0
0 0 0
0 0 0
0 0 0
0 0 0
0 0 0
0 0 0
0 0 0
0 0 0
0 0 0
0 0 0
0 0 0
0 0 0
0 0 0
0 0 0
0 0 0
0 0 0
0 0 0
0 0 0
0 0 0
0 0 0
0 0 0
0 0 0
0 0 0
0 0 0
0 0 0
0 0 0
0 0 0
0 0 0
0 0 0
0 0 0
0 0 0
0 0 0
0 0 0
0 0 0
0 0 0
0 0 0
0 0 0
0 0 0
0 0 0
0 0 0
0 0 0
0 0 0
0 0 0
0 0 0
0 0 0
0 0 0
0 0 0
0 0 0
0 0 0
0 0 0
0 0 0
0 0 0
0 0 0
0 0 0
0 0 0
0 0 0
0 0 0
0 0 0
0 0 0
0 0 0
0 0 0
0 0 0
0 0 0
0 0 0
0 0 0
0 0 0
0 0 0
0 0 0
0 0 0
0 0 0
0 0 0
0 0 0
0 0 0
0 0 0
0 0 0
0 0 0
0 0 0
0 0 0
0 0 0
0 0 0
0 0 0
0 0 0
0 0 0
0 0 0
0 0 0
0 0 0
0 0 0
0 0 0
0 0 0
0 0 0
0 0 0
0 0 0
0 0 0
0 0 0
0 0 0
0 0 0
0 0 0
0 0 0
0 0 0
0 0 0
0 0 0
0 0 0
0 0 0
0 0 0
0 0 0
0 0 0
0 0 0
0 0 0
0 0 0
0 0 0
0 0 0
0 0 0
0 0 0
0 0 0
0 0 0
0 0 0
0 0 0
0 0 0
0 0 0
0 0 0
0 0 0
0 0 0
0 0 0
0 0 0
0 0 0
0 0 0
0 0 0
0 0 0
0 0 0
0 0 0
0 0 0
0 0 0
0 0 0
0 0 0
0 0 0
0 0 0
0 0 0
0 0 0
0 0 0
0 0 0
0 0 0
0 0 0
0 0 0
0 0 0
0 0 0
0 0 0
0 0 0
0 0 0
0 0 0
0 0 0
0 0 0
0 0 0
0 0 0
0 0 0
0 0 0
0 0 0
0 0 0
0 0 0
0 0 0
0 0 0
0 0 0
0 0 0
0 0 0
0 0 0
0 0 0
0 0 0
0 0 0
0 0 0
0 0 0
0 0 0
0 0 0
22 32 51
16 22 36
32 45 72
16 22 36
39 56 88
16 22 36
28 39 62
30 43 51
16 22 36
22 32 51
16 22 36
31 45 62
20 28 0
14 20 0
21 30 36
0 0 0
28 39 62
16 22 36
22 32 51
45 63 95
16 22 36
16 22 36
22 32 51
22 32 51
0 0 0
22 32 51
0 0 0
31 44 62
16 22 36
21 30 36
21 30 36
14 20 0
22 32 51
28 39 62
32 45 72
22 32 51
0 0 0
38 55 80
28 39 62
0 0 0
20 28 0
14 20 0
0 0 0
27 38 51
14 20 0
16 22 36
22 32 51
0 0 0
28 39 62
0 0 0
33 48 51
38 54 72
21 30 36
14 20 0
0 0 0
16 22 36
22 32 51
28 39 62
28 39 62
21 30 36
31 44 62
21 30 36
38 54 72
0 0 0
22 32 51
28 39 62
0 0 0
16 22 36
16 22 36
21 30 36
22 32 51
33 48 51
14 20 0
31 44 62
20 28 0
16 22 36
0 0 0
0 0 0
28 39 62
21 30 36
27 38 51
21 30 36
16 22 36
41 58 80
27 38 51
21 30 36
22 32 51
16 22 36
37 53 62
22 32 51
22 32 51
16 22 36
27 38 51
22 32 51
22 32 51
33 48 51
0 0 0
0 0 0
16 22 36
22 32 51
16 22 36
38 55 80
21 30 36
41 58 80
22 32 51
16 22 36
28 39 62
28 39 62
0 0 0
0 0 0
0 0 0
0 0 0
0 0 0
0 0 0
0 0 0
0 0 0
0 0 0
0 0 0
0 0 0
0 0 0
0 0 0
0 0 0
0 0 0
0 0 0
0 0 0
0 0 0
0 0 0
0 0 0
0 0 0
0 0 0
0 0 0
0 0 0
0 0 0
0 0 0
0 0 0
0 0 0
0 0 0
0 0 0
0 0 0
0 0 0
0 0 0
0 0 0
0 0 0
0 0 0
0 0 0
0 0 0
0 0 0
0 0 0
0 0 0
0 0 0
0 0 0
0 0 0
0 0 0
0 0 0
0 0 0
0 0 0
0 0 0
0 0 0
0 0 0
0 0 0
0 0 0
0 0 0
0 0 0
0 0 0
0 0 0
0 0 0
0 0 0
0 0 0
0 0 0
0 0 0
0 0 0
0 0 0
0 0 0
0 0 0
0 0 0
0 0 0
0 0 0
0 0 0
0 0 0
0 0 0
0 0 0
0 0 0
0 0 0
0 0 0
0 0 0
0 0 0
0 0 0
0 0 0
0 0 0
0 0 0
0 0 0
0 0 0
0 0 0
0 0 0
0 0 0
0 0 0
0 0 0
0 0 0
0 0 0
0 0 0
0 0 0
0 0 0
0 0 0
0 0 0
0 0 0
0 0 0
0 0 0
0 0 0
0 0 0
0 0 0
0 0 0
0 0 0
0 0 0
0 0 0
0 0 0
0 0 0
0 0 0
0 0 0
0 0 0
0 0 0
0 0 0
0 0 0
0 0 0
0 0 0
0 0 0
0 0 0
0 0 0
0 0 0
0 0 0
0 0 0
0 0 0
0 0 0
0 0 0
0 0 0
0 0 0
0 0 0
0 0 0
0 0 0
0 0 0
0 0 0
0 0 0
0 0 0
0 0 0
0 0 0
0 0 0
0 0 0
0 0 0
0 0 0
0 0 0
0 0 0
0 0 0
0 0 0
0 0 0
0 0 0
0 0 0
0 0 0
0 0 0
0 0 0
0 0 0
0 0 0
0 0 0
0 0 0
0 0 0
0 0 0
0 0 0
0 0 0
0 0 0
0 0 0
0 0 0
0 0 0
0 0 0
0 0 0
0 0 0
0 0 0
0 0 0
0 0 0
0 0 0
0 0 0
0 0 0
0 0 0
0 0 0
0 0 0
0 0 0
0 0 0
0 0 0
0 0 0
0 0 0
0 0 0
0 0 0
0 0 0
0 0 0
0 0 0
0 0 0
0 0 0
0 0 0
0 0 0
0 0 0
0 0 0
0 0 0
0 0 0
0 0 0
0 0 0
0 0 0
0 0 0
0 0 0
0 0 0
0 0 0
0 0 0
0 0 0
0 0 0
0 0 0
0 0 0
0 0 0
0 0 0
0 0 0
0 0 0
0 0 0
0 0 0
0 0 0
0 0 0
0 0 0
0 0 0
0 0 0
0 0 0
0 0 0
0 0 0
0 0 0
0 0 0
0 0 0
0 0 0
0 0 0
0 0 0
0 0 0
0 0 0
0 0 0
0 0 0
0 0 0
0 0 0
0 0 0
0 0 0
0 0 0
0 0 0
0 0 0
0 0 0
0 0 0
0 0 0
0 0 0
0 0 0
0 0 0
0 0 0
0 0 0
0 0 0
0 0 0
0 0 0
0 0 0
0 0 0
0 0 0
0 0 0
0 0 0
0 0 0
0 0 0
0 0 0
0 0 0
0 0 0
0 0 0
0 0 0
0 0 0
0 0 0
0 0 0
0 0 0
0 0 0
0 0 0
0 0 0
0 0 0
0 0 0
0 0 0
0 0 0
0 0 0
0 0 0
0 0 0
0 0 0
0 0 0
0 0 0
0 0 0
0 0 0
0 0 0
0 0 0
0 0 0
0 0 0
0 0 0
0 0 0
0 0 0
0 0 0
0 0 0
0 0 0
0 0 0
0 0 0
0 0 0
0 0 0
16 22 36
32 45 72
28 39 62
16 22 36
31 44 62
31 44 62
35 50 72
16 22 36
27 38 51
16 22 36
16 22 36
28 39 62
39 56 88
16 22 36
14 20 0
0 0 0
31 44 62
22 31 36
16 22 36
16 22 36
21 30 36
38 54 72
16 22 36
27 38 51
22 32 51
22 32 51
14 20 0
16 22 36
28 39 62
22 32 51
33 46 36
27 38 51
28 39 62
16 22 36
16 22 36
21 30 36
35 50 72
21 30 36
28 39 62
21 30 36
22 32 51
20 28 0
16 22 36
0 0 0
16 22 36
0 0 0
31 44 62
22 32 51
28 39 62
14 20 0
14 20 0
21 30 36
16 22 36
16 22 36
14 20 0
0 0 0
27 38 51
14 20 0
22 32 51
0 0 0
22 32 51
29 42 36
16 22 36
31 44 62
27 38 51
16 22 36
27 38 51
26 36 36
16 22 36
16 22 36
21 30 36
16 22 36
16 22 36
34 49 62
28 39 62
22 32 51
36 51 80
14 20 0
22 32 51
14 20 0
16 22 36
16 22 36
21 30 36
0 0 0
21 30 36
21 30 36
31 44 62
21 30 36
31 44 62
28 39 62
27 38 51
38 54 72
26 36 36
30 43 51
25 35 0
31 44 62
22 32 51
35 50 72
22 32 51
0 0 0
16 22 36
16 22 36
32 45 72
22 32 51
0 0 0
21 30 36
27 38 51
28 39 62
28 39 62
22 32 51
0 0 0
0 0 0
0 0 0
0 0 0
0 0 0
0 0 0
0 0 0
0 0 0
0 0 0
0 0 0
0 0 0
0 0 0
0 0 0
0 0 0
0 0 0
0 0 0
0 0 0
0 0 0
0 0 0
0 0 0
0 0 0
0 0 0
0 0 0
0 0 0
0 0 0
0 0 0
0 0 0
0 0 0
0 0 0
0 0 0
0 0 0
0 0 0
0 0 0
0 0 0
0 0 0
0 0 0
0 0 0
0 0 0
0 0 0
0 0 0
0 0 0
0 0 0
0 0 0
0 0 0
0 0 0
0 0 0
0 0 0
0 0 0
0 0 0
0 0 0
0 0 0
0 0 0
0 0 0
0 0 0
0 0 0
0 0 0
0 0 0
0 0 0
0 0 0
0 0 0
0 0 0
0 0 0
0 0 0
0 0 0
0 0 0
0 0 0
0 0 0
0 0 0
0 0 0
0 0 0
0 0 0
0 0 0
0 0 0
0 0 0
0 0 0
0 0 0
0 0 0
0 0 0
0 0 0
0 0 0
0 0 0
0 0 0
0 0 0
0 0 0
0 0 0
0 0 0
0 0 0
0 0 0
0 0 0
0 0 0
0 0 0
0 0 0
0 0 0
0 0 0
0 0 0
0 0 0
0 0 0
0 0 0
0 0 0
0 0 0
0 0 0
0 0 0
0 0 0
0 0 0
0 0 0
0 0 0
0 0 0
0 0 0
0 0 0
0 0 0
0 0 0
0 0 0
0 0 0
0 0 0
0 0 0
0 0 0
0 0 0
0 0 0
0 0 0
0 0 0
0 0 0
0 0 0
0 0 0
0 0 0
0 0 0
0 0 0
0 0 0
0 0 0
0 0 0
0 0 0
0 0 0
0 0 0
0 0 0
0 0 0
0 0 0
0 0 0
0 0 0
0 0 0
0 0 0
0 0 0
0 0 0
0 0 0
0 0 0
0 0 0
0 0 0
0 0 0
0 0 0
0 0 0
0 0 0
0 0 0
0 0 0
0 0 0
0 0 0
0 0 0
0 0 0
0 0 0
0 0 0
0 0 0
0 0 0
0 0 0
0 0 0
0 0 0
0 0 0
0 0 0
0 0 0
0 0 0
0 0 0
0 0 0
0 0 0
0 0 0
0 0 0
0 0 0
0 0 0
0 0 0
0 0 0
0 0 0
0 0 0
0 0 0
0 0 0
0 0 0
0 0 0
0 0 0
0 0 0
0 0 0
0 0 0
0 0 0
0 0 0
0 0 0
0 0 0
0 0 0
0 0 0
0 0 0
0 0 0
0 0 0
0 0 0
0 0 0
0 0 0
0 0 0
0 0 0
0 0 0
0 0 0
0 0 0
0 0 0
0 0 0
0 0 0
0 0 0
0 0 0
0 0 0
0 0 0
0 0 0
0 0 0
0 0 0
0 0 0
0 0 0
0 0 0
0 0 0
0 0 0
0 0 0
0 0 0
0 0 0
0 0 0
0 0 0
0 0 0
0 0 0
0 0 0
0 0 0
0 0 0
0 0 0
0 0 0
0 0 0
0 0 0
0 0 0
0 0 0
0 0 0
0 0 0
0 0 0
0 0 0
0 0 0
0 0 0
0 0 0
0 0 0
0 0 0
0 0 0
0 0 0
0 0 0
0 0 0
0 0 0
0 0 0
0 0 0
0 0 0
0 0 0
0 0 0
0 0 0
0 0 0
0 0 0
0 0 0
0 0 0
0 0 0
0 0 0
0 0 0
0 0 0
0 0 0
0 0 0
0 0 0
0 0 0
0 0 0
0 0 0
0 0 0
0 0 0
0 0 0
0 0 0
0 0 0
0 0 0
0 0 0
0 0 0
0 0 0
0 0 0
0 0 0
0 0 0
0 0 0
0 0 0
0 0 0
0 0 0
0 0 0
0 0 0
0 0 0
0 0 0
0 0 0
0 0 0
22 32 51
28 39 62
16 22 36
32 45 72
22 32 51
28 39 62
16 22 36
22 32 51
30 43 51
22 32 51
21 30 36
22 32 51
27 38 51
26 36 36
14 20 0
16 22 36
16 22 36
27 38 51
22 32 51
21 30 36
38 55 80
16 22 36
16 22 36
16 22 36
22 32 51
0 0 0
22 32 51
16 22 36
27 38 51
0 0 0
0 0 0
26 36 36
14 20 0
32 45 72
32 45 72
28 39 62
16 22 36
0 0 0
31 44 62
16 22 36
14 20 0
20 28 0
20 28 0
0 0 0
27 38 51
21 30 36
16 22 36
0 0 0
0 0 0
22 32 51
20 28 0
34 49 62
26 36 36
26 36 36
20 28 0
0 0 0
22 32 51
22 32 51
22 32 51
31 44 62
31 44 62
16 22 36
33 48 51
22 32 51
22 32 51
16 22 36
22 32 51
16 22 36
16 22 36
22 32 51
21 30 36
22 32 51
29 42 36
27 38 51
26 36 36
0 0 0
0 0 0
0 0 0
22 32 51
0 0 0
21 30 36
21 30 36
21 30 36
30 43 51
27 38 51
14 20 0
22 32 51
27 38 51
31 44 62
27 38 51
16 22 36
16 22 36
14 20 0
28 39 62
16 22 36
34 49 62
14 20 0
16 22 36
16 22 36
22 32 51
16 22 36
27 38 51
38 55 80
30 43 51
22 32 51
0 0 0
16 22 36
16 22 36
28 39 62
16 22 36
35 50 72
0 0 0
0 0 0
0 0 0
0 0 0
0 0 0
0 0 0
0 0 0
0 0 0
0 0 0
0 0 0
0 0 0
0 0 0
0 0 0
0 0 0
0 0 0
0 0 0
0 0 0
0 0 0
0 0 0
0 0 0
0 0 0
0 0 0
0 0 0
0 0 0
0 0 0
0 0 0
0 0 0
0 0 0
0 0 0
0 0 0
0 0 0
0 0 0
0 0 0
0 0 0
0 0 0
0 0 0
0 0 0
0 0 0
0 0 0
0 0 0
0 0 0
0 0 0
0 0 0
0 0 0
0 0 0
0 0 0
0 0 0
0 0 0
0 0 0
0 0 0
0 0 0
0 0 0
0 0 0
0 0 0
0 0 0
0 0 0
0 0 0
0 0 0
0 0 0
0 0 0
0 0 0
0 0 0
0 0 0
0 0 0
0 0 0
0 0 0
0 0 0
0 0 0
0 0 0
0 0 0
0 0 0
0 0 0
0 0 0
0 0 0
0 0 0
0 0 0
0 0 0
0 0 0
0 0 0
0 0 0
0 0 0
0 0 0
0 0 0
0 0 0
0 0 0
0 0 0
0 0 0
0 0 0
0 0 0
0 0 0
0 0 0
0 0 0
0 0 0
0 0 0
0 0 0
0 0 0
0 0 0
0 0 0
0 0 0
0 0 0
0 0 0
0 0 0
0 0 0
0 0 0
0 0 0
0 0 0
0 0 0
0 0 0
0 0 0
0 0 0
0 0 0
0 0 0
0 0 0
0 0 0
0 0 0
0 0 0
0 0 0
0 0 0
0 0 0
0 0 0
0 0 0
0 0 0
0 0 0
0 0 0
0 0 0
0 0 0
0 0 0
0 0 0
0 0 0
0 0 0
0 0 0
0 0 0
0 0 0
0 0 0
0 0 0
0 0 0
0 0 0
0 0 0
0 0 0
0 0 0
0 0 0
0 0 0
0 0 0
0 0 0
0 0 0
0 0 0
0 0 0
0 0 0
0 0 0
0 0 0
0 0 0
0 0 0
0 0 0
0 0 0
0 0 0
0 0 0
0 0 0
0 0 0
0 0 0
0 0 0
0 0 0
0 0 0
0 0 0
0 0 0
0 0 0
0 0 0
0 0 0
0 0 0
0 0 0
0 0 0
0 0 0
0 0 0
0 0 0
0 0 0
0 0 0
0 0 0
0 0 0
0 0 0
0 0 0
0 0 0
0 0 0
0 0 0
0 0 0
0 0 0
0 0 0
0 0 0
0 0 0
0 0 0
0 0 0
0 0 0
0 0 0
0 0 0
0 0 0
0 0 0
0 0 0
0 0 0
0 0 0
0 0 0
0 0 0
0 0 0
0 0 0
0 0 0
0 0 0
0 0 0
0 0 0
0 0 0
0 0 0
0 0 0
0 0 0
0 0 0
0 0 0
0 0 0
0 0 0
0 0 0
0 0 0
0 0 0
0 0 0
0 0 0
0 0 0
0 0 0
0 0 0
0 0 0
0 0 0
0 0 0
0 0 0
0 0 0
0 0 0
0 0 0
0 0 0
0 0 0
0 0 0
0 0 0
0 0 0
0 0 0
0 0 0
0 0 0
0 0 0
0 0 0
0 0 0
0 0 0
0 0 0
0 0 0
0 0 0
0 0 0
0 0 0
0 0 0
0 0 0
0 0 0
0 0 0
0 0 0
0 0 0
0 0 0
0 0 0
0 0 0
0 0 0
0 0 0
0 0 0
0 0 0
0 0 0
0 0 0
0 0 0
0 0 0
0 0 0
0 0 0
0 0 0
0 0 0
0 0 0
0 0 0
0 0 0
0 0 0
0 0 0
0 0 0
0 0 0
0 0 0
0 0 0
0 0 0
0 0 0
0 0 0
0 0 0
0 0 0
0 0 0
0 0 0
0 0 0
0 0 0
0 0 0
0 0 0
0 0 0
0 0 0
0 0 0
22 32 51
32 45 72
27 38 51
21 30 36
16 22 36
32 45 72
22 32 51
22 32 51
22 32 51
35 50 72
22 32 51
20 28 0
0 0 0
27 38 51
22 31 36
27 38 51
14 20 0
21 30 36
38 54 72
16 22 36
27 38 51
28 39 62
28 39 62
14 20 0
16 22 36
16 22 36
32 45 72
28 40 0
27 38 51
22 32 51
16 22 36
16 22 36
14 20 0
32 45 72
21 30 36
35 50 72
21 30 36
0 0 0
20 28 0
0 0 0
0 0 0
16 22 36
0 0 0
16 22 36
16 22 36
22 32 51
0 0 0
14 20 0
14 20 0
22 32 51
16 22 36
16 22 36
0 0 0
26 36 36
14 20 0
16 22 36
0 0 0
27 38 51
21 30 36
16 22 36
21 30 36
30 43 51
16 22 36
14 20 0
26 36 36
0 0 0
0 0 0
14 20 0
0 0 0
26 36 36
16 24 36
32 45 72
32 45 72
22 32 51
21 30 36
14 20 0
21 30 36
16 22 36
0 0 0
14 20 0
14 20 0
14 20 0
21 30 36
27 38 51
0 0 0
26 36 36
30 43 51
21 30 36
28 39 62
30 43 51
25 35 0
14 20 0
14 20 0
36 51 80
21 30 36
16 22 36
21 30 36
22 32 51
0 0 0
16 22 36
0 0 0
14 20 0
30 43 51
28 39 62
21 30 36
22 32 51
22 32 51
32 45 72
28 39 62
16 22 36
32 45 72
16 22 36
0 0 0
0 0 0
0 0 0
0 0 0
0 0 0
0 0 0
0 0 0
0 0 0
0 0 0
0 0 0
0 0 0
0 0 0
0 0 0
0 0 0
0 0 0
0 0 0
0 0 0
0 0 0
0 0 0
0 0 0
0 0 0
0 0 0
0 0 0
0 0 0
0 0 0
0 0 0
0 0 0
0 0 0
0 0 0
0 0 0
0 0 0
0 0 0
0 0 0
0 0 0
0 0 0
0 0 0
0 0 0
0 0 0
0 0 0
0 0 0
0 0 0
0 0 0
0 0 0
0 0 0
0 0 0
0 0 0
0 0 0
0 0 0
0 0 0
0 0 0
0 0 0
0 0 0
0 0 0
0 0 0
0 0 0
0 0 0
0 0 0
0 0 0
0 0 0
0 0 0
0 0 0
0 0 0
0 0 0
0 0 0
0 0 0
0 0 0
0 0 0
0 0 0
0 0 0
0 0 0
0 0 0
0 0 0
0 0 0
0 0 0
0 0 0
0 0 0
0 0 0
0 0 0
0 0 0
0 0 0
0 0 0
0 0 0
0 0 0
0 0 0
0 0 0
0 0 0
0 0 0
0 0 0
0 0 0
0 0 0
0 0 0
0 0 0
0 0 0
0 0 0
0 0 0
0 0 0
0 0 0
0 0 0
0 0 0
0 0 0
0 0 0
0 0 0
0 0 0
0 0 0
0 0 0
0 0 0
0 0 0
0 0 0
0 0 0
0 0 0
0 0 0
0 0 0
0 0 0
0 0 0
0 0 0
0 0 0
0 0 0
0 0 0
0 0 0
0 0 0
0 0 0
0 0 0
0 0 0
0 0 0
0 0 0
0 0 0
0 0 0
0 0 0
0 0 0
0 0 0
0 0 0
0 0 0
0 0 0
0 0 0
0 0 0
0 0 0
0 0 0
0 0 0
0 0 0
0 0 0
0 0 0
0 0 0
0 0 0
0 0 0
0 0 0
0 0 0
0 0 0
0 0 0
0 0 0
0 0 0
0 0 0
0 0 0
0 0 0
0 0 0
0 0 0
0 0 0
0 0 0
0 0 0
0 0 0
0 0 0
0 0 0
0 0 0
0 0 0
0 0 0
0 0 0
0 0 0
0 0 0
0 0 0
0 0 0
0 0 0
0 0 0
0 0 0
0 0 0
0 0 0
0 0 0
0 0 0
0 0 0
0 0 0
0 0 0
0 0 0
0 0 0
0 0 0
0 0 0
0 0 0
0 0 0
0 0 0
0 0 0
0 0 0
0 0 0
0 0 0
0 0 0
0 0 0
0 0 0
0 0 0
0 0 0
0 0 0
0 0 0
0 0 0
0 0 0
0 0 0
0 0 0
0 0 0
0 0 0
0 0 0
0 0 0
0 0 0
0 0 0
0 0 0
0 0 0
0 0 0
0 0 0
0 0 0
0 0 0
0 0 0
0 0 0
0 0 0
0 0 0
0 0 0
0 0 0
0 0 0
0 0 0
0 0 0
0 0 0
0 0 0
0 0 0
0 0 0
0 0 0
0 0 0
0 0 0
0 0 0
0 0 0
0 0 0
0 0 0
0 0 0
0 0 0
0 0 0
0 0 0
0 0 0
0 0 0
0 0 0
0 0 0
0 0 0
0 0 0
0 0 0
0 0 0
0 0 0
0 0 0
0 0 0
0 0 0
0 0 0
0 0 0
0 0 0
0 0 0
0 0 0
0 0 0
0 0 0
0 0 0
0 0 0
0 0 0
0 0 0
0 0 0
0 0 0
0 0 0
0 0 0
0 0 0
0 0 0
0 0 0
0 0 0
0 0 0
0 0 0
0 0 0
0 0 0
0 0 0
0 0 0
0 0 0
0 0 0
0 0 0
0 0 0
0 0 0
0 0 0
0 0 0
0 0 0
0 0 0
0 0 0
0 0 0
0 0 0
0 0 0
28 39 62
22 32 51
16 22 36
28 39 62
16 22 36
32 45 72
0 0 0
22 32 51
30 43 51
27 38 51
21 30 36
22 32 51
27 38 51
26 36 36
14 20 0
0 0 0
14 20 0
16 22 36
27 38 51
16 22 36
35 50 72
16 22 36
16 22 36
22 32 51
0 0 0
0 0 0
22 32 51
16 22 36
22 32 51
0 0 0
0 0 0
26 36 36
21 30 36
28 39 62
32 45 72
28 39 62
16 22 36
16 22 36
31 44 62
0 0 0
20 28 0
20 28 0
14 20 0
16 22 36
0 0 0
21 30 36
16 22 36
14 20 0
0 0 0
20 28 0
20 28 0
27 38 51
27 38 51
14 20 0
20 28 0
0 0 0
16 22 36
28 39 62
35 50 72
16 22 36
27 38 51
20 28 0
31 44 62
0 0 0
30 43 51
14 20 0
0 0 0
0 0 0
22 32 51
21 30 36
22 32 51
29 42 36
0 0 0
31 44 62
20 28 0
0 0 0
0 0 0
0 0 0
16 22 36
21 30 36
21 30 36
26 36 36
21 30 36
22 32 51
14 20 0
27 38 51
14 20 0
30 43 51
31 44 62
16 22 36
22 32 51
14 20 0
16 22 36
0 0 0
16 22 36
30 43 51
16 22 36
21 30 36
16 22 36
16 22 36
16 22 36
30 43 51
34 49 62
28 39 62
0 0 0
0 0 0
16 22 36
16 22 36
22 31 36
27 38 51
22 32 51
31 44 62
22 32 51
28 39 62
0 0 0
0 0 0
0 0 0
0 0 0
0 0 0
0 0 0
0 0 0
0 0 0
0 0 0
0 0 0
0 0 0
0 0 0
0 0 0
0 0 0
0 0 0
0 0 0
0 0 0
0 0 0
0 0 0
0 0 0
0 0 0
0 0 0
0 0 0
0 0 0
0 0 0
0 0 0
0 0 0
0 0 0
0 0 0
0 0 0
0 0 0
0 0 0
0 0 0
0 0 0
0 0 0
0 0 0
0 0 0
0 0 0
0 0 0
0 0 0
0 0 0
0 0 0
0 0 0
0 0 0
0 0 0
0 0 0
0 0 0
0 0 0
0 0 0
0 0 0
0 0 0
0 0 0
0 0 0
0 0 0
0 0 0
0 0 0
0 0 0
0 0 0
0 0 0
0 0 0
0 0 0
0 0 0
0 0 0
0 0 0
0 0 0
0 0 0
0 0 0
0 0 0
0 0 0
0 0 0
0 0 0
0 0 0
0 0 0
0 0 0
0 0 0
0 0 0
0 0 0
0 0 0
0 0 0
0 0 0
0 0 0
0 0 0
0 0 0
0 0 0
0 0 0
0 0 0
0 0 0
0 0 0
0 0 0
0 0 0
0 0 0
0 0 0
0 0 0
0 0 0
0 0 0
0 0 0
0 0 0
0 0 0
0 0 0
0 0 0
0 0 0
0 0 0
0 0 0
0 0 0
0 0 0
0 0 0
0 0 0
0 0 0
0 0 0
0 0 0
0 0 0
0 0 0
0 0 0
0 0 0
0 0 0
0 0 0
0 0 0
0 0 0
0 0 0
0 0 0
0 0 0
0 0 0
0 0 0
0 0 0
0 0 0
0 0 0
0 0 0
0 0 0
0 0 0
0 0 0
0 0 0
0 0 0
0 0 0
0 0 0
0 0 0
0 0 0
0 0 0
0 0 0
0 0 0
0 0 0
0 0 0
0 0 0
0 0 0
0 0 0
0 0 0
0 0 0
0 0 0
0 0 0
0 0 0
0 0 0
0 0 0
0 0 0
0 0 0
0 0 0
0 0 0
0 0 0
0 0 0
0 0 0
0 0 0
0 0 0
0 0 0
0 0 0
0 0 0
0 0 0
0 0 0
0 0 0
0 0 0
0 0 0
0 0 0
0 0 0
0 0 0
0 0 0
0 0 0
0 0 0
0 0 0
0 0 0
0 0 0
0 0 0
0 0 0
0 0 0
0 0 0
0 0 0
0 0 0
0 0 0
0 0 0
0 0 0
0 0 0
0 0 0
0 0 0
0 0 0
0 0 0
0 0 0
0 0 0
0 0 0
0 0 0
0 0 0
0 0 0
0 0 0
0 0 0
0 0 0
0 0 0
0 0 0
0 0 0
0 0 0
0 0 0
0 0 0
0 0 0
0 0 0
0 0 0
0 0 0
0 0 0
0 0 0
0 0 0
0 0 0
0 0 0
0 0 0
0 0 0
0 0 0
0 0 0
0 0 0
0 0 0
0 0 0
0 0 0
0 0 0
0 0 0
0 0 0
0 0 0
0 0 0
0 0 0
0 0 0
0 0 0
0 0 0
0 0 0
0 0 0
0 0 0
0 0 0
0 0 0
0 0 0
0 0 0
0 0 0
0 0 0
0 0 0
0 0 0
0 0 0
0 0 0
0 0 0
0 0 0
0 0 0
0 0 0
0 0 0
0 0 0
0 0 0
0 0 0
0 0 0
0 0 0
0 0 0
0 0 0
0 0 0
0 0 0
0 0 0
0 0 0
0 0 0
0 0 0
0 0 0
0 0 0
0 0 0
0 0 0
0 0 0
0 0 0
0 0 0
0 0 0
0 0 0
0 0 0
0 0 0
0 0 0
0 0 0
0 0 0
0 0 0
0 0 0
0 0 0
0 0 0
0 0 0
0 0 0
0 0 0
0 0 0
0 0 0
21 30 36
22 32 51
32 45 72
31 44 62
16 22 36
32 45 72
21 30 36
0 0 0
20 28 0
0 0 0
28 39 62
22 31 36
21 30 36
14 20 0
27 38 51
40 57 72
0 0 0
21 30 36
32 46 72
28 39 62
21 30 36
0 0 0
21 30 36
39 56 88
28 40 0
30 43 51
22 32 51
0 0 0
16 22 36
14 20 0
22 32 51
27 38 51
32 45 72
21 30 36
14 20 0
14 20 0
0 0 0
0 0 0
0 0 0
16 22 36
22 32 51
16 22 36
0 0 0
14 20 0
16 22 36
21 30 36
16 22 36
16 22 36
22 32 51
0 0 0
26 36 36
14 20 0
16 22 36
16 22 36
29 42 36
16 22 36
0 0 0
26 36 36
29 42 36
27 38 51
0 0 0
26 36 36
16 22 36
21 30 36
0 0 0
16 22 36
34 49 62
0 0 0
32 45 72
22 32 51
16 22 36
21 30 36
20 28 0
16 22 36
0 0 0
14 20 0
0 0 0
14 20 0
26 36 36
0 0 0
22 32 51
14 20 0
20 28 0
26 36 36
16 22 36
30 43 51
20 28 0
20 28 0
20 28 0
28 39 62
30 43 51
0 0 0
14 20 0
0 0 0
16 22 36
16 22 36
16 22 36
16 22 36
16 22 36
22 32 51
21 30 36
27 38 51
26 36 36
16 22 36
16 22 36
30 43 51
16 22 36
22 32 51
27 38 51
35 50 72
22 32 51
27 38 51
28 39 62
0 0 0
21 30 36
0 0 0
0 0 0
0 0 0
0 0 0
0 0 0
0 0 0
0 0 0
0 0 0
0 0 0
0 0 0
0 0 0
0 0 0
0 0 0
0 0 0
0 0 0
0 0 0
0 0 0
0 0 0
0 0 0
0 0 0
0 0 0
0 0 0
0 0 0
0 0 0
0 0 0
0 0 0
0 0 0
0 0 0
0 0 0
0 0 0
0 0 0
0 0 0
0 0 0
0 0 0
0 0 0
0 0 0
0 0 0
0 0 0
0 0 0
0 0 0
0 0 0
0 0 0
0 0 0
0 0 0
0 0 0
0 0 0
0 0 0
0 0 0
0 0 0
0 0 0
0 0 0
0 0 0
0 0 0
0 0 0
0 0 0
0 0 0
0 0 0
0 0 0
0 0 0
0 0 0
0 0 0
0 0 0
0 0 0
0 0 0
0 0 0
0 0 0
0 0 0
0 0 0
0 0 0
0 0 0
0 0 0
0 0 0
0 0 0
0 0 0
0 0 0
0 0 0
0 0 0
0 0 0
0 0 0
0 0 0
0 0 0
0 0 0
0 0 0
0 0 0
0 0 0
0 0 0
0 0 0
0 0 0
0 0 0
0 0 0
0 0 0
0 0 0
0 0 0
0 0 0
0 0 0
0 0 0
0 0 0
0 0 0
0 0 0
0 0 0
0 0 0
0 0 0
0 0 0
0 0 0
0 0 0
0 0 0
0 0 0
0 0 0
0 0 0
0 0 0
0 0 0
0 0 0
0 0 0
0 0 0
0 0 0
0 0 0
0 0 0
0 0 0
0 0 0
0 0 0
0 0 0
0 0 0
0 0 0
0 0 0
0 0 0
0 0 0
0 0 0
0 0 0
0 0 0
0 0 0
0 0 0
0 0 0
0 0 0
0 0 0
0 0 0
0 0 0
0 0 0
0 0 0
0 0 0
0 0 0
0 0 0
0 0 0
0 0 0
0 0 0
0 0 0
0 0 0
0 0 0
0 0 0
0 0 0
0 0 0
0 0 0
0 0 0
0 0 0
0 0 0
0 0 0
0 0 0
0 0 0
0 0 0
0 0 0
0 0 0
0 0 0
0 0 0
0 0 0
0 0 0
0 0 0
0 0 0
0 0 0
0 0 0
0 0 0
0 0 0
0 0 0
0 0 0
0 0 0
0 0 0
0 0 0
0 0 0
0 0 0
0 0 0
0 0 0
0 0 0
0 0 0
0 0 0
0 0 0
0 0 0
0 0 0
0 0 0
0 0 0
0 0 0
0 0 0
0 0 0
0 0 0
0 0 0
0 0 0
0 0 0
0 0 0
0 0 0
0 0 0
0 0 0
0 0 0
0 0 0
0 0 0
0 0 0
0 0 0
0 0 0
0 0 0
0 0 0
0 0 0
0 0 0
0 0 0
0 0 0
0 0 0
0 0 0
0 0 0
0 0 0
0 0 0
0 0 0
0 0 0
0 0 0
0 0 0
0 0 0
0 0 0
0 0 0
0 0 0
0 0 0
0 0 0
0 0 0
0 0 0
0 0 0
0 0 0
0 0 0
0 0 0
0 0 0
0 0 0
0 0 0
0 0 0
0 0 0
0 0 0
0 0 0
0 0 0
0 0 0
0 0 0
0 0 0
0 0 0
0 0 0
0 0 0
0 0 0
0 0 0
0 0 0
0 0 0
0 0 0
0 0 0
0 0 0
0 0 0
0 0 0
0 0 0
0 0 0
0 0 0
0 0 0
0 0 0
0 0 0
0 0 0
0 0 0
0 0 0
0 0 0
0 0 0
0 0 0
0 0 0
0 0 0
0 0 0
0 0 0
0 0 0
0 0 0
0 0 0
0 0 0
0 0 0
0 0 0
0 0 0
0 0 0
0 0 0
0 0 0
0 0 0
0 0 0
0 0 0
0 0 0
16 22 36
22 32 51
16 22 36
22 32 51
16 22 36
28 39 62
21 30 36
22 32 51
26 36 36
27 38 51
16 22 36
28 39 62
21 30 36
21 30 36
14 20 0
0 0 0
0 0 0
21 30 36
22 32 51
0 0 0
32 45 72
16 22 36
16 22 36
16 22 36
16 22 36
0 0 0
22 32 51
16 22 36
16 22 36
0 0 0
14 20 0
26 36 36
21 30 36
28 39 62
32 45 72
22 32 51
0 0 0
16 22 36
28 39 62
0 0 0
20 28 0
20 28 0
14 20 0
16 22 36
0 0 0
21 30 36
16 22 36
14 20 0
14 20 0
14 20 0
25 35 0
22 32 51
21 30 36
14 20 0
20 28 0
0 0 0
0 0 0
28 39 62
31 44 62
22 32 51
20 28 0
25 35 0
27 38 51
14 20 0
27 38 51
14 20 0
0 0 0
0 0 0
21 30 36
21 30 36
0 0 0
29 42 36
14 20 0
34 49 62
14 20 0
0 0 0
0 0 0
0 0 0
16 22 36
21 30 36
14 20 0
30 43 51
27 38 51
0 0 0
20 28 0
22 32 51
21 30 36
29 42 36
21 30 36
16 22 36
0 0 0
20 28 0
0 0 0
0 0 0
20 28 0
0 0 0
16 22 36
16 22 36
0 0 0
0 0 0
21 30 36
25 35 0
16 22 36
16 22 36
0 0 0
0 0 0
0 0 0
16 22 36
0 0 0
26 36 36
21 30 36
14 20 0
27 38 51
22 32 51
22 32 51
21 30 36
0 0 0
0 0 0
0 0 0
0 0 0
0 0 0
0 0 0
0 0 0
0 0 0
0 0 0
0 0 0
0 0 0
0 0 0
0 0 0
0 0 0
0 0 0
0 0 0
0 0 0
0 0 0
0 0 0
0 0 0
0 0 0
0 0 0
0 0 0
0 0 0
0 0 0
0 0 0
0 0 0
0 0 0
0 0 0
0 0 0
0 0 0
0 0 0
0 0 0
0 0 0
0 0 0
0 0 0
0 0 0
0 0 0
0 0 0
0 0 0
0 0 0
0 0 0
0 0 0
0 0 0
0 0 0
0 0 0
0 0 0
0 0 0
0 0 0
0 0 0
0 0 0
0 0 0
0 0 0
0 0 0
0 0 0
0 0 0
0 0 0
0 0 0
0 0 0
0 0 0
0 0 0
0 0 0
0 0 0
0 0 0
0 0 0
0 0 0
0 0 0
0 0 0
0 0 0
0 0 0
0 0 0
0 0 0
0 0 0
0 0 0
0 0 0
0 0 0
0 0 0
0 0 0
0 0 0
0 0 0
0 0 0
0 0 0
0 0 0
0 0 0
0 0 0
0 0 0
0 0 0
0 0 0
0 0 0
0 0 0
0 0 0
0 0 0
0 0 0
0 0 0
0 0 0
0 0 0
0 0 0
0 0 0
0 0 0
0 0 0
0 0 0
0 0 0
0 0 0
0 0 0
0 0 0
0 0 0
0 0 0
0 0 0
0 0 0
0 0 0
0 0 0
0 0 0
0 0 0
0 0 0
0 0 0
0 0 0
0 0 0
0 0 0
0 0 0
0 0 0
0 0 0
0 0 0
0 0 0
0 0 0
0 0 0
0 0 0
0 0 0
0 0 0
0 0 0
0 0 0
0 0 0
0 0 0
0 0 0
0 0 0
0 0 0
0 0 0
0 0 0
0 0 0
0 0 0
0 0 0
0 0 0
0 0 0
0 0 0
0 0 0
0 0 0
0 0 0
0 0 0
0 0 0
0 0 0
0 0 0
0 0 0
0 0 0
0 0 0
0 0 0
0 0 0
0 0 0
0 0 0
0 0 0
0 0 0
0 0 0
0 0 0
0 0 0
0 0 0
0 0 0
0 0 0
0 0 0
0 0 0
0 0 0
0 0 0
0 0 0
0 0 0
0 0 0
0 0 0
0 0 0
0 0 0
0 0 0
0 0 0
0 0 0
0 0 0
0 0 0
0 0 0
0 0 0
0 0 0
0 0 0
0 0 0
0 0 0
0 0 0
0 0 0
0 0 0
0 0 0
0 0 0
0 0 0
0 0 0
0 0 0
0 0 0
0 0 0
0 0 0
0 0 0
0 0 0
0 0 0
0 0 0
0 0 0
0 0 0
0 0 0
0 0 0
0 0 0
0 0 0
0 0 0
0 0 0
0 0 0
0 0 0
0 0 0
0 0 0
0 0 0
0 0 0
0 0 0
0 0 0
0 0 0
0 0 0
0 0 0
0 0 0
0 0 0
0 0 0
0 0 0
0 0 0
0 0 0
0 0 0
0 0 0
0 0 0
0 0 0
0 0 0
0 0 0
0 0 0
0 0 0
0 0 0
0 0 0
0 0 0
0 0 0
0 0 0
0 0 0
0 0 0
0 0 0
0 0 0
0 0 0
0 0 0
0 0 0
0 0 0
0 0 0
0 0 0
0 0 0
0 0 0
0 0 0
0 0 0
0 0 0
0 0 0
0 0 0
0 0 0
0 0 0
0 0 0
0 0 0
0 0 0
0 0 0
0 0 0
0 0 0
0 0 0
0 0 0
0 0 0
0 0 0
0 0 0
0 0 0
0 0 0
0 0 0
0 0 0
0 0 0
0 0 0
0 0 0
0 0 0
0 0 0
0 0 0
0 0 0
0 0 0
0 0 0
0 0 0
0 0 0
31 44 62
27 38 51
22 32 51
22 32 51
16 22 36
0 0 0
20 28 0
16 22 36
22 32 51
16 24 36
26 36 36
0 0 0
34 49 62
26 36 36
0 0 0
27 38 51
27 39 51
14 20 0
0 0 0
0 0 0
26 36 36
31 44 62
25 35 0
20 28 0
16 22 36
0 0 0
16 22 36
14 20 0
28 39 62
21 30 36
28 39 62
14 20 0
14 20 0
21 30 36
14 20 0
0 0 0
21 30 36
27 38 51
4 8 0
16 22 36
0 0 0
15 22 0
21 30 36
16 22 36
16 22 36
22 32 51
22 32 51
0 0 0
29 42 36
0 0 0
16 22 36
27 38 51
20 28 0
22 32 51
0 0 0
26 36 36
30 43 51
14 20 0
0 0 0
27 38 51
0 0 0
21 30 36
0 0 0
22 32 51
30 43 51
16 22 36
16 22 36
22 32 51
0 0 0
20 28 0
14 20 0
27 38 51
0 0 0
14 20 0
14 20 0
14 20 0
21 30 36
16 22 36
16 22 36
25 35 0
30 43 51
27 38 51
21 30 36
26 36 36
25 35 0
14 20 0
21 30 36
27 38 51
14 20 0
14 20 0
0 0 0
0 0 0
0 0 0
16 22 36
16 22 36
0 0 0
22 32 51
16 22 36
20 28 0
31 44 62
21 30 36
22 32 51
30 43 51
14 20 0
26 37 36
22 32 51
26 36 36
0 0 0
0 0 0
21 30 36
16 22 36
22 32 51
27 38 51
16 22 36
28 39 62
16 22 36
0 0 0
0 0 0
0 0 0
0 0 0
0 0 0
0 0 0
0 0 0
0 0 0
0 0 0
0 0 0
0 0 0
0 0 0
0 0 0
0 0 0
0 0 0
0 0 0
0 0 0
0 0 0
0 0 0
0 0 0
0 0 0
0 0 0
0 0 0
0 0 0
0 0 0
0 0 0
0 0 0
0 0 0
0 0 0
0 0 0
0 0 0
0 0 0
0 0 0
0 0 0
0 0 0
0 0 0
0 0 0
0 0 0
0 0 0
0 0 0
0 0 0
0 0 0
0 0 0
0 0 0
0 0 0
0 0 0
0 0 0
0 0 0
0 0 0
0 0 0
0 0 0
0 0 0
0 0 0
0 0 0
0 0 0
0 0 0
0 0 0
0 0 0
0 0 0
0 0 0
0 0 0
0 0 0
0 0 0
0 0 0
0 0 0
0 0 0
0 0 0
0 0 0
0 0 0
0 0 0
0 0 0
0 0 0
0 0 0
0 0 0
0 0 0
0 0 0
0 0 0
0 0 0
0 0 0
0 0 0
0 0 0
0 0 0
0 0 0
0 0 0
0 0 0
0 0 0
0 0 0
0 0 0
0 0 0
0 0 0
0 0 0
0 0 0
0 0 0
0 0 0
0 0 0
0 0 0
0 0 0
0 0 0
0 0 0
0 0 0
0 0 0
0 0 0
0 0 0
0 0 0
0 0 0
0 0 0
0 0 0
0 0 0
0 0 0
0 0 0
0 0 0
0 0 0
0 0 0
0 0 0
0 0 0
0 0 0
0 0 0
0 0 0
0 0 0
0 0 0
0 0 0
0 0 0
0 0 0
0 0 0
0 0 0
0 0 0
0 0 0
0 0 0
0 0 0
0 0 0
0 0 0
0 0 0
0 0 0
0 0 0
0 0 0
0 0 0
0 0 0
0 0 0
0 0 0
0 0 0
0 0 0
0 0 0
0 0 0
0 0 0
0 0 0
0 0 0
0 0 0
0 0 0
0 0 0
0 0 0
0 0 0
0 0 0
0 0 0
0 0 0
0 0 0
0 0 0
0 0 0
0 0 0
0 0 0
0 0 0
0 0 0
0 0 0
0 0 0
0 0 0
0 0 0
0 0 0
0 0 0
0 0 0
0 0 0
0 0 0
0 0 0
0 0 0
0 0 0
0 0 0
0 0 0
0 0 0
0 0 0
0 0 0
0 0 0
0 0 0
0 0 0
0 0 0
0 0 0
0 0 0
0 0 0
0 0 0
0 0 0
0 0 0
0 0 0
0 0 0
0 0 0
0 0 0
0 0 0
0 0 0
0 0 0
0 0 0
0 0 0
0 0 0
0 0 0
0 0 0
0 0 0
0 0 0
0 0 0
0 0 0
0 0 0
0 0 0
0 0 0
0 0 0
0 0 0
0 0 0
0 0 0
0 0 0
0 0 0
0 0 0
0 0 0
0 0 0
0 0 0
0 0 0
0 0 0
0 0 0
0 0 0
0 0 0
0 0 0
0 0 0
0 0 0
0 0 0
0 0 0
0 0 0
0 0 0
0 0 0
0 0 0
0 0 0
0 0 0
0 0 0
0 0 0
0 0 0
0 0 0
0 0 0
0 0 0
0 0 0
0 0 0
0 0 0
0 0 0
0 0 0
0 0 0
0 0 0
0 0 0
0 0 0
0 0 0
0 0 0
0 0 0
0 0 0
0 0 0
0 0 0
0 0 0
0 0 0
0 0 0
0 0 0
0 0 0
0 0 0
0 0 0
0 0 0
0 0 0
0 0 0
0 0 0
0 0 0
0 0 0
0 0 0
0 0 0
0 0 0
0 0 0
0 0 0
0 0 0
0 0 0
0 0 0
0 0 0
0 0 0
0 0 0
0 0 0
0 0 0
0 0 0
0 0 0
0 0 0
16 22 36
16 22 36
27 38 51
22 32 51
0 0 0
22 32 51
27 38 51
16 22 36
21 30 36
21 30 36
22 32 51
21 30 36
14 20 0
21 30 36
20 28 0
0 0 0
0 0 0
14 20 0
30 43 51
0 0 0
22 32 51
16 22 36
16 22 36
16 22 36
16 22 36
0 0 0
22 32 51
21 30 36
14 20 0
14 20 0
14 20 0
25 35 0
21 30 36
0 0 0
32 45 72
16 22 36
0 0 0
22 32 51
22 32 51
0 0 0
25 35 0
14 20 0
14 20 0
16 24 36
21 30 36
0 0 0
16 22 36
14 20 0
14 20 0
21 30 36
29 42 36
14 20 0
21 30 36
25 35 0
0 0 0
16 22 36
28 39 62
27 38 51
0 0 0
30 43 51
14 20 0
25 35 0
0 0 0
26 36 36
14 20 0
0 0 0
0 0 0
0 0 0
26 36 36
16 22 36
26 36 36
14 20 0
30 43 51
25 35 0
0 0 0
0 0 0
0 0 0
0 0 0
14 20 0
21 30 36
30 43 51
14 20 0
16 22 36
14 20 0
21 30 36
14 20 0
27 38 51
14 20 0
14 20 0
16 22 36
20 28 0
0 0 0
14 20 0
25 35 0
0 0 0
16 22 36
16 22 36
0 0 0
0 0 0
21 30 36
20 28 0
30 43 51
16 22 36
0 0 0
16 22 36
0 0 0
0 0 0
21 30 36
26 36 36
21 30 36
14 20 0
14 20 0
0 0 0
32 45 72
26 36 36
0 0 0
16 22 36
27 38 51
0 0 0
0 0 0
0 0 0
0 0 0
0 0 0
0 0 0
0 0 0
0 0 0
0 0 0
0 0 0
0 0 0
0 0 0
0 0 0
0 0 0
0 0 0
0 0 0
0 0 0
0 0 0
0 0 0
0 0 0
0 0 0
0 0 0
0 0 0
0 0 0
0 0 0
0 0 0
0 0 0
0 0 0
0 0 0
0 0 0
0 0 0
0 0 0
0 0 0
0 0 0
0 0 0
0 0 0
0 0 0
0 0 0
0 0 0
0 0 0
0 0 0
0 0 0
0 0 0
0 0 0
0 0 0
0 0 0
0 0 0
0 0 0
0 0 0
0 0 0
0 0 0
0 0 0
0 0 0
0 0 0
0 0 0
0 0 0
0 0 0
0 0 0
0 0 0
0 0 0
0 0 0
0 0 0
0 0 0
0 0 0
0 0 0
0 0 0
0 0 0
0 0 0
0 0 0
0 0 0
0 0 0
0 0 0
0 0 0
0 0 0
0 0 0
0 0 0
0 0 0
0 0 0
0 0 0
0 0 0
0 0 0
0 0 0
0 0 0
0 0 0
0 0 0
0 0 0
0 0 0
0 0 0
0 0 0
0 0 0
0 0 0
0 0 0
0 0 0
0 0 0
0 0 0
0 0 0
0 0 0
0 0 0
0 0 0
0 0 0
0 0 0
0 0 0
0 0 0
0 0 0
0 0 0
0 0 0
0 0 0
0 0 0
0 0 0
0 0 0
0 0 0
0 0 0
0 0 0
0 0 0
0 0 0
0 0 0
0 0 0
0 0 0
0 0 0
0 0 0
0 0 0
0 0 0
0 0 0
0 0 0
0 0 0
0 0 0
0 0 0
0 0 0
0 0 0
0 0 0
0 0 0
0 0 0
0 0 0
0 0 0
0 0 0
0 0 0
0 0 0
0 0 0
0 0 0
0 0 0
0 0 0
0 0 0
0 0 0
0 0 0
0 0 0
0 0 0
0 0 0
0 0 0
0 0 0
0 0 0
0 0 0
0 0 0
0 0 0
0 0 0
0 0 0
0 0 0
0 0 0
0 0 0
0 0 0
0 0 0
0 0 0
0 0 0
0 0 0
0 0 0
0 0 0
0 0 0
0 0 0
0 0 0
0 0 0
0 0 0
0 0 0
0 0 0
0 0 0
0 0 0
0 0 0
0 0 0
0 0 0
0 0 0
0 0 0
0 0 0
0 0 0
0 0 0
0 0 0
0 0 0
0 0 0
0 0 0
0 0 0
0 0 0
0 0 0
0 0 0
0 0 0
0 0 0
0 0 0
0 0 0
0 0 0
0 0 0
0 0 0
0 0 0
0 0 0
0 0 0
0 0 0
0 0 0
0 0 0
0 0 0
0 0 0
0 0 0
0 0 0
0 0 0
0 0 0
0 0 0
0 0 0
0 0 0
0 0 0
0 0 0
0 0 0
0 0 0
0 0 0
0 0 0
0 0 0
0 0 0
0 0 0
0 0 0
0 0 0
0 0 0
0 0 0
0 0 0
0 0 0
0 0 0
0 0 0
0 0 0
0 0 0
0 0 0
0 0 0
0 0 0
0 0 0
0 0 0
0 0 0
0 0 0
0 0 0
0 0 0
0 0 0
0 0 0
0 0 0
0 0 0
0 0 0
0 0 0
0 0 0
0 0 0
0 0 0
0 0 0
0 0 0
0 0 0
0 0 0
0 0 0
0 0 0
0 0 0
0 0 0
0 0 0
0 0 0
0 0 0
0 0 0
0 0 0
0 0 0
0 0 0
0 0 0
0 0 0
0 0 0
0 0 0
0 0 0
0 0 0
0 0 0
0 0 0
0 0 0
0 0 0
0 0 0
0 0 0
0 0 0
0 0 0
0 0 0
0 0 0
0 0 0
0 0 0
28 39 62
16 22 36
0 0 0
14 20 0
30 43 51
16 22 36
21 30 36
26 36 36
0 0 0
21 30 36
35 50 72
0 0 0
14 20 0
31 44 62
4 8 0
14 20 0
14 20 0
20 28 0
28 39 62
33 46 36
29 42 36
16 22 36
0 0 0
16 22 36
14 20 0
22 32 51
21 30 36
22 32 51
16 24 36
14 20 0
21 30 36
14 20 0
16 22 36
21 30 36
27 38 51
0 0 0
21 30 36
0 0 0
14 20 0
22 32 51
0 0 0
0 0 0
0 0 0
22 32 51
0 0 0
33 48 51
0 0 0
28 39 62
30 43 51
25 35 0
16 22 36
16 22 36
20 28 0
30 43 51
14 20 0
0 0 0
14 20 0
22 32 51
14 20 0
0 0 0
22 32 51
30 44 51
0 0 0
0 0 0
0 0 0
0 0 0
21 30 36
14 20 0
21 30 36
16 22 36
21 30 36
20 28 0
0 0 0
21 30 36
0 0 0
21 30 36
20 28 0
20 28 0
28 39 62
26 36 36
20 28 0
0 0 0
0 0 0
22 32 51
14 20 0
0 0 0
14 20 0
0 0 0
0 0 0
0 0 0
16 22 36
0 0 0
22 32 51
0 0 0
4 9 0
0 0 0
20 28 0
0 0 0
31 44 62
14 20 0
14 20 0
26 37 36
21 30 36
14 20 0
28 39 62
16 22 36
0 0 0
0 0 0
27 38 51
21 30 36
26 36 36
21 30 36
26 36 36
28 40 62
22 32 51
0 0 0
21 30 36
0 0 0
14 20 0
0 0 0
0 0 0
0 0 0
0 0 0
0 0 0
0 0 0
0 0 0
0 0 0
0 0 0
0 0 0
0 0 0
0 0 0
0 0 0
0 0 0
0 0 0
0 0 0
0 0 0
0 0 0
0 0 0
0 0 0
0 0 0
0 0 0
0 0 0
0 0 0
0 0 0
0 0 0
0 0 0
0 0 0
0 0 0
0 0 0
0 0 0
0 0 0
0 0 0
0 0 0
0 0 0
0 0 0
0 0 0
0 0 0
0 0 0
0 0 0
0 0 0
0 0 0
0 0 0
0 0 0
0 0 0
0 0 0
0 0 0
0 0 0
0 0 0
0 0 0
0 0 0
0 0 0
0 0 0
0 0 0
0 0 0
0 0 0
0 0 0
0 0 0
0 0 0
0 0 0
0 0 0
0 0 0
0 0 0
0 0 0
0 0 0
0 0 0
0 0 0
0 0 0
0 0 0
0 0 0
0 0 0
0 0 0
0 0 0
0 0 0
0 0 0
0 0 0
0 0 0
0 0 0
0 0 0
0 0 0
0 0 0
0 0 0
0 0 0
0 0 0
0 0 0
0 0 0
0 0 0
0 0 0
0 0 0
0 0 0
0 0 0
0 0 0
0 0 0
0 0 0
0 0 0
0 0 0
0 0 0
0 0 0
0 0 0
0 0 0
0 0 0
0 0 0
0 0 0
0 0 0
0 0 0
0 0 0
0 0 0
0 0 0
0 0 0
0 0 0
0 0 0
0 0 0
0 0 0
0 0 0
0 0 0
0 0 0
0 0 0
0 0 0
0 0 0
0 0 0
0 0 0
0 0 0
0 0 0
0 0 0
0 0 0
0 0 0
0 0 0
0 0 0
0 0 0
0 0 0
0 0 0
0 0 0
0 0 0
0 0 0
0 0 0
0 0 0
0 0 0
0 0 0
0 0 0
0 0 0
0 0 0
0 0 0
0 0 0
0 0 0
0 0 0
0 0 0
0 0 0
0 0 0
0 0 0
0 0 0
0 0 0
0 0 0
0 0 0
0 0 0
0 0 0
0 0 0
0 0 0
0 0 0
0 0 0
0 0 0
0 0 0
0 0 0
0 0 0
0 0 0
0 0 0
0 0 0
0 0 0
0 0 0
0 0 0
0 0 0
0 0 0
0 0 0
0 0 0
0 0 0
0 0 0
0 0 0
0 0 0
0 0 0
0 0 0
0 0 0
0 0 0
0 0 0
0 0 0
0 0 0
0 0 0
0 0 0
0 0 0
0 0 0
0 0 0
0 0 0
0 0 0
0 0 0
0 0 0
0 0 0
0 0 0
0 0 0
0 0 0
0 0 0
0 0 0
0 0 0
0 0 0
0 0 0
0 0 0
0 0 0
0 0 0
0 0 0
0 0 0
0 0 0
0 0 0
0 0 0
0 0 0
0 0 0
0 0 0
0 0 0
0 0 0
0 0 0
0 0 0
0 0 0
0 0 0
0 0 0
0 0 0
0 0 0
0 0 0
0 0 0
0 0 0
0 0 0
0 0 0
0 0 0
0 0 0
0 0 0
0 0 0
0 0 0
0 0 0
0 0 0
0 0 0
0 0 0
0 0 0
0 0 0
0 0 0
0 0 0
0 0 0
0 0 0
0 0 0
0 0 0
0 0 0
0 0 0
0 0 0
0 0 0
0 0 0
0 0 0
0 0 0
0 0 0
0 0 0
0 0 0
0 0 0
0 0 0
0 0 0
0 0 0
0 0 0
0 0 0
0 0 0
0 0 0
0 0 0
0 0 0
0 0 0
0 0 0
0 0 0
0 0 0
0 0 0
0 0 0
0 0 0
0 0 0
0 0 0
0 0 0
0 0 0
0 0 0
0 0 0
0 0 0
0 0 0
0 0 0
21 30 36
21 30 36
27 38 51
0 0 0
22 32 51
16 22 36
31 44 62
0 0 0
22 32 51
20 28 0
16 22 36
21 30 36
14 20 0
14 20 0
26 36 36
0 0 0
0 0 0
14 20 0
21 30 36
22 32 51
22 32 51
16 22 36
16 22 36
16 22 36
16 22 36
0 0 0
22 32 51
14 20 0
14 20 0
14 20 0
14 20 0
20 28 0
26 36 36
0 0 0
32 45 72
16 22 36
0 0 0
16 22 36
28 39 62
0 0 0
25 35 0
0 0 0
14 20 0
16 24 36
21 30 36
16 22 36
16 22 36
14 20 0
14 20 0
21 30 36
20 28 0
14 20 0
21 30 36
25 35 0
14 20 0
21 30 36
31 44 62
27 38 51
0 0 0
33 48 51
20 28 0
20 28 0
0 0 0
26 36 36
14 20 0
0 0 0
0 0 0
0 0 0
21 30 36
16 22 36
25 35 0
14 20 0
26 36 36
14 20 0
14 20 0
0 0 0
0 0 0
0 0 0
21 30 36
14 20 0
30 43 51
14 20 0
0 0 0
14 20 0
0 0 0
21 30 36
20 28 0
0 0 0
14 20 0
0 0 0
20 28 0
14 20 0
0 0 0
25 35 0
0 0 0
14 20 0
16 22 36
14 20 0
0 0 0
26 36 36
33 48 51
0 0 0
0 0 0
16 22 36
0 0 0
0 0 0
0 0 0
26 36 36
27 38 51
0 0 0
20 28 0
0 0 0
16 22 36
33 48 51
0 0 0
16 22 36
22 31 36
16 22 36
21 30 36
0 0 0
0 0 0
0 0 0
0 0 0
0 0 0
0 0 0
0 0 0
0 0 0
0 0 0
0 0 0
0 0 0
0 0 0
0 0 0
0 0 0
0 0 0
0 0 0
0 0 0
0 0 0
0 0 0
0 0 0
0 0 0
0 0 0
0 0 0
0 0 0
0 0 0
0 0 0
0 0 0
0 0 0
0 0 0
0 0 0
0 0 0
0 0 0
0 0 0
0 0 0
0 0 0
0 0 0
0 0 0
0 0 0
0 0 0
0 0 0
0 0 0
0 0 0
0 0 0
0 0 0
0 0 0
0 0 0
0 0 0
0 0 0
0 0 0
0 0 0
0 0 0
0 0 0
0 0 0
0 0 0
0 0 0
0 0 0
0 0 0
0 0 0
0 0 0
0 0 0
0 0 0
0 0 0
0 0 0
0 0 0
0 0 0
0 0 0
0 0 0
0 0 0
0 0 0
0 0 0
0 0 0
0 0 0
0 0 0
0 0 0
0 0 0
0 0 0
0 0 0
0 0 0
0 0 0
0 0 0
0 0 0
0 0 0
0 0 0
0 0 0
0 0 0
0 0 0
0 0 0
0 0 0
0 0 0
0 0 0
0 0 0
0 0 0
0 0 0
0 0 0
0 0 0
0 0 0
0 0 0
0 0 0
0 0 0
0 0 0
0 0 0
0 0 0
0 0 0
0 0 0
0 0 0
0 0 0
0 0 0
0 0 0
0 0 0
0 0 0
0 0 0
0 0 0
0 0 0
0 0 0
0 0 0
0 0 0
0 0 0
0 0 0
0 0 0
0 0 0
0 0 0
0 0 0
0 0 0
0 0 0
0 0 0
0 0 0
0 0 0
0 0 0
0 0 0
0 0 0
0 0 0
0 0 0
0 0 0
0 0 0
0 0 0
0 0 0
0 0 0
0 0 0
0 0 0
0 0 0
0 0 0
0 0 0
0 0 0
0 0 0
0 0 0
0 0 0
0 0 0
0 0 0
0 0 0
0 0 0
0 0 0
0 0 0
0 0 0
0 0 0
0 0 0
0 0 0
0 0 0
0 0 0
0 0 0
0 0 0
0 0 0
0 0 0
0 0 0
0 0 0
0 0 0
0 0 0
0 0 0
0 0 0
0 0 0
0 0 0
0 0 0
0 0 0
0 0 0
0 0 0
0 0 0
0 0 0
0 0 0
0 0 0
0 0 0
0 0 0
0 0 0
0 0 0
0 0 0
0 0 0
0 0 0
0 0 0
0 0 0
0 0 0
0 0 0
0 0 0
0 0 0
0 0 0
0 0 0
0 0 0
0 0 0
0 0 0
0 0 0
0 0 0
0 0 0
0 0 0
0 0 0
0 0 0
0 0 0
0 0 0
0 0 0
0 0 0
0 0 0
0 0 0
0 0 0
0 0 0
0 0 0
0 0 0
0 0 0
0 0 0
0 0 0
0 0 0
0 0 0
0 0 0
0 0 0
0 0 0
0 0 0
0 0 0
0 0 0
0 0 0
0 0 0
0 0 0
0 0 0
0 0 0
0 0 0
0 0 0
0 0 0
0 0 0
0 0 0
0 0 0
0 0 0
0 0 0
0 0 0
0 0 0
0 0 0
0 0 0
0 0 0
0 0 0
0 0 0
0 0 0
0 0 0
0 0 0
0 0 0
0 0 0
0 0 0
0 0 0
0 0 0
0 0 0
0 0 0
0 0 0
0 0 0
0 0 0
0 0 0
0 0 0
0 0 0
0 0 0
0 0 0
0 0 0
0 0 0
0 0 0
0 0 0
0 0 0
0 0 0
0 0 0
0 0 0
0 0 0
0 0 0
0 0 0
0 0 0
0 0 0
0 0 0
0 0 0
0 0 0
0 0 0
0 0 0
0 0 0
0 0 0
22 32 51
0 0 0
27 38 51
0 0 0
14 20 0
20 28 0
21 30 36
16 22 36
31 44 62
0 0 0
14 20 0
31 45 62
0 0 0
14 20 0
14 20 0
20 28 0
32 45 72
33 46 36
29 42 36
0 0 0
0 0 0
0 0 0
14 20 0
0 0 0
21 30 36
16 22 36
16 22 36
14 20 0
21 30 36
14 20 0
16 22 36
27 38 51
26 36 36
0 0 0
14 20 0
20 28 0
0 0 0
22 32 51
0 0 0
14 20 0
0 0 0
16 22 36
0 0 0
29 42 36
14 20 0
28 39 62
29 42 36
26 36 36
16 22 36
0 0 0
29 42 36
16 22 36
0 0 0
0 0 0
27 38 51
0 0 0
26 36 36
0 0 0
27 38 51
27 39 51
0 0 0
0 0 0
0 0 0
14 20 0
16 22 36
21 30 36
21 30 36
0 0 0
26 36 36
20 28 0
21 30 36
0 0 0
22 32 51
20 28 0
20 28 0
20 28 0
27 38 51
26 36 36
20 28 0
16 24 36
0 0 0
22 32 51
0 0 0
0 0 0
14 20 0
0 0 0
0 0 0
0 0 0
14 20 0
16 22 36
27 38 51
0 0 0
14 20 0
21 30 36
0 0 0
0 0 0
16 22 36
26 36 36
26 36 36
26 36 36
0 0 0
0 0 0
16 22 36
22 32 51
14 20 0
21 30 36
21 30 36
14 20 0
20 28 0
14 20 0
16 22 36
22 32 51
16 22 36
20 28 0
22 32 51
16 22 36
22 32 51
26 36 36
0 0 0
0 0 0
16 22 36
0 0 0
0 0 0
0 0 0
0 0 0
0 0 0
0 0 0
0 0 0
0 0 0
0 0 0
0 0 0
0 0 0
0 0 0
0 0 0
0 0 0
0 0 0
0 0 0
0 0 0
0 0 0
0 0 0
0 0 0
0 0 0
0 0 0
0 0 0
0 0 0
0 0 0
0 0 0
0 0 0
0 0 0
0 0 0
0 0 0
0 0 0
0 0 0
0 0 0
0 0 0
0 0 0
0 0 0
0 0 0
0 0 0
0 0 0
0 0 0
0 0 0
0 0 0
0 0 0
0 0 0
0 0 0
0 0 0
0 0 0
0 0 0
0 0 0
0 0 0
0 0 0
0 0 0
0 0 0
0 0 0
0 0 0
0 0 0
0 0 0
0 0 0
0 0 0
0 0 0
0 0 0
0 0 0
0 0 0
0 0 0
0 0 0
0 0 0
0 0 0
0 0 0
0 0 0
0 0 0
0 0 0
0 0 0
0 0 0
0 0 0
0 0 0
0 0 0
0 0 0
0 0 0
0 0 0
0 0 0
0 0 0
0 0 0
0 0 0
0 0 0
0 0 0
0 0 0
0 0 0
0 0 0
0 0 0
0 0 0
0 0 0
0 0 0
0 0 0
0 0 0
0 0 0
0 0 0
0 0 0
0 0 0
0 0 0
0 0 0
0 0 0
0 0 0
0 0 0
0 0 0
0 0 0
0 0 0
0 0 0
0 0 0
0 0 0
0 0 0
0 0 0
0 0 0
0 0 0
0 0 0
0 0 0
0 0 0
0 0 0
0 0 0
0 0 0
0 0 0
0 0 0
0 0 0
0 0 0
0 0 0
0 0 0
0 0 0
0 0 0
0 0 0
0 0 0
0 0 0
0 0 0
0 0 0
0 0 0
0 0 0
0 0 0
0 0 0
0 0 0
0 0 0
0 0 0
0 0 0
0 0 0
0 0 0
0 0 0
0 0 0
0 0 0
0 0 0
0 0 0
0 0 0
0 0 0
0 0 0
0 0 0
0 0 0
0 0 0
0 0 0
0 0 0
0 0 0
0 0 0
0 0 0
0 0 0
0 0 0
0 0 0
0 0 0
0 0 0
0 0 0
0 0 0
0 0 0
0 0 0
0 0 0
0 0 0
0 0 0
0 0 0
0 0 0
0 0 0
0 0 0
0 0 0
0 0 0
0 0 0
0 0 0
0 0 0
0 0 0
0 0 0
0 0 0
0 0 0
0 0 0
0 0 0
0 0 0
0 0 0
0 0 0
0 0 0
0 0 0
0 0 0
0 0 0
0 0 0
0 0 0
0 0 0
0 0 0
0 0 0
0 0 0
0 0 0
0 0 0
0 0 0
0 0 0
0 0 0
0 0 0
0 0 0
0 0 0
0 0 0
0 0 0
0 0 0
0 0 0
0 0 0
0 0 0
0 0 0
0 0 0
0 0 0
0 0 0
0 0 0
0 0 0
0 0 0
0 0 0
0 0 0
0 0 0
0 0 0
0 0 0
0 0 0
0 0 0
0 0 0
0 0 0
0 0 0
0 0 0
0 0 0
0 0 0
0 0 0
0 0 0
0 0 0
0 0 0
0 0 0
0 0 0
0 0 0
0 0 0
0 0 0
0 0 0
0 0 0
0 0 0
0 0 0
0 0 0
0 0 0
0 0 0
0 0 0
0 0 0
0 0 0
0 0 0
0 0 0
0 0 0
0 0 0
0 0 0
0 0 0
0 0 0
0 0 0
0 0 0
0 0 0
0 0 0
0 0 0
0 0 0
0 0 0
0 0 0
0 0 0
0 0 0
0 0 0
0 0 0
0 0 0
0 0 0
0 0 0
0 0 0
0 0 0
0 0 0
0 0 0
0 0 0
22 32 51
14 20 0
14 20 0
21 30 36
16 22 36
0 0 0
22 32 51
14 20 0
16 22 36
26 36 36
16 22 36
14 20 0
16 22 36
14 20 0
20 28 0
20 28 0
0 0 0
14 20 0
14 20 0
16 22 36
16 22 36
0 0 0
21 30 36
16 22 36
16 22 36
0 0 0
0 0 0
14 20 0
0 0 0
20 28 0
0 0 0
25 35 0
14 20 0
26 36 36
28 39 62
16 22 36
21 30 36
0 0 0
21 30 36
0 0 0
25 35 0
0 0 0
20 28 0
16 24 36
14 20 0
0 0 0
16 22 36
14 20 0
14 20 0
21 30 36
20 28 0
14 20 0
14 20 0
25 35 0
0 0 0
21 30 36
31 44 62
21 30 36
0 0 0
33 48 51
26 36 36
20 28 0
0 0 0
26 36 36
0 0 0
0 0 0
14 20 0
0 0 0
14 20 0
0 0 0
25 35 0
14 20 0
29 42 36
14 20 0
14 20 0
14 20 0
0 0 0
0 0 0
21 30 36
14 20 0
26 36 36
14 20 0
14 20 0
0 0 0
0 0 0
26 36 36
14 20 0
0 0 0
14 20 0
0 0 0
14 20 0
14 20 0
0 0 0
25 35 0
15 22 0
0 0 0
16 22 36
14 20 0
0 0 0
29 42 36
26 36 36
0 0 0
0 0 0
0 0 0
0 0 0
0 0 0
21 30 36
14 20 0
21 30 36
20 28 0
0 0 0
0 0 0
21 30 36
32 45 0
0 0 0
16 24 36
14 20 0
14 20 0
20 28 0
27 38 51
16 22 36
0 0 0
0 0 0
0 0 0
0 0 0
0 0 0
0 0 0
0 0 0
0 0 0
0 0 0
0 0 0
0 0 0
0 0 0
0 0 0
0 0 0
0 0 0
0 0 0
0 0 0
0 0 0
0 0 0
0 0 0
0 0 0
0 0 0
0 0 0
0 0 0
0 0 0
0 0 0
0 0 0
0 0 0
0 0 0
0 0 0
0 0 0
0 0 0
0 0 0
0 0 0
0 0 0
0 0 0
0 0 0
0 0 0
0 0 0
0 0 0
0 0 0
0 0 0
0 0 0
0 0 0
0 0 0
0 0 0
0 0 0
0 0 0
0 0 0
0 0 0
0 0 0
0 0 0
0 0 0
0 0 0
0 0 0
0 0 0
0 0 0
0 0 0
0 0 0
0 0 0
0 0 0
0 0 0
0 0 0
0 0 0
0 0 0
0 0 0
0 0 0
0 0 0
0 0 0
0 0 0
0 0 0
0 0 0
0 0 0
0 0 0
0 0 0
0 0 0
0 0 0
0 0 0
0 0 0
0 0 0
0 0 0
0 0 0
0 0 0
0 0 0
0 0 0
0 0 0
0 0 0
0 0 0
0 0 0
0 0 0
0 0 0
0 0 0
0 0 0
0 0 0
0 0 0
0 0 0
0 0 0
0 0 0
0 0 0
0 0 0
0 0 0
0 0 0
0 0 0
0 0 0
0 0 0
0 0 0
0 0 0
0 0 0
0 0 0
0 0 0
0 0 0
0 0 0
0 0 0
0 0 0
0 0 0
0 0 0
0 0 0
0 0 0
0 0 0
0 0 0
0 0 0
0 0 0
0 0 0
0 0 0
0 0 0
0 0 0
0 0 0
0 0 0
0 0 0
0 0 0
0 0 0
0 0 0
0 0 0
0 0 0
0 0 0
0 0 0
0 0 0
0 0 0
0 0 0
0 0 0
0 0 0
0 0 0
0 0 0
0 0 0
0 0 0
0 0 0
0 0 0
0 0 0
0 0 0
0 0 0
0 0 0
0 0 0
0 0 0
0 0 0
0 0 0
0 0 0
0 0 0
0 0 0
0 0 0
0 0 0
0 0 0
0 0 0
0 0 0
0 0 0
0 0 0
0 0 0
0 0 0
0 0 0
0 0 0
0 0 0
0 0 0
0 0 0
0 0 0
0 0 0
0 0 0
0 0 0
0 0 0
0 0 0
0 0 0
0 0 0
0 0 0
0 0 0
0 0 0
0 0 0
0 0 0
0 0 0
0 0 0
0 0 0
0 0 0
0 0 0
0 0 0
0 0 0
0 0 0
0 0 0
0 0 0
0 0 0
0 0 0
0 0 0
0 0 0
0 0 0
0 0 0
0 0 0
0 0 0
0 0 0
0 0 0
0 0 0
0 0 0
0 0 0
0 0 0
0 0 0
0 0 0
0 0 0
0 0 0
0 0 0
0 0 0
0 0 0
0 0 0
0 0 0
0 0 0
0 0 0
0 0 0
0 0 0
0 0 0
0 0 0
0 0 0
0 0 0
0 0 0
0 0 0
0 0 0
0 0 0
0 0 0
0 0 0
0 0 0
0 0 0
0 0 0
0 0 0
0 0 0
0 0 0
0 0 0
0 0 0
0 0 0
0 0 0
0 0 0
0 0 0
0 0 0
0 0 0
0 0 0
0 0 0
0 0 0
0 0 0
0 0 0
0 0 0
0 0 0
0 0 0
0 0 0
0 0 0
0 0 0
0 0 0
0 0 0
0 0 0
0 0 0
0 0 0
0 0 0
0 0 0
0 0 0
0 0 0
0 0 0
0 0 0
0 0 0
0 0 0
0 0 0
0 0 0
0 0 0
0 0 0
0 0 0
0 0 0
0 0 0
0 0 0
0 0 0
21 30 36
0 0 0
0 0 0
29 42 36
14 20 0
0 0 0
27 38 51
22 32 51
0 0 0
27 38 51
4 8 0
14 20 0
0 0 0
14 20 0
0 0 0
33 46 36
26 36 36
14 20 0
0 0 0
0 0 0
20 28 0
0 0 0
22 32 51
16 22 36
16 22 36
14 20 0
14 20 0
14 20 0
16 22 36
27 38 51
20 28 0
0 0 0
21 30 36
14 20 0
14 20 0
16 22 36
0 0 0
20 28 0
0 0 0
16 22 36
0 0 0
26 36 36
14 20 0
28 39 62
33 46 36
29 42 36
16 22 36
16 22 36
25 35 0
16 22 36
0 0 0
0 0 0
27 38 51
0 0 0
29 42 36
14 20 0
22 32 51
14 20 0
0 0 0
0 0 0
0 0 0
14 20 0
14 20 0
14 20 0
16 22 36
0 0 0
26 36 36
20 28 0
0 0 0
0 0 0
16 22 36
20 28 0
14 20 0
26 36 36
21 30 36
29 42 36
0 0 0
16 22 36
0 0 0
16 22 36
0 0 0
14 20 0
0 0 0
16 22 36
0 0 0
14 20 0
14 20 0
16 22 36
14 20 0
14 20 0
14 20 0
21 30 36
0 0 0
0 0 0
26 36 36
14 20 0
29 42 36
21 30 36
14 20 0
0 0 0
0 0 0
16 22 36
20 28 0
21 30 36
25 35 0
26 36 36
14 20 0
14 20 0
14 20 0
28 39 62
14 20 0
20 28 0
27 38 51
0 0 0
21 30 36
22 32 51
22 32 51
16 22 36
0 0 0
26 36 36
16 22 36
22 32 51
0 0 0
0 0 0
0 0 0
0 0 0
0 0 0
0 0 0
0 0 0
0 0 0
0 0 0
0 0 0
0 0 0
0 0 0
0 0 0
0 0 0
0 0 0
0 0 0
0 0 0
0 0 0
0 0 0
0 0 0
0 0 0
0 0 0
0 0 0
0 0 0
0 0 0
0 0 0
0 0 0
0 0 0
0 0 0
0 0 0
0 0 0
0 0 0
0 0 0
0 0 0
0 0 0
0 0 0
0 0 0
0 0 0
0 0 0
0 0 0
0 0 0
0 0 0
0 0 0
0 0 0
0 0 0
0 0 0
0 0 0
0 0 0
0 0 0
0 0 0
0 0 0
0 0 0
0 0 0
0 0 0
0 0 0
0 0 0
0 0 0
0 0 0
0 0 0
0 0 0
0 0 0
0 0 0
0 0 0
0 0 0
0 0 0
0 0 0
0 0 0
0 0 0
0 0 0
0 0 0
0 0 0
0 0 0
0 0 0
0 0 0
0 0 0
0 0 0
0 0 0
0 0 0
0 0 0
0 0 0
0 0 0
0 0 0
0 0 0
0 0 0
0 0 0
0 0 0
0 0 0
0 0 0
0 0 0
0 0 0
0 0 0
0 0 0
0 0 0
0 0 0
0 0 0
0 0 0
0 0 0
0 0 0
0 0 0
0 0 0
0 0 0
0 0 0
0 0 0
0 0 0
0 0 0
0 0 0
0 0 0
0 0 0
0 0 0
0 0 0
0 0 0
0 0 0
0 0 0
0 0 0
0 0 0
0 0 0
0 0 0
0 0 0
0 0 0
0 0 0
0 0 0
0 0 0
0 0 0
0 0 0
0 0 0
0 0 0
0 0 0
0 0 0
0 0 0
0 0 0
0 0 0
0 0 0
0 0 0
0 0 0
0 0 0
0 0 0
0 0 0
0 0 0
0 0 0
0 0 0
0 0 0
0 0 0
0 0 0
0 0 0
0 0 0
0 0 0
0 0 0
0 0 0
0 0 0
0 0 0
0 0 0
0 0 0
0 0 0
0 0 0
0 0 0
0 0 0
0 0 0
0 0 0
0 0 0
0 0 0
0 0 0
0 0 0
0 0 0
0 0 0
0 0 0
0 0 0
0 0 0
0 0 0
0 0 0
0 0 0
0 0 0
0 0 0
0 0 0
0 0 0
0 0 0
0 0 0
0 0 0
0 0 0
0 0 0
0 0 0
0 0 0
0 0 0
0 0 0
0 0 0
0 0 0
0 0 0
0 0 0
0 0 0
0 0 0
0 0 0
0 0 0
0 0 0
0 0 0
0 0 0
0 0 0
0 0 0
0 0 0
0 0 0
0 0 0
0 0 0
0 0 0
0 0 0
0 0 0
0 0 0
0 0 0
0 0 0
0 0 0
0 0 0
0 0 0
0 0 0
0 0 0
0 0 0
0 0 0
0 0 0
0 0 0
0 0 0
0 0 0
0 0 0
0 0 0
0 0 0
0 0 0
0 0 0
0 0 0
0 0 0
0 0 0
0 0 0
0 0 0
0 0 0
0 0 0
0 0 0
0 0 0
0 0 0
0 0 0
0 0 0
0 0 0
0 0 0
0 0 0
0 0 0
0 0 0
0 0 0
0 0 0
0 0 0
0 0 0
0 0 0
0 0 0
0 0 0
0 0 0
0 0 0
0 0 0
0 0 0
0 0 0
0 0 0
0 0 0
0 0 0
0 0 0
0 0 0
0 0 0
0 0 0
0 0 0
0 0 0
0 0 0
0 0 0
0 0 0
0 0 0
0 0 0
0 0 0
0 0 0
0 0 0
0 0 0
0 0 0
0 0 0
0 0 0
0 0 0
0 0 0
0 0 0
0 0 0
0 0 0
0 0 0
21 30 36
21 30 36
21 30 36
0 0 0
0 0 0
0 0 0
21 30 36
0 0 0
21 30 36
21 30 36
0 0 0
14 20 0
14 20 0
14 20 0
25 35 0
0 0 0
14 20 0
0 0 0
21 30 36
16 22 36
0 0 0
0 0 0
21 30 36
16 22 36
0 0 0
0 0 0
14 20 0
0 0 0
14 20 0
14 20 0
25 35 0
14 20 0
26 36 36
0 0 0
22 32 51
0 0 0
26 36 36
14 20 0
0 0 0
20 28 0
14 20 0
14 20 0
14 20 0
4 9 0
14 20 0
16 22 36
14 20 0
14 20 0
21 30 36
14 20 0
28 40 0
14 20 0
14 20 0
25 35 0
0 0 0
27 38 51
26 36 36
0 0 0
33 48 51
26 36 36
28 40 0
0 0 0
20 28 0
0 0 0
14 20 0
14 20 0
0 0 0
14 20 0
0 0 0
25 35 0
0 0 0
29 42 36
14 20 0
14 20 0
14 20 0
0 0 0
0 0 0
26 36 36
14 20 0
29 42 36
0 0 0
20 28 0
0 0 0
0 0 0
26 36 36
14 20 0
0 0 0
14 20 0
0 0 0
0 0 0
14 20 0
0 0 0
28 40 0
15 22 0
0 0 0
16 22 36
14 20 0
21 30 36
20 28 0
20 28 0
14 20 0
0 0 0
0 0 0
0 0 0
14 20 0
21 30 36
20 28 0
16 22 36
20 28 0
0 0 0
0 0 0
16 22 36
28 40 0
0 0 0
22 31 36
0 0 0
14 20 0
14 20 0
16 22 36
14 20 0
0 0 0
14 20 0
0 0 0
0 0 0
0 0 0
0 0 0
0 0 0
0 0 0
0 0 0
0 0 0
0 0 0
0 0 0
0 0 0
0 0 0
0 0 0
0 0 0
0 0 0
0 0 0
0 0 0
0 0 0
0 0 0
0 0 0
0 0 0
0 0 0
0 0 0
0 0 0
0 0 0
0 0 0
0 0 0
0 0 0
0 0 0
0 0 0
0 0 0
0 0 0
0 0 0
0 0 0
0 0 0
0 0 0
0 0 0
0 0 0
0 0 0
0 0 0
0 0 0
0 0 0
0 0 0
0 0 0
0 0 0
0 0 0
0 0 0
0 0 0
0 0 0
0 0 0
0 0 0
0 0 0
0 0 0
0 0 0
0 0 0
0 0 0
0 0 0
0 0 0
0 0 0
0 0 0
0 0 0
0 0 0
0 0 0
0 0 0
0 0 0
0 0 0
0 0 0
0 0 0
0 0 0
0 0 0
0 0 0
0 0 0
0 0 0
0 0 0
0 0 0
0 0 0
0 0 0
0 0 0
0 0 0
0 0 0
0 0 0
0 0 0
0 0 0
0 0 0
0 0 0
0 0 0
0 0 0
0 0 0
0 0 0
0 0 0
0 0 0
0 0 0
0 0 0
0 0 0
0 0 0
0 0 0
0 0 0
0 0 0
0 0 0
0 0 0
0 0 0
0 0 0
0 0 0
0 0 0
0 0 0
0 0 0
0 0 0
0 0 0
0 0 0
0 0 0
0 0 0
0 0 0
0 0 0
0 0 0
0 0 0
0 0 0
0 0 0
0 0 0
0 0 0
0 0 0
0 0 0
0 0 0
0 0 0
0 0 0
0 0 0
0 0 0
0 0 0
0 0 0
0 0 0
0 0 0
0 0 0
0 0 0
0 0 0
0 0 0
0 0 0
0 0 0
0 0 0
0 0 0
0 0 0
0 0 0
0 0 0
0 0 0
0 0 0
0 0 0
0 0 0
0 0 0
0 0 0
0 0 0
0 0 0
0 0 0
0 0 0
0 0 0
0 0 0
0 0 0
0 0 0
0 0 0
0 0 0
0 0 0
0 0 0
0 0 0
0 0 0
0 0 0
0 0 0
0 0 0
0 0 0
0 0 0
0 0 0
0 0 0
0 0 0
0 0 0
0 0 0
0 0 0
0 0 0
0 0 0
0 0 0
0 0 0
0 0 0
0 0 0
0 0 0
0 0 0
0 0 0
0 0 0
0 0 0
0 0 0
0 0 0
0 0 0
0 0 0
0 0 0
0 0 0
0 0 0
0 0 0
0 0 0
0 0 0
0 0 0
0 0 0
0 0 0
0 0 0
0 0 0
0 0 0
0 0 0
0 0 0
0 0 0
0 0 0
0 0 0
0 0 0
0 0 0
0 0 0
0 0 0
0 0 0
0 0 0
0 0 0
0 0 0
0 0 0
0 0 0
0 0 0
0 0 0
0 0 0
0 0 0
0 0 0
0 0 0
0 0 0
0 0 0
0 0 0
0 0 0
0 0 0
0 0 0
0 0 0
0 0 0
0 0 0
0 0 0
0 0 0
0 0 0
0 0 0
0 0 0
0 0 0
0 0 0
0 0 0
0 0 0
0 0 0
0 0 0
0 0 0
0 0 0
0 0 0
0 0 0
0 0 0
0 0 0
0 0 0
0 0 0
0 0 0
0 0 0
0 0 0
0 0 0
0 0 0
0 0 0
0 0 0
0 0 0
0 0 0
0 0 0
0 0 0
0 0 0
0 0 0
0 0 0
0 0 0
0 0 0
0 0 0
0 0 0
0 0 0
0 0 0
0 0 0
0 0 0
0 0 0
0 0 0
0 0 0
0 0 0
0 0 0
0 0 0
0 0 0
0 0 0
14 20 0
14 20 0
0 0 0
21 30 36
16 22 36
0 0 0
14 20 0
16 22 36
20 28 0
0 0 0
14 20 0
0 0 0
20 28 0
30 43 51
14 20 0
14 20 0
0 0 0
0 0 0
0 0 0
21 30 36
0 0 0
21 30 36
16 22 36
20 28 0
0 0 0
0 0 0
14 20 0
26 36 36
0 0 0
21 30 36
14 20 0
14 20 0
16 22 36
0 0 0
20 28 0
0 0 0
16 22 36
14 20 0
26 36 36
0 0 0
27 38 51
25 35 0
20 28 0
27 38 51
0 0 0
21 30 36
21 30 36
0 0 0
0 0 0
14 20 0
0 0 0
29 42 36
0 0 0
21 30 36
14 20 0
0 0 0
16 22 36
0 0 0
14 20 0
0 0 0
14 20 0
14 20 0
14 20 0
21 30 36
26 36 36
0 0 0
0 0 0
16 22 36
20 28 0
14 20 0
26 36 36
30 43 51
26 36 36
14 20 0
16 22 36
0 0 0
16 22 36
0 0 0
14 20 0
14 20 0
16 22 36
0 0 0
0 0 0
14 20 0
0 0 0
14 20 0
14 20 0
14 20 0
14 20 0
16 22 36
0 0 0
21 30 36
14 20 0
29 42 36
21 30 36
14 20 0
15 22 0
0 0 0
0 0 0
14 20 0
29 42 36
20 28 0
14 20 0
14 20 0
14 20 0
14 20 0
22 32 51
14 20 0
25 35 0
21 30 36
16 22 36
20 28 0
16 22 36
22 32 51
14 20 0
0 0 0
21 30 36
20 28 0
28 39 62
0 0 0
25 35 0
0 0 0
22 32 51
0 0 0
0 0 0
0 0 0
0 0 0
0 0 0
0 0 0
0 0 0
0 0 0
0 0 0
0 0 0
0 0 0
0 0 0
0 0 0
0 0 0
0 0 0
0 0 0
0 0 0
0 0 0
0 0 0
0 0 0
0 0 0
0 0 0
0 0 0
0 0 0
0 0 0
0 0 0
0 0 0
0 0 0
0 0 0
0 0 0
0 0 0
0 0 0
0 0 0
0 0 0
0 0 0
0 0 0
0 0 0
0 0 0
0 0 0
0 0 0
0 0 0
0 0 0
0 0 0
0 0 0
0 0 0
0 0 0
0 0 0
0 0 0
0 0 0
0 0 0
0 0 0
0 0 0
0 0 0
0 0 0
0 0 0
0 0 0
0 0 0
0 0 0
0 0 0
0 0 0
0 0 0
0 0 0
0 0 0
0 0 0
0 0 0
0 0 0
0 0 0
0 0 0
0 0 0
0 0 0
0 0 0
0 0 0
0 0 0
0 0 0
0 0 0
0 0 0
0 0 0
0 0 0
0 0 0
0 0 0
0 0 0
0 0 0
0 0 0
0 0 0
0 0 0
0 0 0
0 0 0
0 0 0
0 0 0
0 0 0
0 0 0
0 0 0
0 0 0
0 0 0
0 0 0
0 0 0
0 0 0
0 0 0
0 0 0
0 0 0
0 0 0
0 0 0
0 0 0
0 0 0
0 0 0
0 0 0
0 0 0
0 0 0
0 0 0
0 0 0
0 0 0
0 0 0
0 0 0
0 0 0
0 0 0
0 0 0
0 0 0
0 0 0
0 0 0
0 0 0
0 0 0
0 0 0
0 0 0
0 0 0
0 0 0
0 0 0
0 0 0
0 0 0
0 0 0
0 0 0
0 0 0
0 0 0
0 0 0
0 0 0
0 0 0
0 0 0
0 0 0
0 0 0
0 0 0
0 0 0
0 0 0
0 0 0
0 0 0
0 0 0
0 0 0
0 0 0
0 0 0
0 0 0
0 0 0
0 0 0
0 0 0
0 0 0
0 0 0
0 0 0
0 0 0
0 0 0
0 0 0
0 0 0
0 0 0
0 0 0
0 0 0
0 0 0
0 0 0
0 0 0
0 0 0
0 0 0
0 0 0
0 0 0
0 0 0
0 0 0
0 0 0
0 0 0
0 0 0
0 0 0
0 0 0
0 0 0
0 0 0
0 0 0
0 0 0
0 0 0
0 0 0
0 0 0
0 0 0
0 0 0
0 0 0
0 0 0
0 0 0
0 0 0
0 0 0
0 0 0
0 0 0
0 0 0
0 0 0
0 0 0
0 0 0
0 0 0
0 0 0
0 0 0
0 0 0
0 0 0
0 0 0
0 0 0
0 0 0
0 0 0
0 0 0
0 0 0
0 0 0
0 0 0
0 0 0
0 0 0
0 0 0
0 0 0
0 0 0
0 0 0
0 0 0
0 0 0
0 0 0
0 0 0
0 0 0
0 0 0
0 0 0
0 0 0
0 0 0
0 0 0
0 0 0
0 0 0
0 0 0
0 0 0
0 0 0
0 0 0
0 0 0
0 0 0
0 0 0
0 0 0
0 0 0
0 0 0
0 0 0
0 0 0
0 0 0
0 0 0
0 0 0
0 0 0
0 0 0
0 0 0
0 0 0
0 0 0
0 0 0
0 0 0
0 0 0
0 0 0
0 0 0
0 0 0
0 0 0
0 0 0
0 0 0
0 0 0
0 0 0
0 0 0
0 0 0
0 0 0
0 0 0
0 0 0
0 0 0
0 0 0
0 0 0
0 0 0
0 0 0
0 0 0
0 0 0
0 0 0
0 0 0
0 0 0
0 0 0
0 0 0
0 0 0
0 0 0
14 20 0
0 0 0
26 36 36
0 0 0
0 0 0
0 0 0
14 20 0
0 0 0
0 0 0
20 28 0
14 20 0
20 28 0
0 0 0
14 20 0
25 35 0
14 20 0
14 20 0
20 28 0
21 30 36
0 0 0
16 22 36
0 0 0
14 20 0
16 22 36
0 0 0
0 0 0
0 0 0
14 20 0
14 20 0
14 20 0
20 28 0
20 28 0
26 36 36
0 0 0
22 32 51
0 0 0
20 28 0
14 20 0
0 0 0
14 20 0
20 28 0
14 20 0
14 20 0
0 0 0
14 20 0
16 22 36
20 28 0
20 28 0
21 30 36
0 0 0
25 35 0
14 20 0
14 20 0
25 35 0
20 28 0
21 30 36
27 38 51
14 20 0
30 43 51
29 42 36
20 28 0
14 20 0
20 28 0
0 0 0
14 20 0
14 20 0
14 20 0
14 20 0
0 0 0
20 28 0
0 0 0
26 36 36
14 20 0
14 20 0
14 20 0
0 0 0
0 0 0
14 20 0
20 28 0
21 30 36
0 0 0
20 28 0
0 0 0
0 0 0
26 36 36
14 20 0
14 20 0
14 20 0
0 0 0
0 0 0
14 20 0
0 0 0
28 40 0
4 8 0
0 0 0
0 0 0
14 20 0
14 20 0
20 28 0
20 28 0
15 22 0
14 20 0
0 0 0
0 0 0
14 20 0
27 38 51
14 20 0
16 22 36
14 20 0
0 0 0
0 0 0
26 36 36
14 20 0
4 8 0
14 20 0
0 0 0
14 20 0
14 20 0
16 22 36
14 20 0
0 0 0
14 20 0
16 22 36
0 0 0
0 0 0
0 0 0
0 0 0
0 0 0
0 0 0
0 0 0
0 0 0
0 0 0
0 0 0
0 0 0
0 0 0
0 0 0
0 0 0
0 0 0
0 0 0
0 0 0
0 0 0
0 0 0
0 0 0
0 0 0
0 0 0
0 0 0
0 0 0
0 0 0
0 0 0
0 0 0
0 0 0
0 0 0
0 0 0
0 0 0
0 0 0
0 0 0
0 0 0
0 0 0
0 0 0
0 0 0
0 0 0
0 0 0
0 0 0
0 0 0
0 0 0
0 0 0
0 0 0
0 0 0
0 0 0
0 0 0
0 0 0
0 0 0
0 0 0
0 0 0
0 0 0
0 0 0
0 0 0
0 0 0
0 0 0
0 0 0
0 0 0
0 0 0
0 0 0
0 0 0
0 0 0
0 0 0
0 0 0
0 0 0
0 0 0
0 0 0
0 0 0
0 0 0
0 0 0
0 0 0
0 0 0
0 0 0
0 0 0
0 0 0
0 0 0
0 0 0
0 0 0
0 0 0
0 0 0
0 0 0
0 0 0
0 0 0
0 0 0
0 0 0
0 0 0
0 0 0
0 0 0
0 0 0
0 0 0
0 0 0
0 0 0
0 0 0
0 0 0
0 0 0
0 0 0
0 0 0
0 0 0
0 0 0
0 0 0
0 0 0
0 0 0
0 0 0
0 0 0
0 0 0
0 0 0
0 0 0
0 0 0
0 0 0
0 0 0
0 0 0
0 0 0
0 0 0
0 0 0
0 0 0
0 0 0
0 0 0
0 0 0
0 0 0
0 0 0
0 0 0
0 0 0
0 0 0
0 0 0
0 0 0
0 0 0
0 0 0
0 0 0
0 0 0
0 0 0
0 0 0
0 0 0
0 0 0
0 0 0
0 0 0
0 0 0
0 0 0
0 0 0
0 0 0
0 0 0
0 0 0
0 0 0
0 0 0
0 0 0
0 0 0
0 0 0
0 0 0
0 0 0
0 0 0
0 0 0
0 0 0
0 0 0
0 0 0
0 0 0
0 0 0
0 0 0
0 0 0
0 0 0
0 0 0
0 0 0
0 0 0
0 0 0
0 0 0
0 0 0
0 0 0
0 0 0
0 0 0
0 0 0
0 0 0
0 0 0
0 0 0
0 0 0
0 0 0
0 0 0
0 0 0
0 0 0
0 0 0
0 0 0
0 0 0
0 0 0
0 0 0
0 0 0
0 0 0
0 0 0
0 0 0
0 0 0
0 0 0
0 0 0
0 0 0
0 0 0
0 0 0
0 0 0
0 0 0
0 0 0
0 0 0
0 0 0
0 0 0
0 0 0
0 0 0
0 0 0
0 0 0
0 0 0
0 0 0
0 0 0
0 0 0
0 0 0
0 0 0
0 0 0
0 0 0
0 0 0
0 0 0
0 0 0
0 0 0
0 0 0
0 0 0
0 0 0
0 0 0
0 0 0
0 0 0
0 0 0
0 0 0
0 0 0
0 0 0
0 0 0
0 0 0
0 0 0
0 0 0
0 0 0
0 0 0
0 0 0
0 0 0
0 0 0
0 0 0
0 0 0
0 0 0
0 0 0
0 0 0
0 0 0
0 0 0
0 0 0
0 0 0
0 0 0
0 0 0
0 0 0
0 0 0
0 0 0
0 0 0
0 0 0
0 0 0
0 0 0
0 0 0
0 0 0
0 0 0
0 0 0
0 0 0
0 0 0
0 0 0
0 0 0
0 0 0
0 0 0
0 0 0
0 0 0
0 0 0
0 0 0
0 0 0
0 0 0
0 0 0
0 0 0
0 0 0
0 0 0
0 0 0
0 0 0
0 0 0
0 0 0
0 0 0
0 0 0
0 0 0
14 20 0
0 0 0
14 20 0
14 20 0
14 20 0
16 22 36
14 20 0
14 20 0
0 0 0
21 30 36
14 20 0
33 48 51
26 36 36
14 20 0
14 20 0
0 0 0
0 0 0
26 36 36
0 0 0
21 30 36
0 0 0
26 37 36
0 0 0
14 20 0
14 20 0
21 30 36
0 0 0
26 36 36
0 0 0
25 35 0
16 22 36
0 0 0
20 28 0
0 0 0
0 0 0
14 20 0
20 28 0
0 0 0
21 30 36
20 28 0
25 35 0
26 36 36
0 0 0
21 30 36
26 36 36
0 0 0
0 0 0
14 20 0
0 0 0
29 42 36
0 0 0
14 20 0
0 0 0
0 0 0
16 22 36
0 0 0
14 20 0
0 0 0
14 20 0
14 20 0
14 20 0
21 30 36
26 36 36
0 0 0
0 0 0
16 22 36
20 28 0
14 20 0
20 28 0
26 36 36
25 35 0
0 0 0
21 30 36
0 0 0
22 32 51
0 0 0
14 20 0
0 0 0
0 0 0
0 0 0
0 0 0
14 20 0
20 28 0
20 28 0
0 0 0
14 20 0
16 22 36
0 0 0
0 0 0
21 30 36
20 28 0
20 28 0
26 36 36
14 20 0
20 28 0
0 0 0
0 0 0
20 28 0
20 28 0
14 20 0
20 28 0
14 20 0
14 20 0
14 20 0
16 22 36
20 28 0
28 40 0
0 0 0
14 20 0
14 20 0
14 20 0
16 22 36
0 0 0
0 0 0
21 30 36
0 0 0
14 20 0
26 36 36
14 20 0
26 36 36
0 0 0
0 0 0
14 20 0
14 20 0
0 0 0
0 0 0
0 0 0
0 0 0
0 0 0
0 0 0
0 0 0
0 0 0
0 0 0
0 0 0
0 0 0
0 0 0
0 0 0
0 0 0
0 0 0
0 0 0
0 0 0
0 0 0
0 0 0
0 0 0
0 0 0
0 0 0
0 0 0
0 0 0
0 0 0
0 0 0
0 0 0
0 0 0
0 0 0
0 0 0
0 0 0
0 0 0
0 0 0
0 0 0
0 0 0
0 0 0
0 0 0
0 0 0
0 0 0
0 0 0
0 0 0
0 0 0
0 0 0
0 0 0
0 0 0
0 0 0
0 0 0
0 0 0
0 0 0
0 0 0
0 0 0
0 0 0
0 0 0
0 0 0
0 0 0
0 0 0
0 0 0
0 0 0
0 0 0
0 0 0
0 0 0
0 0 0
0 0 0
0 0 0
0 0 0
0 0 0
0 0 0
0 0 0
0 0 0
0 0 0
0 0 0
0 0 0
0 0 0
0 0 0
0 0 0
0 0 0
0 0 0
0 0 0
0 0 0
0 0 0
0 0 0
0 0 0
0 0 0
0 0 0
0 0 0
0 0 0
0 0 0
0 0 0
0 0 0
0 0 0
0 0 0
0 0 0
0 0 0
0 0 0
0 0 0
0 0 0
0 0 0
0 0 0
0 0 0
0 0 0
0 0 0
0 0 0
0 0 0
0 0 0
0 0 0
0 0 0
0 0 0
0 0 0
0 0 0
0 0 0
0 0 0
0 0 0
0 0 0
0 0 0
0 0 0
0 0 0
0 0 0
0 0 0
0 0 0
0 0 0
0 0 0
0 0 0
0 0 0
0 0 0
0 0 0
0 0 0
0 0 0
0 0 0
0 0 0
0 0 0
0 0 0
0 0 0
0 0 0
0 0 0
0 0 0
0 0 0
0 0 0
0 0 0
0 0 0
0 0 0
0 0 0
0 0 0
0 0 0
0 0 0
0 0 0
0 0 0
0 0 0
0 0 0
0 0 0
0 0 0
0 0 0
0 0 0
0 0 0
0 0 0
0 0 0
0 0 0
0 0 0
0 0 0
0 0 0
0 0 0
0 0 0
0 0 0
0 0 0
0 0 0
0 0 0
0 0 0
0 0 0
0 0 0
0 0 0
0 0 0
0 0 0
0 0 0
0 0 0
0 0 0
0 0 0
0 0 0
0 0 0
0 0 0
0 0 0
0 0 0
0 0 0
0 0 0
0 0 0
0 0 0
0 0 0
0 0 0
0 0 0
0 0 0
0 0 0
0 0 0
0 0 0
0 0 0
0 0 0
0 0 0
0 0 0
0 0 0
0 0 0
0 0 0
0 0 0
0 0 0
0 0 0
0 0 0
0 0 0
0 0 0
0 0 0
0 0 0
0 0 0
0 0 0
0 0 0
0 0 0
0 0 0
0 0 0
0 0 0
0 0 0
0 0 0
0 0 0
0 0 0
0 0 0
0 0 0
0 0 0
0 0 0
0 0 0
0 0 0
0 0 0
0 0 0
0 0 0
0 0 0
0 0 0
0 0 0
0 0 0
0 0 0
0 0 0
0 0 0
0 0 0
0 0 0
0 0 0
0 0 0
0 0 0
0 0 0
0 0 0
0 0 0
0 0 0
0 0 0
0 0 0
0 0 0
0 0 0
0 0 0
0 0 0
0 0 0
0 0 0
0 0 0
0 0 0
0 0 0
0 0 0
0 0 0
0 0 0
0 0 0
0 0 0
0 0 0
0 0 0
0 0 0
0 0 0
0 0 0
0 0 0
0 0 0
0 0 0
0 0 0
0 0 0
0 0 0
0 0 0
0 0 0
0 0 0
0 0 0
0 0 0
0 0 0
16 22 36
16 22 36
14 20 0
26 36 36
0 0 0
14 20 0
0 0 0
14 20 0
0 0 0
14 20 0
14 20 0
14 20 0
20 28 0
0 0 0
28 40 0
25 35 0
0 0 0
20 28 0
14 20 0
21 30 36
16 22 36
0 0 0
14 20 0
0 0 0
16 22 36
0 0 0
0 0 0
14 20 0
0 0 0
20 28 0
0 0 0
25 35 0
14 20 0
26 36 36
0 0 0
16 22 36
14 20 0
0 0 0
14 20 0
0 0 0
20 28 0
14 20 0
20 28 0
14 20 0
14 20 0
0 0 0
26 36 36
20 28 0
14 20 0
21 30 36
14 20 0
25 35 0
14 20 0
25 35 0
20 28 0
20 28 0
21 30 36
21 30 36
21 30 36
29 42 36
28 40 0
14 20 0
0 0 0
20 28 0
0 0 0
14 20 0
14 20 0
14 20 0
14 20 0
14 20 0
14 20 0
20 28 0
20 28 0
0 0 0
20 28 0
4 8 0
0 0 0
14 20 0
14 20 0
26 36 36
0 0 0
0 0 0
20 28 0
0 0 0
21 30 36
20 28 0
14 20 0
21 30 36
0 0 0
0 0 0
20 28 0
0 0 0
25 35 0
4 8 0
0 0 0
0 0 0
14 20 0
0 0 0
25 35 0
14 20 0
15 22 0
0 0 0
14 20 0
0 0 0
14 20 0
21 30 36
14 20 0
16 22 36
14 20 0
0 0 0
0 0 0
14 20 0
20 28 0
0 0 0
20 30 0
0 0 0
14 20 0
14 20 0
22 32 51
20 28 0
0 0 0
0 0 0
26 36 36
0 0 0
21 30 36
0 0 0
0 0 0
0 0 0
0 0 0
0 0 0
0 0 0
0 0 0
0 0 0
0 0 0
0 0 0
0 0 0
0 0 0
0 0 0
0 0 0
0 0 0
0 0 0
0 0 0
0 0 0
0 0 0
0 0 0
0 0 0
0 0 0
0 0 0
0 0 0
0 0 0
0 0 0
0 0 0
0 0 0
0 0 0
0 0 0
0 0 0
0 0 0
0 0 0
0 0 0
0 0 0
0 0 0
0 0 0
0 0 0
0 0 0
0 0 0
0 0 0
0 0 0
0 0 0
0 0 0
0 0 0
0 0 0
0 0 0
0 0 0
0 0 0
0 0 0
0 0 0
0 0 0
0 0 0
0 0 0
0 0 0
0 0 0
0 0 0
0 0 0
0 0 0
0 0 0
0 0 0
0 0 0
0 0 0
0 0 0
0 0 0
0 0 0
0 0 0
0 0 0
0 0 0
0 0 0
0 0 0
0 0 0
0 0 0
0 0 0
0 0 0
0 0 0
0 0 0
0 0 0
0 0 0
0 0 0
0 0 0
0 0 0
0 0 0
0 0 0
0 0 0
0 0 0
0 0 0
0 0 0
0 0 0
0 0 0
0 0 0
0 0 0
0 0 0
0 0 0
0 0 0
0 0 0
0 0 0
0 0 0
0 0 0
0 0 0
0 0 0
0 0 0
0 0 0
0 0 0
0 0 0
0 0 0
0 0 0
0 0 0
0 0 0
0 0 0
0 0 0
0 0 0
0 0 0
0 0 0
0 0 0
0 0 0
0 0 0
0 0 0
0 0 0
0 0 0
0 0 0
0 0 0
0 0 0
0 0 0
0 0 0
0 0 0
0 0 0
0 0 0
0 0 0
0 0 0
0 0 0
0 0 0
0 0 0
0 0 0
0 0 0
0 0 0
0 0 0
0 0 0
0 0 0
0 0 0
0 0 0
0 0 0
0 0 0
0 0 0
0 0 0
0 0 0
0 0 0
0 0 0
0 0 0
0 0 0
0 0 0
0 0 0
0 0 0
0 0 0
0 0 0
0 0 0
0 0 0
0 0 0
0 0 0
0 0 0
0 0 0
0 0 0
0 0 0
0 0 0
0 0 0
0 0 0
0 0 0
0 0 0
0 0 0
0 0 0
0 0 0
0 0 0
0 0 0
0 0 0
0 0 0
0 0 0
0 0 0
0 0 0
0 0 0
0 0 0
0 0 0
0 0 0
0 0 0
0 0 0
0 0 0
0 0 0
0 0 0
0 0 0
0 0 0
0 0 0
0 0 0
0 0 0
0 0 0
0 0 0
0 0 0
0 0 0
0 0 0
0 0 0
0 0 0
0 0 0
0 0 0
0 0 0
0 0 0
0 0 0
0 0 0
0 0 0
0 0 0
0 0 0
0 0 0
0 0 0
0 0 0
0 0 0
0 0 0
0 0 0
0 0 0
0 0 0
0 0 0
0 0 0
0 0 0
0 0 0
0 0 0
0 0 0
0 0 0
0 0 0
0 0 0
0 0 0
0 0 0
0 0 0
0 0 0
0 0 0
0 0 0
0 0 0
0 0 0
0 0 0
0 0 0
0 0 0
0 0 0
0 0 0
0 0 0
0 0 0
0 0 0
0 0 0
0 0 0
0 0 0
0 0 0
0 0 0
0 0 0
0 0 0
0 0 0
0 0 0
0 0 0
0 0 0
0 0 0
0 0 0
0 0 0
0 0 0
0 0 0
0 0 0
0 0 0
0 0 0
0 0 0
0 0 0
0 0 0
0 0 0
0 0 0
0 0 0
0 0 0
0 0 0
0 0 0
0 0 0
0 0 0
0 0 0
0 0 0
0 0 0
0 0 0
0 0 0
14 20 0
21 30 36
0 0 0
14 20 0
20 30 0
14 20 0
0 0 0
16 22 36
20 28 0
25 35 0
20 28 0
14 20 0
14 20 0
0 0 0
0 0 0
20 28 0
16 22 36
0 0 0
0 0 0
20 28 0
0 0 0
14 20 0
14 20 0
16 22 36
14 20 0
26 36 36
16 22 36
20 28 0
16 22 36
0 0 0
20 28 0
14 20 0
0 0 0
14 20 0
20 28 0
0 0 0
16 22 36
25 35 0
25 35 0
26 36 36
0 0 0
16 22 36
14 20 0
0 0 0
0 0 0
14 20 0
0 0 0
25 35 0
14 20 0
0 0 0
0 0 0
14 20 0
16 22 36
0 0 0
21 30 36
20 28 0
14 20 0
0 0 0
14 20 0
14 20 0
26 36 36
0 0 0
0 0 0
21 30 36
14 20 0
20 28 0
14 20 0
14 20 0
25 35 0
21 30 36
21 30 36
16 22 36
16 22 36
16 22 36
14 20 0
0 0 0
0 0 0
0 0 0
0 0 0
14 20 0
20 30 0
14 20 0
14 20 0
0 0 0
16 22 36
14 20 0
15 22 0
14 20 0
25 35 0
26 36 36
25 35 0
14 20 0
14 20 0
0 0 0
0 0 0
25 35 0
0 0 0
25 35 0
0 0 0
14 20 0
14 20 0
14 20 0
14 20 0
28 40 0
21 30 36
0 0 0
20 28 0
0 0 0
26 36 36
0 0 0
0 0 0
14 20 0
27 38 51
0 0 0
21 30 36
14 20 0
32 45 0
14 20 0
0 0 0
0 0 0
20 28 0
28 39 62
0 0 0
0 0 0
0 0 0
0 0 0
0 0 0
0 0 0
0 0 0
0 0 0
0 0 0
0 0 0
0 0 0
0 0 0
0 0 0
0 0 0
0 0 0
0 0 0
0 0 0
0 0 0
0 0 0
0 0 0
0 0 0
0 0 0
0 0 0
0 0 0
0 0 0
0 0 0
0 0 0
0 0 0
0 0 0
0 0 0
0 0 0
0 0 0
0 0 0
0 0 0
0 0 0
0 0 0
0 0 0
0 0 0
0 0 0
0 0 0
0 0 0
0 0 0
0 0 0
0 0 0
0 0 0
0 0 0
0 0 0
0 0 0
0 0 0
0 0 0
0 0 0
0 0 0
0 0 0
0 0 0
0 0 0
0 0 0
0 0 0
0 0 0
0 0 0
0 0 0
0 0 0
0 0 0
0 0 0
0 0 0
0 0 0
0 0 0
0 0 0
0 0 0
0 0 0
0 0 0
0 0 0
0 0 0
0 0 0
0 0 0
0 0 0
0 0 0
0 0 0
0 0 0
0 0 0
0 0 0
0 0 0
0 0 0
0 0 0
0 0 0
0 0 0
0 0 0
0 0 0
0 0 0
0 0 0
0 0 0
0 0 0
0 0 0
0 0 0
0 0 0
0 0 0
0 0 0
0 0 0
0 0 0
0 0 0
0 0 0
0 0 0
0 0 0
0 0 0
0 0 0
0 0 0
0 0 0
0 0 0
0 0 0
0 0 0
0 0 0
0 0 0
0 0 0
0 0 0
0 0 0
0 0 0
0 0 0
0 0 0
0 0 0
0 0 0
0 0 0
0 0 0
0 0 0
0 0 0
0 0 0
0 0 0
0 0 0
0 0 0
0 0 0
0 0 0
0 0 0
0 0 0
0 0 0
0 0 0
0 0 0
0 0 0
0 0 0
0 0 0
0 0 0
0 0 0
0 0 0
0 0 0
0 0 0
0 0 0
0 0 0
0 0 0
0 0 0
0 0 0
0 0 0
0 0 0
0 0 0
0 0 0
0 0 0
0 0 0
0 0 0
0 0 0
0 0 0
0 0 0
0 0 0
0 0 0
0 0 0
0 0 0
0 0 0
0 0 0
0 0 0
0 0 0
0 0 0
0 0 0
0 0 0
0 0 0
0 0 0
0 0 0
0 0 0
0 0 0
0 0 0
0 0 0
0 0 0
0 0 0
0 0 0
0 0 0
0 0 0
0 0 0
0 0 0
0 0 0
0 0 0
0 0 0
0 0 0
0 0 0
0 0 0
0 0 0
0 0 0
0 0 0
0 0 0
0 0 0
0 0 0
0 0 0
0 0 0
0 0 0
0 0 0
0 0 0
0 0 0
0 0 0
0 0 0
0 0 0
0 0 0
0 0 0
0 0 0
0 0 0
0 0 0
0 0 0
0 0 0
0 0 0
0 0 0
0 0 0
0 0 0
0 0 0
0 0 0
0 0 0
0 0 0
0 0 0
0 0 0
0 0 0
0 0 0
0 0 0
0 0 0
0 0 0
0 0 0
0 0 0
0 0 0
0 0 0
0 0 0
0 0 0
0 0 0
0 0 0
0 0 0
0 0 0
0 0 0
0 0 0
0 0 0
0 0 0
0 0 0
0 0 0
0 0 0
0 0 0
0 0 0
0 0 0
0 0 0
0 0 0
0 0 0
0 0 0
0 0 0
0 0 0
0 0 0
0 0 0
0 0 0
0 0 0
0 0 0
0 0 0
0 0 0
0 0 0
0 0 0
0 0 0
0 0 0
0 0 0
0 0 0
0 0 0
0 0 0
0 0 0
0 0 0
0 0 0
0 0 0
0 0 0
0 0 0
0 0 0
0 0 0
0 0 0
0 0 0
0 0 0
14 20 0
0 0 0
14 20 0
20 28 0
14 20 0
0 0 0
14 20 0
0 0 0
0 0 0
14 20 0
14 20 0
20 28 0
14 20 0
14 20 0
25 35 0
14 20 0
14 20 0
20 28 0
21 30 36
14 20 0
0 0 0
0 0 0
20 28 0
16 22 36
0 0 0
0 0 0
14 20 0
0 0 0
14 20 0
14 20 0
20 28 0
14 20 0
26 36 36
0 0 0
16 22 36
0 0 0
0 0 0
14 20 0
0 0 0
20 28 0
14 20 0
20 28 0
0 0 0
14 20 0
0 0 0
26 36 36
21 30 36
14 20 0
21 30 36
20 28 0
25 35 0
14 20 0
25 35 0
21 30 36
20 28 0
16 22 36
21 30 36
14 20 0
29 42 36
28 40 0
14 20 0
14 20 0
20 28 0
0 0 0
14 20 0
14 20 0
20 28 0
0 0 0
20 28 0
14 20 0
20 28 0
20 28 0
14 20 0
14 20 0
0 0 0
0 0 0
14 20 0
14 20 0
26 36 36
14 20 0
14 20 0
0 0 0
0 0 0
26 36 36
14 20 0
14 20 0
14 20 0
0 0 0
0 0 0
20 28 0
0 0 0
20 28 0
4 8 0
0 0 0
14 20 0
0 0 0
14 20 0
20 28 0
20 28 0
20 30 0
14 20 0
0 0 0
0 0 0
14 20 0
14 20 0
14 20 0
0 0 0
0 0 0
0 0 0
0 0 0
25 35 0
0 0 0
4 8 0
20 28 0
0 0 0
0 0 0
21 30 36
21 30 36
21 30 36
0 0 0
20 28 0
21 30 36
0 0 0
21 30 36
20 28 0
22 32 51
0 0 0
0 0 0
0 0 0
0 0 0
0 0 0
0 0 0
0 0 0
0 0 0
0 0 0
0 0 0
0 0 0
0 0 0
0 0 0
0 0 0
0 0 0
0 0 0
0 0 0
0 0 0
0 0 0
0 0 0
0 0 0
0 0 0
0 0 0
0 0 0
0 0 0
0 0 0
0 0 0
0 0 0
0 0 0
0 0 0
0 0 0
0 0 0
0 0 0
0 0 0
0 0 0
0 0 0
0 0 0
0 0 0
0 0 0
0 0 0
0 0 0
0 0 0
0 0 0
0 0 0
0 0 0
0 0 0
0 0 0
0 0 0
0 0 0
0 0 0
0 0 0
0 0 0
0 0 0
0 0 0
0 0 0
0 0 0
0 0 0
0 0 0
0 0 0
0 0 0
0 0 0
0 0 0
0 0 0
0 0 0
0 0 0
0 0 0
0 0 0
0 0 0
0 0 0
0 0 0
0 0 0
0 0 0
0 0 0
0 0 0
0 0 0
0 0 0
0 0 0
0 0 0
0 0 0
0 0 0
0 0 0
0 0 0
0 0 0
0 0 0
0 0 0
0 0 0
0 0 0
0 0 0
0 0 0
0 0 0
0 0 0
0 0 0
0 0 0
0 0 0
0 0 0
0 0 0
0 0 0
0 0 0
0 0 0
0 0 0
0 0 0
0 0 0
0 0 0
0 0 0
0 0 0
0 0 0
0 0 0
0 0 0
0 0 0
0 0 0
0 0 0
0 0 0
0 0 0
0 0 0
0 0 0
0 0 0
0 0 0
0 0 0
0 0 0
0 0 0
0 0 0
0 0 0
0 0 0
0 0 0
0 0 0
0 0 0
0 0 0
0 0 0
0 0 0
0 0 0
0 0 0
0 0 0
0 0 0
0 0 0
0 0 0
0 0 0
0 0 0
0 0 0
0 0 0
0 0 0
0 0 0
0 0 0
0 0 0
0 0 0
0 0 0
0 0 0
0 0 0
0 0 0
0 0 0
0 0 0
0 0 0
0 0 0
0 0 0
0 0 0
0 0 0
0 0 0
0 0 0
0 0 0
0 0 0
0 0 0
0 0 0
0 0 0
0 0 0
0 0 0
0 0 0
0 0 0
0 0 0
0 0 0
0 0 0
0 0 0
0 0 0
0 0 0
0 0 0
0 0 0
0 0 0
0 0 0
0 0 0
0 0 0
0 0 0
0 0 0
0 0 0
0 0 0
0 0 0
0 0 0
0 0 0
0 0 0
0 0 0
0 0 0
0 0 0
0 0 0
0 0 0
0 0 0
0 0 0
0 0 0
0 0 0
0 0 0
0 0 0
0 0 0
0 0 0
0 0 0
0 0 0
0 0 0
0 0 0
0 0 0
0 0 0
0 0 0
0 0 0
0 0 0
0 0 0
0 0 0
0 0 0
0 0 0
0 0 0
0 0 0
0 0 0
0 0 0
0 0 0
0 0 0
0 0 0
0 0 0
0 0 0
0 0 0
0 0 0
0 0 0
0 0 0
0 0 0
0 0 0
0 0 0
0 0 0
0 0 0
0 0 0
0 0 0
0 0 0
0 0 0
0 0 0
0 0 0
0 0 0
0 0 0
0 0 0
0 0 0
0 0 0
0 0 0
0 0 0
0 0 0
0 0 0
0 0 0
0 0 0
0 0 0
0 0 0
0 0 0
0 0 0
0 0 0
0 0 0
0 0 0
0 0 0
0 0 0
0 0 0
0 0 0
0 0 0
0 0 0
0 0 0
0 0 0
0 0 0
0 0 0
0 0 0
0 0 0
0 0 0
0 0 0
0 0 0
0 0 0
0 0 0
0 0 0
0 0 0
14 20 0
21 30 36
20 28 0
0 0 0
20 28 0
0 0 0
0 0 0
16 22 36
28 40 0
20 28 0
0 0 0
14 20 0
20 28 0
0 0 0
0 0 0
20 28 0
0 0 0
14 20 0
14 20 0
14 20 0
14 20 0
0 0 0
0 0 0
21 30 36
14 20 0
20 28 0
28 40 0
0 0 0
0 0 0
0 0 0
20 28 0
14 20 0
0 0 0
20 28 0
14 20 0
14 20 0
14 20 0
25 35 0
25 35 0
0 0 0
16 22 36
14 20 0
14 20 0
14 20 0
14 20 0
14 20 0
28 40 0
14 20 0
20 28 0
0 0 0
14 20 0
21 30 36
0 0 0
14 20 0
14 20 0
25 35 0
14 20 0
0 0 0
14 20 0
20 28 0
16 22 36
14 20 0
14 20 0
20 28 0
14 20 0
14 20 0
14 20 0
20 28 0
20 28 0
21 30 36
16 22 36
16 22 36
0 0 0
20 28 0
0 0 0
0 0 0
0 0 0
0 0 0
14 20 0
15 22 0
20 28 0
0 0 0
20 28 0
16 22 36
0 0 0
14 20 0
14 20 0
25 35 0
25 35 0
26 36 36
14 20 0
25 35 0
14 20 0
0 0 0
25 35 0
0 0 0
25 35 0
0 0 0
0 0 0
14 20 0
0 0 0
20 28 0
25 35 0
16 24 36
0 0 0
21 30 36
4 8 0
21 30 36
0 0 0
16 22 36
14 20 0
30 43 51
0 0 0
0 0 0
0 0 0
28 40 0
21 30 36
0 0 0
14 20 0
25 35 0
14 20 0
0 0 0
0 0 0
14 20 0
0 0 0
0 0 0
0 0 0
0 0 0
0 0 0
0 0 0
0 0 0
0 0 0
0 0 0
0 0 0
0 0 0
0 0 0
0 0 0
0 0 0
0 0 0
0 0 0
0 0 0
0 0 0
0 0 0
0 0 0
0 0 0
0 0 0
0 0 0
0 0 0
0 0 0
0 0 0
0 0 0
0 0 0
0 0 0
0 0 0
0 0 0
0 0 0
0 0 0
0 0 0
0 0 0
0 0 0
0 0 0
0 0 0
0 0 0
0 0 0
0 0 0
0 0 0
0 0 0
0 0 0
0 0 0
0 0 0
0 0 0
0 0 0
0 0 0
0 0 0
0 0 0
0 0 0
0 0 0
0 0 0
0 0 0
0 0 0
0 0 0
0 0 0
0 0 0
0 0 0
0 0 0
0 0 0
0 0 0
0 0 0
0 0 0
0 0 0
0 0 0
0 0 0
0 0 0
0 0 0
0 0 0
0 0 0
0 0 0
0 0 0
0 0 0
0 0 0
0 0 0
0 0 0
0 0 0
0 0 0
0 0 0
0 0 0
0 0 0
0 0 0
0 0 0
0 0 0
0 0 0
0 0 0
0 0 0
0 0 0
0 0 0
0 0 0
0 0 0
0 0 0
0 0 0
0 0 0
0 0 0
0 0 0
0 0 0
0 0 0
0 0 0
0 0 0
0 0 0
0 0 0
0 0 0
0 0 0
0 0 0
0 0 0
0 0 0
0 0 0
0 0 0
0 0 0
0 0 0
0 0 0
0 0 0
0 0 0
0 0 0
0 0 0
0 0 0
0 0 0
0 0 0
0 0 0
0 0 0
0 0 0
0 0 0
0 0 0
0 0 0
0 0 0
0 0 0
0 0 0
0 0 0
0 0 0
0 0 0
0 0 0
0 0 0
0 0 0
0 0 0
0 0 0
0 0 0
0 0 0
0 0 0
0 0 0
0 0 0
0 0 0
0 0 0
0 0 0
0 0 0
0 0 0
0 0 0
0 0 0
0 0 0
0 0 0
0 0 0
0 0 0
0 0 0
0 0 0
0 0 0
0 0 0
0 0 0
0 0 0
0 0 0
0 0 0
0 0 0
0 0 0
0 0 0
0 0 0
0 0 0
0 0 0
0 0 0
0 0 0
0 0 0
0 0 0
0 0 0
0 0 0
0 0 0
0 0 0
0 0 0
0 0 0
0 0 0
0 0 0
0 0 0
0 0 0
0 0 0
0 0 0
0 0 0
0 0 0
0 0 0
0 0 0
0 0 0
0 0 0
0 0 0
0 0 0
0 0 0
0 0 0
0 0 0
0 0 0
0 0 0
0 0 0
0 0 0
0 0 0
0 0 0
0 0 0
0 0 0
0 0 0
0 0 0
0 0 0
0 0 0
0 0 0
0 0 0
0 0 0
0 0 0
0 0 0
0 0 0
0 0 0
0 0 0
0 0 0
0 0 0
0 0 0
0 0 0
0 0 0
0 0 0
0 0 0
0 0 0
0 0 0
0 0 0
0 0 0
0 0 0
0 0 0
0 0 0
0 0 0
0 0 0
0 0 0
0 0 0
0 0 0
0 0 0
0 0 0
0 0 0
0 0 0
0 0 0
0 0 0
0 0 0
0 0 0
0 0 0
0 0 0
0 0 0
0 0 0
0 0 0
0 0 0
0 0 0
0 0 0
0 0 0
0 0 0
0 0 0
0 0 0
0 0 0
0 0 0
0 0 0
0 0 0
0 0 0
0 0 0
0 0 0
0 0 0
0 0 0
0 0 0
0 0 0
0 0 0
0 0 0
0 0 0
0 0 0
0 0 0
0 0 0
0 0 0
0 0 0
0 0 0
0 0 0
0 0 0
21 30 36
25 35 0
0 0 0
21 30 36
20 28 0
14 20 0
0 0 0
14 20 0
0 0 0
14 20 0
0 0 0
20 28 0
20 28 0
14 20 0
0 0 0
14 20 0
0 0 0
20 28 0
20 28 0
21 30 36
0 0 0
0 0 0
25 35 0
0 0 0
16 22 36
0 0 0
0 0 0
14 20 0
14 20 0
14 20 0
14 20 0
20 30 0
0 0 0
0 0 0
16 22 36
0 0 0
0 0 0
14 20 0
0 0 0
14 20 0
25 35 0
14 20 0
14 20 0
0 0 0
14 20 0
14 20 0
14 20 0
26 36 36
20 28 0
20 28 0
25 35 0
14 20 0
25 35 0
21 30 36
20 28 0
0 0 0
14 20 0
14 20 0
25 35 0
20 28 0
25 35 0
14 20 0
25 35 0
0 0 0
14 20 0
14 20 0
20 28 0
0 0 0
14 20 0
20 28 0
25 35 0
20 28 0
0 0 0
14 20 0
0 0 0
0 0 0
14 20 0
14 20 0
26 36 36
14 20 0
14 20 0
14 20 0
0 0 0
20 28 0
14 20 0
14 20 0
14 20 0
20 28 0
0 0 0
20 28 0
0 0 0
20 28 0
15 22 0
14 20 0
14 20 0
0 0 0
14 20 0
0 0 0
14 20 0
20 30 0
14 20 0
0 0 0
0 0 0
14 20 0
14 20 0
14 20 0
14 20 0
0 0 0
0 0 0
0 0 0
20 28 0
0 0 0
0 0 0
14 20 0
0 0 0
0 0 0
14 20 0
20 28 0
16 22 36
0 0 0
21 30 36
14 20 0
0 0 0
29 42 36
14 20 0
21 30 36
0 0 0
14 20 0
0 0 0
0 0 0
0 0 0
0 0 0
0 0 0
0 0 0
0 0 0
0 0 0
0 0 0
0 0 0
0 0 0
0 0 0
0 0 0
0 0 0
0 0 0
0 0 0
0 0 0
0 0 0
0 0 0
0 0 0
0 0 0
0 0 0
0 0 0
0 0 0
0 0 0
0 0 0
0 0 0
0 0 0
0 0 0
0 0 0
0 0 0
0 0 0
0 0 0
0 0 0
0 0 0
0 0 0
0 0 0
0 0 0
0 0 0
0 0 0
0 0 0
0 0 0
0 0 0
0 0 0
0 0 0
0 0 0
0 0 0
0 0 0
0 0 0
0 0 0
0 0 0
0 0 0
0 0 0
0 0 0
0 0 0
0 0 0
0 0 0
0 0 0
0 0 0
0 0 0
0 0 0
0 0 0
0 0 0
0 0 0
0 0 0
0 0 0
0 0 0
0 0 0
0 0 0
0 0 0
0 0 0
0 0 0
0 0 0
0 0 0
0 0 0
0 0 0
0 0 0
0 0 0
0 0 0
0 0 0
0 0 0
0 0 0
0 0 0
0 0 0
0 0 0
0 0 0
0 0 0
0 0 0
0 0 0
0 0 0
0 0 0
0 0 0
0 0 0
0 0 0
0 0 0
0 0 0
0 0 0
0 0 0
0 0 0
0 0 0
0 0 0
0 0 0
0 0 0
0 0 0
0 0 0
0 0 0
0 0 0
0 0 0
0 0 0
0 0 0
0 0 0
0 0 0
0 0 0
0 0 0
0 0 0
0 0 0
0 0 0
0 0 0
0 0 0
0 0 0
0 0 0
0 0 0
0 0 0
0 0 0
0 0 0
0 0 0
0 0 0
0 0 0
0 0 0
0 0 0
0 0 0
0 0 0
0 0 0
0 0 0
0 0 0
0 0 0
0 0 0
0 0 0
0 0 0
0 0 0
0 0 0
0 0 0
0 0 0
0 0 0
0 0 0
0 0 0
0 0 0
0 0 0
0 0 0
0 0 0
0 0 0
0 0 0
0 0 0
0 0 0
0 0 0
0 0 0
0 0 0
0 0 0
0 0 0
0 0 0
0 0 0
0 0 0
0 0 0
0 0 0
0 0 0
0 0 0
0 0 0
0 0 0
0 0 0
0 0 0
0 0 0
0 0 0
0 0 0
0 0 0
0 0 0
0 0 0
0 0 0
0 0 0
0 0 0
0 0 0
0 0 0
0 0 0
0 0 0
0 0 0
0 0 0
0 0 0
0 0 0
0 0 0
0 0 0
0 0 0
0 0 0
0 0 0
0 0 0
0 0 0
0 0 0
0 0 0
0 0 0
0 0 0
0 0 0
0 0 0
0 0 0
0 0 0
0 0 0
0 0 0
0 0 0
0 0 0
0 0 0
0 0 0
0 0 0
0 0 0
0 0 0
0 0 0
0 0 0
0 0 0
0 0 0
0 0 0
0 0 0
0 0 0
0 0 0
0 0 0
0 0 0
0 0 0
0 0 0
0 0 0
0 0 0
0 0 0
0 0 0
0 0 0
0 0 0
0 0 0
0 0 0
0 0 0
0 0 0
0 0 0
0 0 0
0 0 0
0 0 0
0 0 0
0 0 0
0 0 0
0 0 0
0 0 0
0 0 0
0 0 0
0 0 0
0 0 0
0 0 0
0 0 0
0 0 0
0 0 0
0 0 0
0 0 0
0 0 0
0 0 0
0 0 0
0 0 0
0 0 0
0 0 0
0 0 0
0 0 0
0 0 0
0 0 0
0 0 0
0 0 0
0 0 0
0 0 0
0 0 0
0 0 0
0 0 0
0 0 0
0 0 0
0 0 0
14 20 0
0 0 0
26 36 36
0 0 0
0 0 0
14 20 0
29 42 36
20 30 0
0 0 0
25 35 0
0 0 0
0 0 0
20 28 0
22 32 51
14 20 0
0 0 0
20 29 0
14 20 0
0 0 0
14 20 0
0 0 0
27 38 51
20 28 0
0 0 0
25 35 0
0 0 0
0 0 0
0 0 0
20 28 0
21 30 36
14 20 0
14 20 0
14 20 0
14 20 0
14 20 0
28 40 0
20 28 0
0 0 0
21 30 36
14 20 0
20 28 0
0 0 0
20 28 0
0 0 0
28 40 0
20 28 0
14 20 0
0 0 0
20 28 0
16 22 36
0 0 0
20 28 0
25 35 0
0 0 0
0 0 0
14 20 0
0 0 0
20 28 0
0 0 0
14 20 0
20 28 0
20 28 0
0 0 0
14 20 0
20 28 0
25 35 0
0 0 0
21 30 36
16 22 36
0 0 0
0 0 0
20 28 0
0 0 0
0 0 0
0 0 0
14 20 0
0 0 0
20 30 0
14 20 0
14 20 0
14 20 0
0 0 0
15 22 0
25 35 0
20 28 0
20 28 0
20 28 0
20 28 0
28 40 0
0 0 0
14 20 0
20 28 0
14 20 0
0 0 0
20 28 0
0 0 0
14 20 0
14 20 0
14 20 0
26 36 36
20 28 0
0 0 0
21 30 36
0 0 0
20 30 0
0 0 0
0 0 0
21 30 36
14 20 0
0 0 0
16 22 36
0 0 0
28 40 0
14 20 0
0 0 0
16 22 36
20 28 0
25 35 0
0 0 0
14 20 0
0 0 0
0 0 0
0 0 0
14 20 0
14 20 0
0 0 0
14 20 0
16 22 36
0 0 0
0 0 0
0 0 0
0 0 0
0 0 0
0 0 0
0 0 0
0 0 0
0 0 0
0 0 0
0 0 0
0 0 0
0 0 0
0 0 0
0 0 0
0 0 0
0 0 0
0 0 0
0 0 0
0 0 0
0 0 0
0 0 0
0 0 0
0 0 0
0 0 0
0 0 0
0 0 0
0 0 0
0 0 0
0 0 0
0 0 0
0 0 0
0 0 0
0 0 0
0 0 0
0 0 0
0 0 0
0 0 0
0 0 0
0 0 0
0 0 0
0 0 0
0 0 0
0 0 0
0 0 0
0 0 0
0 0 0
0 0 0
0 0 0
0 0 0
0 0 0
0 0 0
0 0 0
0 0 0
0 0 0
0 0 0
0 0 0
0 0 0
0 0 0
0 0 0
0 0 0
0 0 0
0 0 0
0 0 0
0 0 0
0 0 0
0 0 0
0 0 0
0 0 0
0 0 0
0 0 0
0 0 0
0 0 0
0 0 0
0 0 0
0 0 0
0 0 0
0 0 0
0 0 0
0 0 0
0 0 0
0 0 0
0 0 0
0 0 0
0 0 0
0 0 0
0 0 0
0 0 0
0 0 0
0 0 0
0 0 0
0 0 0
0 0 0
0 0 0
0 0 0
0 0 0
0 0 0
0 0 0
0 0 0
0 0 0
0 0 0
0 0 0
0 0 0
0 0 0
0 0 0
0 0 0
0 0 0
0 0 0
0 0 0
0 0 0
0 0 0
0 0 0
0 0 0
0 0 0
0 0 0
0 0 0
0 0 0
0 0 0
0 0 0
0 0 0
0 0 0
0 0 0
0 0 0
0 0 0
0 0 0
0 0 0
0 0 0
0 0 0
0 0 0
0 0 0
0 0 0
0 0 0
0 0 0
0 0 0
0 0 0
0 0 0
0 0 0
0 0 0
0 0 0
0 0 0
0 0 0
0 0 0
0 0 0
0 0 0
0 0 0
0 0 0
0 0 0
0 0 0
0 0 0
0 0 0
0 0 0
0 0 0
0 0 0
0 0 0
0 0 0
0 0 0
0 0 0
0 0 0
0 0 0
0 0 0
0 0 0
0 0 0
0 0 0
0 0 0
0 0 0
0 0 0
0 0 0
0 0 0
0 0 0
0 0 0
0 0 0
0 0 0
0 0 0
0 0 0
0 0 0
0 0 0
0 0 0
0 0 0
0 0 0
0 0 0
0 0 0
0 0 0
0 0 0
0 0 0
0 0 0
0 0 0
0 0 0
0 0 0
0 0 0
0 0 0
0 0 0
0 0 0
0 0 0
0 0 0
0 0 0
0 0 0
0 0 0
0 0 0
0 0 0
0 0 0
0 0 0
0 0 0
0 0 0
0 0 0
0 0 0
0 0 0
0 0 0
0 0 0
0 0 0
0 0 0
0 0 0
0 0 0
0 0 0
0 0 0
0 0 0
0 0 0
0 0 0
0 0 0
0 0 0
0 0 0
0 0 0
0 0 0
0 0 0
0 0 0
0 0 0
0 0 0
0 0 0
0 0 0
0 0 0
0 0 0
0 0 0
0 0 0
0 0 0
0 0 0
0 0 0
0 0 0
0 0 0
0 0 0
0 0 0
0 0 0
0 0 0
0 0 0
0 0 0
0 0 0
0 0 0
0 0 0
0 0 0
0 0 0
0 0 0
0 0 0
0 0 0
0 0 0
0 0 0
0 0 0
0 0 0
0 0 0
0 0 0
0 0 0
0 0 0
0 0 0
0 0 0
0 0 0
0 0 0
0 0 0
0 0 0
0 0 0
0 0 0
0 0 0
0 0 0
0 0 0
0 0 0
0 0 0
14 20 0
14 20 0
0 0 0
20 28 0
14 20 0
14 20 0
0 0 0
25 35 0
0 0 0
14 20 0
0 0 0
20 28 0
20 28 0
14 20 0
14 20 0
14 20 0
25 35 0
20 28 0
21 30 36
14 20 0
0 0 0
0 0 0
25 35 0
16 22 36
14 20 0
0 0 0
14 20 0
0 0 0
25 35 0
0 0 0
25 35 0
4 8 0
0 0 0
16 22 36
0 0 0
0 0 0
0 0 0
0 0 0
14 20 0
28 40 0
0 0 0
20 28 0
0 0 0
14 20 0
14 20 0
14 20 0
20 28 0
14 20 0
20 28 0
28 40 0
0 0 0
14 20 0
25 35 0
20 28 0
14 20 0
14 20 0
0 0 0
25 35 0
26 36 36
25 35 0
14 20 0
28 40 0
0 0 0
14 20 0
0 0 0
20 28 0
0 0 0
20 28 0
20 28 0
25 35 0
20 28 0
0 0 0
0 0 0
14 20 0
0 0 0
14 20 0
20 28 0
14 20 0
14 20 0
14 20 0
14 20 0
0 0 0
20 28 0
20 28 0
14 20 0
14 20 0
14 20 0
0 0 0
0 0 0
14 20 0
20 28 0
15 22 0
20 28 0
14 20 0
0 0 0
0 0 0
0 0 0
14 20 0
15 22 0
14 20 0
14 20 0
14 20 0
14 20 0
20 28 0
0 0 0
0 0 0
0 0 0
0 0 0
0 0 0
20 28 0
0 0 0
0 0 0
14 20 0
0 0 0
14 20 0
0 0 0
15 22 0
20 30 0
20 28 0
21 30 36
0 0 0
14 20 0
26 36 36
14 20 0
14 20 0
26 36 36
0 0 0
14 20 0
0 0 0
0 0 0
0 0 0
0 0 0
0 0 0
0 0 0
0 0 0
0 0 0
0 0 0
0 0 0
0 0 0
0 0 0
0 0 0
0 0 0
0 0 0
0 0 0
0 0 0
0 0 0
0 0 0
0 0 0
0 0 0
0 0 0
0 0 0
0 0 0
0 0 0
0 0 0
0 0 0
0 0 0
0 0 0
0 0 0
0 0 0
0 0 0
0 0 0
0 0 0
0 0 0
0 0 0
0 0 0
0 0 0
0 0 0
0 0 0
0 0 0
0 0 0
0 0 0
0 0 0
0 0 0
0 0 0
0 0 0
0 0 0
0 0 0
0 0 0
0 0 0
0 0 0
0 0 0
0 0 0
0 0 0
0 0 0
0 0 0
0 0 0
0 0 0
0 0 0
0 0 0
0 0 0
0 0 0
0 0 0
0 0 0
0 0 0
0 0 0
0 0 0
0 0 0
0 0 0
0 0 0
0 0 0
0 0 0
0 0 0
0 0 0
0 0 0
0 0 0
0 0 0
0 0 0
0 0 0
0 0 0
0 0 0
0 0 0
0 0 0
0 0 0
0 0 0
0 0 0
0 0 0
0 0 0
0 0 0
0 0 0
0 0 0
0 0 0
0 0 0
0 0 0
0 0 0
0 0 0
0 0 0
0 0 0
0 0 0
0 0 0
0 0 0
0 0 0
0 0 0
0 0 0
0 0 0
0 0 0
0 0 0
0 0 0
0 0 0
0 0 0
0 0 0
0 0 0
0 0 0
0 0 0
0 0 0
0 0 0
0 0 0
0 0 0
0 0 0
0 0 0
0 0 0
0 0 0
0 0 0
0 0 0
0 0 0
0 0 0
0 0 0
0 0 0
0 0 0
0 0 0
0 0 0
0 0 0
0 0 0
0 0 0
0 0 0
0 0 0
0 0 0
0 0 0
0 0 0
0 0 0
0 0 0
0 0 0
0 0 0
0 0 0
0 0 0
0 0 0
0 0 0
0 0 0
0 0 0
0 0 0
0 0 0
0 0 0
0 0 0
0 0 0
0 0 0
0 0 0
0 0 0
0 0 0
0 0 0
0 0 0
0 0 0
0 0 0
0 0 0
0 0 0
0 0 0
0 0 0
0 0 0
0 0 0
0 0 0
0 0 0
0 0 0
0 0 0
0 0 0
0 0 0
0 0 0
0 0 0
0 0 0
0 0 0
0 0 0
0 0 0
0 0 0
0 0 0
0 0 0
0 0 0
0 0 0
0 0 0
0 0 0
0 0 0
0 0 0
0 0 0
0 0 0
0 0 0
0 0 0
0 0 0
0 0 0
0 0 0
0 0 0
0 0 0
0 0 0
0 0 0
0 0 0
0 0 0
0 0 0
0 0 0
0 0 0
0 0 0
0 0 0
0 0 0
0 0 0
0 0 0
0 0 0
0 0 0
0 0 0
0 0 0
0 0 0
0 0 0
0 0 0
0 0 0
0 0 0
0 0 0
0 0 0
0 0 0
0 0 0
0 0 0
0 0 0
0 0 0
0 0 0
0 0 0
0 0 0
0 0 0
0 0 0
0 0 0
0 0 0
0 0 0
0 0 0
0 0 0
0 0 0
0 0 0
0 0 0
0 0 0
0 0 0
0 0 0
0 0 0
0 0 0
0 0 0
0 0 0
0 0 0
0 0 0
0 0 0
0 0 0
0 0 0
0 0 0
0 0 0
0 0 0
0 0 0
0 0 0
0 0 0
0 0 0
0 0 0
0 0 0
0 0 0
0 0 0
0 0 0
0 0 0
0 0 0
0 0 0
0 0 0
0 0 0
0 0 0
0 0 0
0 0 0
20 28 0
14 20 0
14 20 0
14 20 0
29 42 36
15 22 0
0 0 0
25 35 0
0 0 0
0 0 0
25 35 0
22 32 51
0 0 0
14 20 0
20 28 0
0 0 0
0 0 0
14 20 0
0 0 0
21 30 36
14 20 0
25 35 0
20 28 0
0 0 0
0 0 0
20 28 0
14 20 0
16 22 36
0 0 0
20 28 0
0 0 0
14 20 0
25 35 0
25 35 0
0 0 0
14 20 0
20 28 0
14 20 0
20 28 0
0 0 0
20 28 0
20 28 0
14 20 0
20 28 0
14 20 0
14 20 0
0 0 0
0 0 0
0 0 0
14 20 0
28 40 0
0 0 0
0 0 0
0 0 0
20 28 0
0 0 0
0 0 0
20 28 0
20 28 0
14 20 0
20 28 0
14 20 0
28 40 0
0 0 0
0 0 0
0 0 0
14 20 0
0 0 0
14 20 0
26 36 36
14 20 0
0 0 0
0 0 0
25 35 0
20 28 0
14 20 0
14 20 0
0 0 0
0 0 0
0 0 0
20 30 0
0 0 0
14 20 0
28 40 0
0 0 0
25 35 0
25 35 0
14 20 0
14 20 0
14 20 0
0 0 0
14 20 0
0 0 0
14 20 0
14 20 0
14 20 0
20 28 0
20 28 0
16 22 36
20 28 0
0 0 0
25 36 0
0 0 0
0 0 0
14 20 0
14 20 0
0 0 0
0 0 0
0 0 0
35 50 0
14 20 0
0 0 0
0 0 0
28 40 0
25 35 0
0 0 0
20 28 0
14 20 0
0 0 0
0 0 0
14 20 0
14 20 0
0 0 0
20 28 0
21 30 36
14 20 0
14 20 0
14 20 0
0 0 0
0 0 0
0 0 0
0 0 0
0 0 0
0 0 0
0 0 0
0 0 0
0 0 0
0 0 0
0 0 0
0 0 0
0 0 0
0 0 0
0 0 0
0 0 0
0 0 0
0 0 0
0 0 0
0 0 0
0 0 0
0 0 0
0 0 0
0 0 0
0 0 0
0 0 0
0 0 0
0 0 0
0 0 0
0 0 0
0 0 0
0 0 0
0 0 0
0 0 0
0 0 0
0 0 0
0 0 0
0 0 0
0 0 0
0 0 0
0 0 0
0 0 0
0 0 0
0 0 0
0 0 0
0 0 0
0 0 0
0 0 0
0 0 0
0 0 0
0 0 0
0 0 0
0 0 0
0 0 0
0 0 0
0 0 0
0 0 0
0 0 0
0 0 0
0 0 0
0 0 0
0 0 0
0 0 0
0 0 0
0 0 0
0 0 0
0 0 0
0 0 0
0 0 0
0 0 0
0 0 0
0 0 0
0 0 0
0 0 0
0 0 0
0 0 0
0 0 0
0 0 0
0 0 0
0 0 0
0 0 0
0 0 0
0 0 0
0 0 0
0 0 0
0 0 0
0 0 0
0 0 0
0 0 0
0 0 0
0 0 0
0 0 0
0 0 0
0 0 0
0 0 0
0 0 0
0 0 0
0 0 0
0 0 0
0 0 0
0 0 0
0 0 0
0 0 0
0 0 0
0 0 0
0 0 0
0 0 0
0 0 0
0 0 0
0 0 0
0 0 0
0 0 0
0 0 0
0 0 0
0 0 0
0 0 0
0 0 0
0 0 0
0 0 0
0 0 0
0 0 0
0 0 0
0 0 0
0 0 0
0 0 0
0 0 0
0 0 0
0 0 0
0 0 0
0 0 0
0 0 0
0 0 0
0 0 0
0 0 0
0 0 0
0 0 0
0 0 0
0 0 0
0 0 0
0 0 0
0 0 0
0 0 0
0 0 0
0 0 0
0 0 0
0 0 0
0 0 0
0 0 0
0 0 0
0 0 0
0 0 0
0 0 0
0 0 0
0 0 0
0 0 0
0 0 0
0 0 0
0 0 0
0 0 0
0 0 0
0 0 0
0 0 0
0 0 0
0 0 0
0 0 0
0 0 0
0 0 0
0 0 0
0 0 0
0 0 0
0 0 0
0 0 0
0 0 0
0 0 0
0 0 0
0 0 0
0 0 0
0 0 0
0 0 0
0 0 0
0 0 0
0 0 0
0 0 0
0 0 0
0 0 0
0 0 0
0 0 0
0 0 0
0 0 0
0 0 0
0 0 0
0 0 0
0 0 0
0 0 0
0 0 0
0 0 0
0 0 0
0 0 0
0 0 0
0 0 0
0 0 0
0 0 0
0 0 0
0 0 0
0 0 0
0 0 0
0 0 0
0 0 0
0 0 0
0 0 0
0 0 0
0 0 0
0 0 0
0 0 0
0 0 0
0 0 0
0 0 0
0 0 0
0 0 0
0 0 0
0 0 0
0 0 0
0 0 0
0 0 0
0 0 0
0 0 0
0 0 0
0 0 0
0 0 0
0 0 0
0 0 0
0 0 0
0 0 0
0 0 0
0 0 0
0 0 0
0 0 0
0 0 0
0 0 0
0 0 0
0 0 0
0 0 0
0 0 0
0 0 0
0 0 0
0 0 0
0 0 0
0 0 0
0 0 0
0 0 0
0 0 0
0 0 0
0 0 0
0 0 0
0 0 0
0 0 0
0 0 0
0 0 0
0 0 0
0 0 0
0 0 0
0 0 0
0 0 0
0 0 0
0 0 0
0 0 0
0 0 0
0 0 0
0 0 0
0 0 0
0 0 0
0 0 0
20 28 0
14 20 0
0 0 0
25 35 0
14 20 0
0 0 0
14 20 0
25 35 0
14 20 0
0 0 0
14 20 0
25 35 0
14 20 0
20 28 0
14 20 0
14 20 0
28 40 0
14 20 0
14 20 0
14 20 0
0 0 0
20 28 0
20 28 0
14 20 0
14 20 0
14 20 0
14 20 0
14 20 0
14 20 0
14 20 0
25 35 0
0 0 0
0 0 0
16 22 36
14 20 0
0 0 0
0 0 0
0 0 0
14 20 0
28 40 0
20 28 0
0 0 0
20 28 0
0 0 0
20 28 0
14 20 0
14 20 0
20 28 0
29 42 36
14 20 0
0 0 0
25 35 0
20 28 0
14 20 0
0 0 0
14 20 0
14 20 0
25 35 0
14 20 0
14 20 0
25 35 0
14 20 0
14 20 0
0 0 0
20 28 0
0 0 0
14 20 0
25 35 0
20 28 0
20 28 0
14 20 0
0 0 0
0 0 0
14 20 0
0 0 0
25 35 0
14 20 0
14 20 0
14 20 0
20 28 0
14 20 0
14 20 0
14 20 0
28 40 0
14 20 0
0 0 0
14 20 0
0 0 0
14 20 0
20 28 0
15 22 0
20 28 0
0 0 0
14 20 0
20 28 0
14 20 0
14 20 0
15 22 0
0 0 0
14 20 0
0 0 0
14 20 0
20 28 0
14 20 0
20 28 0
0 0 0
0 0 0
0 0 0
20 28 0
20 28 0
0 0 0
14 20 0
16 22 36
14 20 0
14 20 0
14 20 0
20 28 0
20 28 0
14 20 0
0 0 0
14 20 0
25 35 0
0 0 0
14 20 0
20 28 0
0 0 0
14 20 0
14 20 0
0 0 0
0 0 0
0 0 0
0 0 0
0 0 0
0 0 0
0 0 0
0 0 0
0 0 0
0 0 0
0 0 0
0 0 0
0 0 0
0 0 0
0 0 0
0 0 0
0 0 0
0 0 0
0 0 0
0 0 0
0 0 0
0 0 0
0 0 0
0 0 0
0 0 0
0 0 0
0 0 0
0 0 0
0 0 0
0 0 0
0 0 0
0 0 0
0 0 0
0 0 0
0 0 0
0 0 0
0 0 0
0 0 0
0 0 0
0 0 0
0 0 0
0 0 0
0 0 0
0 0 0
0 0 0
0 0 0
0 0 0
0 0 0
0 0 0
0 0 0
0 0 0
0 0 0
0 0 0
0 0 0
0 0 0
0 0 0
0 0 0
0 0 0
0 0 0
0 0 0
0 0 0
0 0 0
0 0 0
0 0 0
0 0 0
0 0 0
0 0 0
0 0 0
0 0 0
0 0 0
0 0 0
0 0 0
0 0 0
0 0 0
0 0 0
0 0 0
0 0 0
0 0 0
0 0 0
0 0 0
0 0 0
0 0 0
0 0 0
0 0 0
0 0 0
0 0 0
0 0 0
0 0 0
0 0 0
0 0 0
0 0 0
0 0 0
0 0 0
0 0 0
0 0 0
0 0 0
0 0 0
0 0 0
0 0 0
0 0 0
0 0 0
0 0 0
0 0 0
0 0 0
0 0 0
0 0 0
0 0 0
0 0 0
0 0 0
0 0 0
0 0 0
0 0 0
0 0 0
0 0 0
0 0 0
0 0 0
0 0 0
0 0 0
0 0 0
0 0 0
0 0 0
0 0 0
0 0 0
0 0 0
0 0 0
0 0 0
0 0 0
0 0 0
0 0 0
0 0 0
0 0 0
0 0 0
0 0 0
0 0 0
0 0 0
0 0 0
0 0 0
0 0 0
0 0 0
0 0 0
0 0 0
0 0 0
0 0 0
0 0 0
0 0 0
0 0 0
0 0 0
0 0 0
0 0 0
0 0 0
0 0 0
0 0 0
0 0 0
0 0 0
0 0 0
0 0 0
0 0 0
0 0 0
0 0 0
0 0 0
0 0 0
0 0 0
0 0 0
0 0 0
0 0 0
0 0 0
0 0 0
0 0 0
0 0 0
0 0 0
0 0 0
0 0 0
0 0 0
0 0 0
0 0 0
0 0 0
0 0 0
0 0 0
0 0 0
0 0 0
0 0 0
0 0 0
0 0 0
0 0 0
0 0 0
0 0 0
0 0 0
0 0 0
0 0 0
0 0 0
0 0 0
0 0 0
0 0 0
0 0 0
0 0 0
0 0 0
0 0 0
0 0 0
0 0 0
0 0 0
0 0 0
0 0 0
0 0 0
0 0 0
0 0 0
0 0 0
0 0 0
0 0 0
0 0 0
0 0 0
0 0 0
0 0 0
0 0 0
0 0 0
0 0 0
0 0 0
0 0 0
0 0 0
0 0 0
0 0 0
0 0 0
0 0 0
0 0 0
0 0 0
0 0 0
0 0 0
0 0 0
0 0 0
0 0 0
0 0 0
0 0 0
0 0 0
0 0 0
0 0 0
0 0 0
0 0 0
0 0 0
0 0 0
0 0 0
0 0 0
0 0 0
0 0 0
0 0 0
0 0 0
0 0 0
0 0 0
0 0 0
0 0 0
0 0 0
0 0 0
0 0 0
0 0 0
0 0 0
0 0 0
0 0 0
0 0 0
0 0 0
0 0 0
0 0 0
0 0 0
0 0 0
0 0 0
0 0 0
0 0 0
0 0 0
0 0 0
0 0 0
0 0 0
0 0 0
0 0 0
0 0 0
14 20 0
0 0 0
21 30 36
25 35 0
15 22 0
0 0 0
25 35 0
14 20 0
0 0 0
28 40 0
0 0 0
0 0 0
14 20 0
21 30 36
0 0 0
0 0 0
14 20 0
0 0 0
0 0 0
14 20 0
20 28 0
14 20 0
0 0 0
14 20 0
20 28 0
14 20 0
0 0 0
0 0 0
20 28 0
0 0 0
14 20 0
25 35 0
14 20 0
0 0 0
14 20 0
20 28 0
14 20 0
20 28 0
28 40 0
14 20 0
20 28 0
20 28 0
14 20 0
0 0 0
14 20 0
0 0 0
0 0 0
14 20 0
20 28 0
20 28 0
0 0 0
0 0 0
0 0 0
20 28 0
0 0 0
0 0 0
25 35 0
14 20 0
14 20 0
20 28 0
20 28 0
20 28 0
16 22 36
14 20 0
14 20 0
0 0 0
0 0 0
25 35 0
14 20 0
0 0 0
0 0 0
14 20 0
25 35 0
20 28 0
0 0 0
0 0 0
0 0 0
0 0 0
20 28 0
0 0 0
20 28 0
25 35 0
0 0 0
20 28 0
28 40 0
14 20 0
0 0 0
20 28 0
0 0 0
0 0 0
21 30 36
14 20 0
15 22 0
0 0 0
14 20 0
25 35 0
14 20 0
14 20 0
4 8 0
20 28 0
20 30 0
14 20 0
0 0 0
29 42 36
0 0 0
0 0 0
0 0 0
32 45 0
20 28 0
0 0 0
0 0 0
28 40 0
25 35 0
0 0 0
20 28 0
14 20 0
0 0 0
14 20 0
20 28 0
0 0 0
0 0 0
14 20 0
14 20 0
14 20 0
14 20 0
14 20 0
0 0 0
20 28 0
20 28 0
0 0 0
0 0 0
0 0 0
0 0 0
0 0 0
0 0 0
0 0 0
0 0 0
0 0 0
0 0 0
0 0 0
0 0 0
0 0 0
0 0 0
0 0 0
0 0 0
0 0 0
0 0 0
0 0 0
0 0 0
0 0 0
0 0 0
0 0 0
0 0 0
0 0 0
0 0 0
0 0 0
0 0 0
0 0 0
0 0 0
0 0 0
0 0 0
0 0 0
0 0 0
0 0 0
0 0 0
0 0 0
0 0 0
0 0 0
0 0 0
0 0 0
0 0 0
0 0 0
0 0 0
0 0 0
0 0 0
0 0 0
0 0 0
0 0 0
0 0 0
0 0 0
0 0 0
0 0 0
0 0 0
0 0 0
0 0 0
0 0 0
0 0 0
0 0 0
0 0 0
0 0 0
0 0 0
0 0 0
0 0 0
0 0 0
0 0 0
0 0 0
0 0 0
0 0 0
0 0 0
0 0 0
0 0 0
0 0 0
0 0 0
0 0 0
0 0 0
0 0 0
0 0 0
0 0 0
0 0 0
0 0 0
0 0 0
0 0 0
0 0 0
0 0 0
0 0 0
0 0 0
0 0 0
0 0 0
0 0 0
0 0 0
0 0 0
0 0 0
0 0 0
0 0 0
0 0 0
0 0 0
0 0 0
0 0 0
0 0 0
0 0 0
0 0 0
0 0 0
0 0 0
0 0 0
0 0 0
0 0 0
0 0 0
0 0 0
0 0 0
0 0 0
0 0 0
0 0 0
0 0 0
0 0 0
0 0 0
0 0 0
0 0 0
0 0 0
0 0 0
0 0 0
0 0 0
0 0 0
0 0 0
0 0 0
0 0 0
0 0 0
0 0 0
0 0 0
0 0 0
0 0 0
0 0 0
0 0 0
0 0 0
0 0 0
0 0 0
0 0 0
0 0 0
0 0 0
0 0 0
0 0 0
0 0 0
0 0 0
0 0 0
0 0 0
0 0 0
0 0 0
0 0 0
0 0 0
0 0 0
0 0 0
0 0 0
0 0 0
0 0 0
0 0 0
0 0 0
0 0 0
0 0 0
0 0 0
0 0 0
0 0 0
0 0 0
0 0 0
0 0 0
0 0 0
0 0 0
0 0 0
0 0 0
0 0 0
0 0 0
0 0 0
0 0 0
0 0 0
0 0 0
0 0 0
0 0 0
0 0 0
0 0 0
0 0 0
0 0 0
0 0 0
0 0 0
0 0 0
0 0 0
0 0 0
0 0 0
0 0 0
0 0 0
0 0 0
0 0 0
0 0 0
0 0 0
0 0 0
0 0 0
0 0 0
0 0 0
0 0 0
0 0 0
0 0 0
0 0 0
0 0 0
0 0 0
0 0 0
0 0 0
0 0 0
0 0 0
0 0 0
0 0 0
0 0 0
0 0 0
0 0 0
0 0 0
0 0 0
0 0 0
0 0 0
0 0 0
0 0 0
0 0 0
0 0 0
0 0 0
0 0 0
0 0 0
0 0 0
0 0 0
0 0 0
0 0 0
0 0 0
0 0 0
0 0 0
0 0 0
0 0 0
0 0 0
0 0 0
0 0 0
0 0 0
0 0 0
0 0 0
0 0 0
0 0 0
0 0 0
0 0 0
0 0 0
0 0 0
0 0 0
0 0 0
0 0 0
0 0 0
0 0 0
0 0 0
0 0 0
0 0 0
0 0 0
0 0 0
0 0 0
0 0 0
0 0 0
0 0 0
0 0 0
0 0 0
0 0 0
0 0 0
0 0 0
0 0 0
0 0 0
0 0 0
0 0 0
0 0 0
0 0 0
0 0 0
0 0 0
0 0 0
0 0 0
20 28 0
0 0 0
0 0 0
20 28 0
14 20 0
0 0 0
20 28 0
20 28 0
20 28 0
20 28 0
20 28 0
20 28 0
20 28 0
14 20 0
20 28 0
14 20 0
28 40 0
14 20 0
14 20 0
14 20 0
14 20 0
28 40 0
0 0 0
14 20 0
14 20 0
20 28 0
0 0 0
20 28 0
0 0 0
25 35 0
14 20 0
0 0 0
0 0 0
0 0 0
14 20 0
0 0 0
0 0 0
25 35 0
28 40 0
0 0 0
20 28 0
0 0 0
14 20 0
14 20 0
14 20 0
14 20 0
14 20 0
14 20 0
25 35 0
0 0 0
20 28 0
25 35 0
20 28 0
0 0 0
14 20 0
14 20 0
20 28 0
20 28 0
20 28 0
14 20 0
28 40 0
20 28 0
0 0 0
0 0 0
20 28 0
14 20 0
20 28 0
20 28 0
20 28 0
20 28 0
0 0 0
0 0 0
20 28 0
0 0 0
20 28 0
20 28 0
14 20 0
14 20 0
20 28 0
25 35 0
14 20 0
14 20 0
25 35 0
20 28 0
0 0 0
14 20 0
0 0 0
14 20 0
20 28 0
4 8 0
25 35 0
0 0 0
14 20 0
0 0 0
20 28 0
14 20 0
15 22 0
0 0 0
14 20 0
0 0 0
14 20 0
20 28 0
20 28 0
25 35 0
0 0 0
0 0 0
0 0 0
20 28 0
20 28 0
0 0 0
14 20 0
0 0 0
14 20 0
0 0 0
20 28 0
20 28 0
4 9 0
14 20 0
0 0 0
14 20 0
20 28 0
15 22 0
14 20 0
20 28 0
0 0 0
14 20 0
25 35 0
0 0 0
14 20 0
0 0 0
0 0 0
0 0 0
0 0 0
0 0 0
0 0 0
0 0 0
0 0 0
0 0 0
0 0 0
0 0 0
0 0 0
0 0 0
0 0 0
0 0 0
0 0 0
0 0 0
0 0 0
0 0 0
0 0 0
0 0 0
0 0 0
0 0 0
0 0 0
0 0 0
0 0 0
0 0 0
0 0 0
0 0 0
0 0 0
0 0 0
0 0 0
0 0 0
0 0 0
0 0 0
0 0 0
0 0 0
0 0 0
0 0 0
0 0 0
0 0 0
0 0 0
0 0 0
0 0 0
0 0 0
0 0 0
0 0 0
0 0 0
0 0 0
0 0 0
0 0 0
0 0 0
0 0 0
0 0 0
0 0 0
0 0 0
0 0 0
0 0 0
0 0 0
0 0 0
0 0 0
0 0 0
0 0 0
0 0 0
0 0 0
0 0 0
0 0 0
0 0 0
0 0 0
0 0 0
0 0 0
0 0 0
0 0 0
0 0 0
0 0 0
0 0 0
0 0 0
0 0 0
0 0 0
0 0 0
0 0 0
0 0 0
0 0 0
0 0 0
0 0 0
0 0 0
0 0 0
0 0 0
0 0 0
0 0 0
0 0 0
0 0 0
0 0 0
0 0 0
0 0 0
0 0 0
0 0 0
0 0 0
0 0 0
0 0 0
0 0 0
0 0 0
0 0 0
0 0 0
0 0 0
0 0 0
0 0 0
0 0 0
0 0 0
0 0 0
0 0 0
0 0 0
0 0 0
0 0 0
0 0 0
0 0 0
0 0 0
0 0 0
0 0 0
0 0 0
0 0 0
0 0 0
0 0 0
0 0 0
0 0 0
0 0 0
0 0 0
0 0 0
0 0 0
0 0 0
0 0 0
0 0 0
0 0 0
0 0 0
0 0 0
0 0 0
0 0 0
0 0 0
0 0 0
0 0 0
0 0 0
0 0 0
0 0 0
0 0 0
0 0 0
0 0 0
0 0 0
0 0 0
0 0 0
0 0 0
0 0 0
0 0 0
0 0 0
0 0 0
0 0 0
0 0 0
0 0 0
0 0 0
0 0 0
0 0 0
0 0 0
0 0 0
0 0 0
0 0 0
0 0 0
0 0 0
0 0 0
0 0 0
0 0 0
0 0 0
0 0 0
0 0 0
0 0 0
0 0 0
0 0 0
0 0 0
0 0 0
0 0 0
0 0 0
0 0 0
0 0 0
0 0 0
0 0 0
0 0 0
0 0 0
0 0 0
0 0 0
0 0 0
0 0 0
0 0 0
0 0 0
0 0 0
0 0 0
0 0 0
0 0 0
0 0 0
0 0 0
0 0 0
0 0 0
0 0 0
0 0 0
0 0 0
0 0 0
0 0 0
0 0 0
0 0 0
0 0 0
0 0 0
0 0 0
0 0 0
0 0 0
0 0 0
0 0 0
0 0 0
0 0 0
0 0 0
0 0 0
0 0 0
0 0 0
0 0 0
0 0 0
0 0 0
0 0 0
0 0 0
0 0 0
0 0 0
0 0 0
0 0 0
0 0 0
0 0 0
0 0 0
0 0 0
0 0 0
0 0 0
0 0 0
0 0 0
0 0 0
0 0 0
0 0 0
0 0 0
0 0 0
0 0 0
0 0 0
0 0 0
0 0 0
0 0 0
0 0 0
0 0 0
0 0 0
0 0 0
0 0 0
0 0 0
0 0 0
0 0 0
0 0 0
0 0 0
0 0 0
0 0 0
0 0 0
0 0 0
0 0 0
0 0 0
0 0 0
0 0 0
0 0 0
0 0 0
0 0 0
0 0 0
0 0 0
0 0 0
14 20 0
14 20 0
26 36 36
15 22 0
14 20 0
25 35 0
0 0 0
0 0 0
28 40 0
0 0 0
20 28 0
0 0 0
21 30 36
21 30 36
0 0 0
14 20 0
0 0 0
0 0 0
20 28 0
14 20 0
0 0 0
0 0 0
14 20 0
25 35 0
0 0 0
0 0 0
14 20 0
14 20 0
0 0 0
14 20 0
28 40 0
20 28 0
14 20 0
20 28 0
25 35 0
20 28 0
14 20 0
28 40 0
0 0 0
25 35 0
20 28 0
0 0 0
14 20 0
0 0 0
0 0 0
14 20 0
14 20 0
28 40 0
0 0 0
0 0 0
0 0 0
20 28 0
0 0 0
20 28 0
20 28 0
20 28 0
14 20 0
20 28 0
14 20 0
14 20 0
14 20 0
14 20 0
0 0 0
14 20 0
0 0 0
25 35 0
20 28 0
0 0 0
0 0 0
0 0 0
25 35 0
20 28 0
14 20 0
0 0 0
0 0 0
0 0 0
0 0 0
14 20 0
14 20 0
20 28 0
25 35 0
14 20 0
28 40 0
14 20 0
14 20 0
20 28 0
0 0 0
0 0 0
14 20 0
0 0 0
14 20 0
14 20 0
14 20 0
14 20 0
25 35 0
14 20 0
0 0 0
14 20 0
21 31 0
0 0 0
0 0 0
25 35 0
0 0 0
0 0 0
0 0 0
28 40 0
25 35 0
0 0 0
0 0 0
20 28 0
26 36 36
0 0 0
0 0 0
14 20 0
0 0 0
0 0 0
28 40 0
14 20 0
0 0 0
20 28 0
20 28 0
0 0 0
20 28 0
14 20 0
14 20 0
14 20 0
14 20 0
0 0 0
20 28 0
14 20 0
0 0 0
0 0 0
0 0 0
0 0 0
0 0 0
0 0 0
0 0 0
0 0 0
0 0 0
0 0 0
0 0 0
0 0 0
0 0 0
0 0 0
0 0 0
0 0 0
0 0 0
0 0 0
0 0 0
0 0 0
0 0 0
0 0 0
0 0 0
0 0 0
0 0 0
0 0 0
0 0 0
0 0 0
0 0 0
0 0 0
0 0 0
0 0 0
0 0 0
0 0 0
0 0 0
0 0 0
0 0 0
0 0 0
0 0 0
0 0 0
0 0 0
0 0 0
0 0 0
0 0 0
0 0 0
0 0 0
0 0 0
0 0 0
0 0 0
0 0 0
0 0 0
0 0 0
0 0 0
0 0 0
0 0 0
0 0 0
0 0 0
0 0 0
0 0 0
0 0 0
0 0 0
0 0 0
0 0 0
0 0 0
0 0 0
0 0 0
0 0 0
0 0 0
0 0 0
0 0 0
0 0 0
0 0 0
0 0 0
0 0 0
0 0 0
0 0 0
0 0 0
0 0 0
0 0 0
0 0 0
0 0 0
0 0 0
0 0 0
0 0 0
0 0 0
0 0 0
0 0 0
0 0 0
0 0 0
0 0 0
0 0 0
0 0 0
0 0 0
0 0 0
0 0 0
0 0 0
0 0 0
0 0 0
0 0 0
0 0 0
0 0 0
0 0 0
0 0 0
0 0 0
0 0 0
0 0 0
0 0 0
0 0 0
0 0 0
0 0 0
0 0 0
0 0 0
0 0 0
0 0 0
0 0 0
0 0 0
0 0 0
0 0 0
0 0 0
0 0 0
0 0 0
0 0 0
0 0 0
0 0 0
0 0 0
0 0 0
0 0 0
0 0 0
0 0 0
0 0 0
0 0 0
0 0 0
0 0 0
0 0 0
0 0 0
0 0 0
0 0 0
0 0 0
0 0 0
0 0 0
0 0 0
0 0 0
0 0 0
0 0 0
0 0 0
0 0 0
0 0 0
0 0 0
0 0 0
0 0 0
0 0 0
0 0 0
0 0 0
0 0 0
0 0 0
0 0 0
0 0 0
0 0 0
0 0 0
0 0 0
0 0 0
0 0 0
0 0 0
0 0 0
0 0 0
0 0 0
0 0 0
0 0 0
0 0 0
0 0 0
0 0 0
0 0 0
0 0 0
0 0 0
0 0 0
0 0 0
0 0 0
0 0 0
0 0 0
0 0 0
0 0 0
0 0 0
0 0 0
0 0 0
0 0 0
0 0 0
0 0 0
0 0 0
0 0 0
0 0 0
0 0 0
0 0 0
0 0 0
0 0 0
0 0 0
0 0 0
0 0 0
0 0 0
0 0 0
0 0 0
0 0 0
0 0 0
0 0 0
0 0 0
0 0 0
0 0 0
0 0 0
0 0 0
0 0 0
0 0 0
0 0 0
0 0 0
0 0 0
0 0 0
0 0 0
0 0 0
0 0 0
0 0 0
0 0 0
0 0 0
0 0 0
0 0 0
0 0 0
0 0 0
0 0 0
0 0 0
0 0 0
0 0 0
0 0 0
0 0 0
0 0 0
0 0 0
0 0 0
0 0 0
0 0 0
0 0 0
0 0 0
0 0 0
0 0 0
0 0 0
0 0 0
0 0 0
0 0 0
0 0 0
0 0 0
0 0 0
0 0 0
0 0 0
0 0 0
0 0 0
0 0 0
0 0 0
0 0 0
0 0 0
0 0 0
0 0 0
0 0 0
0 0 0
0 0 0
0 0 0
0 0 0
0 0 0
0 0 0
0 0 0
0 0 0
0 0 0
0 0 0
0 0 0
0 0 0
0 0 0
0 0 0
25 35 0
0 0 0
0 0 0
20 28 0
20 28 0
0 0 0
28 40 0
20 28 0
25 35 0
20 28 0
20 28 0
20 28 0
28 40 0
20 28 0
14 20 0
20 28 0
25 35 0
14 20 0
14 20 0
20 28 0
0 0 0
25 35 0
0 0 0
14 20 0
25 35 0
14 20 0
14 20 0
20 28 0
0 0 0
20 28 0
0 0 0
14 20 0
14 20 0
14 20 0
0 0 0
0 0 0
0 0 0
25 35 0
28 40 0
20 28 0
14 20 0
14 20 0
0 0 0
20 28 0
14 20 0
0 0 0
14 20 0
20 28 0
14 20 0
0 0 0
25 35 0
20 28 0
14 20 0
0 0 0
14 20 0
0 0 0
33 46 36
14 20 0
14 20 0
28 40 0
14 20 0
20 28 0
0 0 0
20 28 0
0 0 0
14 20 0
25 35 0
20 28 0
25 35 0
14 20 0
0 0 0
14 20 0
25 35 0
20 28 0
14 20 0
25 35 0
14 20 0
20 28 0
20 28 0
14 20 0
20 28 0
0 0 0
20 28 0
20 28 0
14 20 0
4 9 0
14 20 0
20 28 0
14 20 0
20 30 0
14 20 0
14 20 0
0 0 0
20 28 0
14 20 0
15 22 0
14 20 0
0 0 0
14 20 0
14 20 0
20 28 0
14 20 0
28 40 0
0 0 0
0 0 0
0 0 0
15 22 0
20 28 0
0 0 0
14 20 0
14 20 0
0 0 0
20 28 0
14 20 0
14 20 0
14 20 0
4 9 0
0 0 0
20 28 0
20 28 0
15 22 0
20 28 0
20 28 0
0 0 0
0 0 0
28 40 0
0 0 0
14 20 0
14 20 0
0 0 0
0 0 0
0 0 0
0 0 0
0 0 0
0 0 0
0 0 0
0 0 0
0 0 0
0 0 0
0 0 0
0 0 0
0 0 0
0 0 0
0 0 0
0 0 0
0 0 0
0 0 0
0 0 0
0 0 0
0 0 0
0 0 0
0 0 0
0 0 0
0 0 0
0 0 0
0 0 0
0 0 0
0 0 0
0 0 0
0 0 0
0 0 0
0 0 0
0 0 0
0 0 0
0 0 0
0 0 0
0 0 0
0 0 0
0 0 0
0 0 0
0 0 0
0 0 0
0 0 0
0 0 0
0 0 0
0 0 0
0 0 0
0 0 0
0 0 0
0 0 0
0 0 0
0 0 0
0 0 0
0 0 0
0 0 0
0 0 0
0 0 0
0 0 0
0 0 0
0 0 0
0 0 0
0 0 0
0 0 0
0 0 0
0 0 0
0 0 0
0 0 0
0 0 0
0 0 0
0 0 0
0 0 0
0 0 0
0 0 0
0 0 0
0 0 0
0 0 0
0 0 0
0 0 0
0 0 0
0 0 0
0 0 0
0 0 0
0 0 0
0 0 0
0 0 0
0 0 0
0 0 0
0 0 0
0 0 0
0 0 0
0 0 0
0 0 0
0 0 0
0 0 0
0 0 0
0 0 0
0 0 0
0 0 0
0 0 0
0 0 0
0 0 0
0 0 0
0 0 0
0 0 0
0 0 0
0 0 0
0 0 0
0 0 0
0 0 0
0 0 0
0 0 0
0 0 0
0 0 0
0 0 0
0 0 0
0 0 0
0 0 0
0 0 0
0 0 0
0 0 0
0 0 0
0 0 0
0 0 0
0 0 0
0 0 0
0 0 0
0 0 0
0 0 0
0 0 0
0 0 0
0 0 0
0 0 0
0 0 0
0 0 0
0 0 0
0 0 0
0 0 0
0 0 0
0 0 0
0 0 0
0 0 0
0 0 0
0 0 0
0 0 0
0 0 0
0 0 0
0 0 0
0 0 0
0 0 0
0 0 0
0 0 0
0 0 0
0 0 0
0 0 0
0 0 0
0 0 0
0 0 0
0 0 0
0 0 0
0 0 0
0 0 0
0 0 0
0 0 0
0 0 0
0 0 0
0 0 0
0 0 0
0 0 0
0 0 0
0 0 0
0 0 0
0 0 0
0 0 0
0 0 0
0 0 0
0 0 0
0 0 0
0 0 0
0 0 0
0 0 0
0 0 0
0 0 0
0 0 0
0 0 0
0 0 0
0 0 0
0 0 0
0 0 0
0 0 0
0 0 0
0 0 0
0 0 0
0 0 0
0 0 0
0 0 0
0 0 0
0 0 0
0 0 0
0 0 0
0 0 0
0 0 0
0 0 0
0 0 0
0 0 0
0 0 0
0 0 0
0 0 0
0 0 0
0 0 0
0 0 0
0 0 0
0 0 0
0 0 0
0 0 0
0 0 0
0 0 0
0 0 0
0 0 0
0 0 0
0 0 0
0 0 0
0 0 0
0 0 0
0 0 0
0 0 0
0 0 0
0 0 0
0 0 0
0 0 0
0 0 0
0 0 0
0 0 0
0 0 0
0 0 0
0 0 0
0 0 0
0 0 0
0 0 0
0 0 0
0 0 0
0 0 0
0 0 0
0 0 0
0 0 0
0 0 0
0 0 0
0 0 0
0 0 0
0 0 0
0 0 0
0 0 0
0 0 0
0 0 0
0 0 0
0 0 0
0 0 0
0 0 0
0 0 0
0 0 0
0 0 0
0 0 0
0 0 0
0 0 0
0 0 0
0 0 0
0 0 0
0 0 0
0 0 0
0 0 0
14 20 0
0 0 0
14 20 0
14 20 0
20 28 0
0 0 0
20 28 0
0 0 0
15 22 0
14 20 0
14 20 0
14 20 0
0 0 0
14 20 0
0 0 0
14 20 0
14 20 0
14 20 0
14 20 0
0 0 0
14 20 0
20 28 0
14 20 0
0 0 0
0 0 0
14 20 0
0 0 0
14 20 0
25 35 0
25 35 0
14 20 0
20 28 0
25 35 0
20 28 0
14 20 0
25 35 0
0 0 0
25 35 0
20 28 0
0 0 0
14 20 0
0 0 0
0 0 0
20 28 0
20 28 0
25 35 0
0 0 0
0 0 0
0 0 0
20 28 0
0 0 0
20 28 0
25 35 0
14 20 0
14 20 0
20 28 0
14 20 0
14 20 0
14 20 0
14 20 0
0 1 0
14 20 0
14 20 0
28 40 0
14 20 0
0 0 0
0 0 0
14 20 0
29 42 36
26 36 36
20 28 0
0 0 0
0 0 0
0 0 0
0 0 0
0 0 0
14 20 0
25 35 0
14 20 0
20 28 0
28 40 0
14 20 0
0 0 0
20 28 0
0 0 0
0 0 0
14 20 0
14 20 0
14 20 0
14 20 0
14 20 0
25 35 0
20 28 0
14 20 0
0 0 0
20 30 0
20 30 0
0 0 0
14 20 0
20 28 0
0 0 0
14 20 0
0 0 0
28 40 0
14 20 0
0 0 0
14 20 0
14 20 0
20 28 0
0 0 0
14 20 0
0 0 0
0 0 0
20 28 0
25 35 0
0 0 0
20 28 0
14 20 0
14 20 0
14 20 0
20 28 0
14 20 0
0 0 0
0 0 0
14 20 0
4 8 0
20 28 0
20 28 0
0 0 0
0 0 0
0 0 0
0 0 0
0 0 0
0 0 0
0 0 0
0 0 0
0 0 0
0 0 0
0 0 0
0 0 0
0 0 0
0 0 0
0 0 0
0 0 0
0 0 0
0 0 0
0 0 0
0 0 0
0 0 0
0 0 0
0 0 0
0 0 0
0 0 0
0 0 0
0 0 0
0 0 0
0 0 0
0 0 0
0 0 0
0 0 0
0 0 0
0 0 0
0 0 0
0 0 0
0 0 0
0 0 0
0 0 0
0 0 0
0 0 0
0 0 0
0 0 0
0 0 0
0 0 0
0 0 0
0 0 0
0 0 0
0 0 0
0 0 0
0 0 0
0 0 0
0 0 0
0 0 0
0 0 0
0 0 0
0 0 0
0 0 0
0 0 0
0 0 0
0 0 0
0 0 0
0 0 0
0 0 0
0 0 0
0 0 0
0 0 0
0 0 0
0 0 0
0 0 0
0 0 0
0 0 0
0 0 0
0 0 0
0 0 0
0 0 0
0 0 0
0 0 0
0 0 0
0 0 0
0 0 0
0 0 0
0 0 0
0 0 0
0 0 0
0 0 0
0 0 0
0 0 0
0 0 0
0 0 0
0 0 0
0 0 0
0 0 0
0 0 0
0 0 0
0 0 0
0 0 0
0 0 0
0 0 0
0 0 0
0 0 0
0 0 0
0 0 0
0 0 0
0 0 0
0 0 0
0 0 0
0 0 0
0 0 0
0 0 0
0 0 0
0 0 0
0 0 0
0 0 0
0 0 0
0 0 0
0 0 0
0 0 0
0 0 0
0 0 0
0 0 0
0 0 0
0 0 0
0 0 0
0 0 0
0 0 0
0 0 0
0 0 0
0 0 0
0 0 0
0 0 0
0 0 0
0 0 0
0 0 0
0 0 0
0 0 0
0 0 0
0 0 0
0 0 0
0 0 0
0 0 0
0 0 0
0 0 0
0 0 0
0 0 0
0 0 0
0 0 0
0 0 0
0 0 0
0 0 0
0 0 0
0 0 0
0 0 0
0 0 0
0 0 0
0 0 0
0 0 0
0 0 0
0 0 0
0 0 0
0 0 0
0 0 0
0 0 0
0 0 0
0 0 0
0 0 0
0 0 0
0 0 0
0 0 0
0 0 0
0 0 0
0 0 0
0 0 0
0 0 0
0 0 0
0 0 0
0 0 0
0 0 0
0 0 0
0 0 0
0 0 0
0 0 0
0 0 0
0 0 0
0 0 0
0 0 0
0 0 0
0 0 0
0 0 0
0 0 0
0 0 0
0 0 0
0 0 0
0 0 0
0 0 0
0 0 0
0 0 0
0 0 0
0 0 0
0 0 0
0 0 0
0 0 0
0 0 0
0 0 0
0 0 0
0 0 0
0 0 0
0 0 0
0 0 0
0 0 0
0 0 0
0 0 0
0 0 0
0 0 0
0 0 0
0 0 0
0 0 0
0 0 0
0 0 0
0 0 0
0 0 0
0 0 0
0 0 0
0 0 0
0 0 0
0 0 0
0 0 0
0 0 0
0 0 0
0 0 0
0 0 0
0 0 0
0 0 0
0 0 0
0 0 0
0 0 0
0 0 0
0 0 0
0 0 0
0 0 0
0 0 0
0 0 0
0 0 0
0 0 0
0 0 0
0 0 0
0 0 0
0 0 0
0 0 0
0 0 0
0 0 0
0 0 0
0 0 0
0 0 0
0 0 0
0 0 0
0 0 0
0 0 0
0 0 0
0 0 0
0 0 0
0 0 0
0 0 0
0 0 0
0 0 0
0 0 0
0 0 0
0 0 0
0 0 0
0 0 0
0 0 0
0 0 0
0 0 0
20 28 0
0 0 0
14 20 0
14 20 0
20 28 0
14 20 0
32 45 0
20 28 0
14 20 0
14 20 0
25 35 0
20 28 0
20 28 0
20 28 0
0 0 0
20 28 0
14 20 0
14 20 0
20 28 0
14 20 0
20 28 0
0 0 0
0 0 0
14 20 0
20 28 0
20 28 0
25 35 0
0 0 0
20 28 0
14 20 0
14 20 0
0 0 0
14 20 0
0 0 0
0 0 0
0 0 0
14 20 0
35 50 0
0 0 0
25 35 0
14 20 0
14 20 0
14 20 0
14 20 0
14 20 0
0 0 0
20 28 0
20 28 0
0 0 0
14 20 0
28 40 0
20 28 0
0 0 0
20 28 0
0 0 0
20 28 0
20 28 0
14 20 0
14 20 0
28 40 0
14 20 0
14 20 0
14 20 0
20 28 0
20 28 0
25 35 0
14 20 0
20 28 0
25 35 0
0 0 0
14 20 0
20 28 0
14 20 0
25 35 0
25 35 0
14 20 0
14 20 0
25 35 0
14 20 0
14 20 0
14 20 0
14 20 0
20 28 0
0 0 0
14 20 0
14 20 0
14 20 0
14 20 0
15 22 0
20 28 0
14 20 0
0 0 0
14 20 0
20 28 0
15 22 0
14 20 0
0 0 0
14 20 0
14 20 0
14 20 0
20 28 0
28 40 0
0 0 0
0 0 0
0 0 0
14 20 0
20 28 0
0 0 0
20 28 0
20 28 0
0 0 0
20 28 0
14 20 0
14 20 0
14 20 0
0 0 0
0 0 0
20 28 0
25 35 0
15 22 0
20 28 0
20 28 0
14 20 0
14 20 0
25 36 0
0 0 0
14 20 0
14 20 0
20 28 0
0 0 0
0 0 0
0 0 0
0 0 0
0 0 0
0 0 0
0 0 0
0 0 0
0 0 0
0 0 0
0 0 0
0 0 0
0 0 0
0 0 0
0 0 0
0 0 0
0 0 0
0 0 0
0 0 0
0 0 0
0 0 0
0 0 0
0 0 0
0 0 0
0 0 0
0 0 0
0 0 0
0 0 0
0 0 0
0 0 0
0 0 0
0 0 0
0 0 0
0 0 0
0 0 0
0 0 0
0 0 0
0 0 0
0 0 0
0 0 0
0 0 0
0 0 0
0 0 0
0 0 0
0 0 0
0 0 0
0 0 0
0 0 0
0 0 0
0 0 0
0 0 0
0 0 0
0 0 0
0 0 0
0 0 0
0 0 0
0 0 0
0 0 0
0 0 0
0 0 0
0 0 0
0 0 0
0 0 0
0 0 0
0 0 0
0 0 0
0 0 0
0 0 0
0 0 0
0 0 0
0 0 0
0 0 0
0 0 0
0 0 0
0 0 0
0 0 0
0 0 0
0 0 0
0 0 0
0 0 0
0 0 0
0 0 0
0 0 0
0 0 0
0 0 0
0 0 0
0 0 0
0 0 0
0 0 0
0 0 0
0 0 0
0 0 0
0 0 0
0 0 0
0 0 0
0 0 0
0 0 0
0 0 0
0 0 0
0 0 0
0 0 0
0 0 0
0 0 0
0 0 0
0 0 0
0 0 0
0 0 0
0 0 0
0 0 0
0 0 0
0 0 0
0 0 0
0 0 0
0 0 0
0 0 0
0 0 0
0 0 0
0 0 0
0 0 0
0 0 0
0 0 0
0 0 0
0 0 0
0 0 0
0 0 0
0 0 0
0 0 0
0 0 0
0 0 0
0 0 0
0 0 0
0 0 0
0 0 0
0 0 0
0 0 0
0 0 0
0 0 0
0 0 0
0 0 0
0 0 0
0 0 0
0 0 0
0 0 0
0 0 0
0 0 0
0 0 0
0 0 0
0 0 0
0 0 0
0 0 0
0 0 0
0 0 0
0 0 0
0 0 0
0 0 0
0 0 0
0 0 0
0 0 0
0 0 0
0 0 0
0 0 0
0 0 0
0 0 0
0 0 0
0 0 0
0 0 0
0 0 0
0 0 0
0 0 0
0 0 0
0 0 0
0 0 0
0 0 0
0 0 0
0 0 0
0 0 0
0 0 0
0 0 0
0 0 0
0 0 0
0 0 0
0 0 0
0 0 0
0 0 0
0 0 0
0 0 0
0 0 0
0 0 0
0 0 0
0 0 0
0 0 0
0 0 0
0 0 0
0 0 0
0 0 0
0 0 0
0 0 0
0 0 0
0 0 0
0 0 0
0 0 0
0 0 0
0 0 0
0 0 0
0 0 0
0 0 0
0 0 0
0 0 0
0 0 0
0 0 0
0 0 0
0 0 0
0 0 0
0 0 0
0 0 0
0 0 0
0 0 0
0 0 0
0 0 0
0 0 0
0 0 0
0 0 0
0 0 0
0 0 0
0 0 0
0 0 0
0 0 0
0 0 0
0 0 0
0 0 0
0 0 0
0 0 0
0 0 0
0 0 0
0 0 0
0 0 0
0 0 0
0 0 0
0 0 0
0 0 0
0 0 0
0 0 0
0 0 0
0 0 0
0 0 0
0 0 0
0 0 0
0 0 0
0 0 0
0 0 0
0 0 0
0 0 0
0 0 0
0 0 0
0 0 0
0 0 0
0 0 0
0 0 0
0 0 0
0 0 0
0 0 0
0 0 0
0 0 0
0 0 0
0 0 0
0 0 0
0 0 0
0 0 0
0 0 0
0 0 0
20 28 0
15 22 0
14 20 0
25 35 0
0 0 0
20 28 0
0 0 0
20 30 0
0 0 0
20 28 0
0 0 0
0 0 0
0 0 0
0 0 0
14 20 0
20 28 0
14 20 0
0 0 0
14 20 0
14 20 0
25 35 0
0 0 0
20 28 0
0 0 0
14 20 0
0 0 0
14 20 0
25 35 0
20 28 0
20 28 0
25 35 0
20 28 0
20 28 0
20 28 0
28 40 0
25 35 0
20 28 0
14 20 0
0 0 0
20 28 0
0 0 0
0 0 0
20 28 0
20 28 0
20 28 0
0 0 0
0 0 0
0 0 0
14 20 0
14 20 0
20 28 0
20 28 0
20 28 0
14 20 0
20 28 0
14 20 0
20 28 0
14 20 0
0 0 0
14 20 0
0 0 0
25 35 0
20 28 0
0 0 0
16 22 36
0 0 0
28 40 0
25 35 0
20 28 0
0 0 0
0 0 0
0 0 0
4 8 0
0 0 0
14 20 0
25 35 0
20 28 0
14 20 0
28 40 0
20 28 0
14 20 0
20 28 0
14 20 0
14 20 0
14 20 0
0 0 0
20 28 0
14 20 0
20 30 0
25 35 0
20 28 0
14 20 0
0 0 0
15 22 0
25 36 0
0 0 0
0 0 0
20 28 0
0 0 0
0 0 0
20 28 0
32 45 0
14 20 0
0 0 0
14 20 0
14 20 0
20 28 0
0 0 0
14 20 0
4 9 0
14 20 0
20 28 0
25 35 0
0 0 0
14 20 0
0 0 0
14 20 0
14 20 0
20 28 0
20 28 0
0 0 0
0 0 0
0 0 0
14 20 0
14 20 0
14 20 0
14 20 0
0 0 0
20 28 0
14 20 0
0 0 0
0 0 0
0 0 0
0 0 0
0 0 0
0 0 0
0 0 0
0 0 0
0 0 0
0 0 0
0 0 0
0 0 0
0 0 0
0 0 0
0 0 0
0 0 0
0 0 0
0 0 0
0 0 0
0 0 0
0 0 0
0 0 0
0 0 0
0 0 0
0 0 0
0 0 0
0 0 0
0 0 0
0 0 0
0 0 0
0 0 0
0 0 0
0 0 0
0 0 0
0 0 0
0 0 0
0 0 0
0 0 0
0 0 0
0 0 0
0 0 0
0 0 0
0 0 0
0 0 0
0 0 0
0 0 0
0 0 0
0 0 0
0 0 0
0 0 0
0 0 0
0 0 0
0 0 0
0 0 0
0 0 0
0 0 0
0 0 0
0 0 0
0 0 0
0 0 0
0 0 0
0 0 0
0 0 0
0 0 0
0 0 0
0 0 0
0 0 0
0 0 0
0 0 0
0 0 0
0 0 0
0 0 0
0 0 0
0 0 0
0 0 0
0 0 0
0 0 0
0 0 0
0 0 0
0 0 0
0 0 0
0 0 0
0 0 0
0 0 0
0 0 0
0 0 0
0 0 0
0 0 0
0 0 0
0 0 0
0 0 0
0 0 0
0 0 0
0 0 0
0 0 0
0 0 0
0 0 0
0 0 0
0 0 0
0 0 0
0 0 0
0 0 0
0 0 0
0 0 0
0 0 0
0 0 0
0 0 0
0 0 0
0 0 0
0 0 0
0 0 0
0 0 0
0 0 0
0 0 0
0 0 0
0 0 0
0 0 0
0 0 0
0 0 0
0 0 0
0 0 0
0 0 0
0 0 0
0 0 0
0 0 0
0 0 0
0 0 0
0 0 0
0 0 0
0 0 0
0 0 0
0 0 0
0 0 0
0 0 0
0 0 0
0 0 0
0 0 0
0 0 0
0 0 0
0 0 0
0 0 0
0 0 0
0 0 0
0 0 0
0 0 0
0 0 0
0 0 0
0 0 0
0 0 0
0 0 0
0 0 0
0 0 0
0 0 0
0 0 0
0 0 0
0 0 0
0 0 0
0 0 0
0 0 0
0 0 0
0 0 0
0 0 0
0 0 0
0 0 0
0 0 0
0 0 0
0 0 0
0 0 0
0 0 0
0 0 0
0 0 0
0 0 0
0 0 0
0 0 0
0 0 0
0 0 0
0 0 0
0 0 0
0 0 0
0 0 0
0 0 0
0 0 0
0 0 0
0 0 0
0 0 0
0 0 0
0 0 0
0 0 0
0 0 0
0 0 0
0 0 0
0 0 0
0 0 0
0 0 0
0 0 0
0 0 0
0 0 0
0 0 0
0 0 0
0 0 0
0 0 0
0 0 0
0 0 0
0 0 0
0 0 0
0 0 0
0 0 0
0 0 0
0 0 0
0 0 0
0 0 0
0 0 0
0 0 0
0 0 0
0 0 0
0 0 0
0 0 0
0 0 0
0 0 0
0 0 0
0 0 0
0 0 0
0 0 0
0 0 0
0 0 0
0 0 0
0 0 0
0 0 0
0 0 0
0 0 0
0 0 0
0 0 0
0 0 0
0 0 0
0 0 0
0 0 0
0 0 0
0 0 0
0 0 0
0 0 0
0 0 0
0 0 0
0 0 0
0 0 0
0 0 0
0 0 0
0 0 0
0 0 0
0 0 0
0 0 0
0 0 0
0 0 0
0 0 0
0 0 0
0 0 0
0 0 0
0 0 0
0 0 0
0 0 0
0 0 0
0 0 0
0 0 0
0 0 0
0 0 0
0 0 0
0 0 0
0 0 0
0 0 0
0 0 0
0 0 0
0 0 0
20 28 0
0 0 0
14 20 0
14 20 0
20 28 0
14 20 0
32 45 0
20 28 0
14 20 0
14 20 0
25 35 0
20 28 0
28 40 0
14 20 0
0 0 0
20 28 0
14 20 0
14 20 0
14 20 0
14 20 0
20 28 0
0 0 0
0 0 0
14 20 0
20 28 0
20 28 0
20 28 0
20 28 0
14 20 0
14 20 0
14 20 0
0 0 0
14 20 0
0 0 0
0 0 0
0 0 0
25 35 0
28 40 0
14 20 0
20 28 0
14 20 0
14 20 0
20 28 0
14 20 0
0 0 0
14 20 0
25 35 0
14 20 0
0 0 0
20 28 0
20 28 0
20 28 0
14 20 0
14 20 0
14 20 0
25 35 0
0 0 0
25 35 0
32 45 0
0 0 0
20 28 0
14 20 0
20 28 0
14 20 0
14 20 0
20 28 0
20 28 0
20 28 0
15 22 0
0 0 0
20 28 0
20 28 0
25 35 0
14 20 0
14 20 0
14 20 0
20 28 0
20 28 0
14 20 0
14 20 0
0 0 0
25 35 0
0 0 0
14 20 0
14 20 0
14 20 0
14 20 0
4 8 0
20 28 0
0 0 0
14 20 0
14 20 0
20 28 0
25 35 0
15 22 0
0 0 0
14 20 0
14 20 0
0 0 0
28 40 0
28 40 0
0 0 0
0 0 0
0 0 0
14 20 0
25 35 0
0 0 0
14 20 0
20 28 0
0 0 0
20 28 0
14 20 0
14 20 0
14 20 0
0 0 0
0 0 0
20 28 0
14 20 0
20 30 0
25 35 0
25 35 0
14 20 0
14 20 0
25 35 0
14 20 0
14 20 0
14 20 0
0 0 0
20 28 0
0 0 0
0 0 0
0 0 0
0 0 0
0 0 0
0 0 0
0 0 0
0 0 0
0 0 0
0 0 0
0 0 0
0 0 0
0 0 0
0 0 0
0 0 0
0 0 0
0 0 0
0 0 0
0 0 0
0 0 0
0 0 0
0 0 0
0 0 0
0 0 0
0 0 0
0 0 0
0 0 0
0 0 0
0 0 0
0 0 0
0 0 0
0 0 0
0 0 0
0 0 0
0 0 0
0 0 0
0 0 0
0 0 0
0 0 0
0 0 0
0 0 0
0 0 0
0 0 0
0 0 0
0 0 0
0 0 0
0 0 0
0 0 0
0 0 0
0 0 0
0 0 0
0 0 0
0 0 0
0 0 0
0 0 0
0 0 0
0 0 0
0 0 0
0 0 0
0 0 0
0 0 0
0 0 0
0 0 0
0 0 0
0 0 0
0 0 0
0 0 0
0 0 0
0 0 0
0 0 0
0 0 0
0 0 0
0 0 0
0 0 0
0 0 0
0 0 0
0 0 0
0 0 0
0 0 0
0 0 0
0 0 0
0 0 0
0 0 0
0 0 0
0 0 0
0 0 0
0 0 0
0 0 0
0 0 0
0 0 0
0 0 0
0 0 0
0 0 0
0 0 0
0 0 0
0 0 0
0 0 0
0 0 0
0 0 0
0 0 0
0 0 0
0 0 0
0 0 0
0 0 0
0 0 0
0 0 0
0 0 0
0 0 0
0 0 0
0 0 0
0 0 0
0 0 0
0 0 0
0 0 0
0 0 0
0 0 0
0 0 0
0 0 0
0 0 0
0 0 0
0 0 0
0 0 0
0 0 0
0 0 0
0 0 0
0 0 0
0 0 0
0 0 0
0 0 0
0 0 0
0 0 0
0 0 0
0 0 0
0 0 0
0 0 0
0 0 0
0 0 0
0 0 0
0 0 0
0 0 0
0 0 0
0 0 0
0 0 0
0 0 0
0 0 0
0 0 0
0 0 0
0 0 0
0 0 0
0 0 0
0 0 0
0 0 0
0 0 0
0 0 0
0 0 0
0 0 0
0 0 0
0 0 0
0 0 0
0 0 0
0 0 0
0 0 0
0 0 0
0 0 0
0 0 0
0 0 0
0 0 0
0 0 0
0 0 0
0 0 0
0 0 0
0 0 0
0 0 0
0 0 0
0 0 0
0 0 0
0 0 0
0 0 0
0 0 0
0 0 0
0 0 0
0 0 0
0 0 0
0 0 0
0 0 0
0 0 0
0 0 0
0 0 0
0 0 0
0 0 0
0 0 0
0 0 0
0 0 0
0 0 0
0 0 0
0 0 0
0 0 0
0 0 0
0 0 0
0 0 0
0 0 0
0 0 0
0 0 0
0 0 0
0 0 0
0 0 0
0 0 0
0 0 0
0 0 0
0 0 0
0 0 0
0 0 0
0 0 0
0 0 0
0 0 0
0 0 0
0 0 0
0 0 0
0 0 0
0 0 0
0 0 0
0 0 0
0 0 0
0 0 0
0 0 0
0 0 0
0 0 0
0 0 0
0 0 0
0 0 0
0 0 0
0 0 0
0 0 0
0 0 0
0 0 0
0 0 0
0 0 0
0 0 0
0 0 0
0 0 0
0 0 0
0 0 0
0 0 0
0 0 0
0 0 0
0 0 0
0 0 0
0 0 0
0 0 0
0 0 0
0 0 0
0 0 0
0 0 0
0 0 0
0 0 0
0 0 0
0 0 0
0 0 0
0 0 0
0 0 0
0 0 0
0 0 0
0 0 0
0 0 0
0 0 0
0 0 0
0 0 0
0 0 0
0 0 0
0 0 0
20 28 0
20 28 0
14 20 0
0 0 0
0 0 0
0 0 0
29 41 0
0 0 0
20 28 0
14 20 0
14 20 0
0 0 0
0 0 0
20 28 0
25 35 0
14 20 0
0 0 0
20 28 0
4 8 0
25 35 0
0 0 0
20 28 0
14 20 0
14 20 0
0 0 0
25 35 0
0 0 0
25 35 0
14 20 0
28 40 0
14 20 0
20 28 0
28 40 0
14 20 0
20 28 0
20 28 0
14 20 0
0 0 0
14 20 0
0 0 0
14 20 0
14 20 0
25 35 0
0 0 0
0 0 0
0 0 0
14 20 0
14 20 0
20 28 0
25 35 0
14 20 0
14 20 0
25 35 0
14 20 0
20 28 0
14 20 0
14 20 0
0 0 0
14 20 0
14 20 0
28 40 0
0 0 0
0 0 0
0 0 0
20 28 0
25 35 0
20 28 0
14 20 0
0 0 0
0 0 0
14 20 0
0 0 0
0 0 0
20 28 0
20 28 0
0 0 0
25 35 0
25 35 0
14 20 0
14 20 0
20 28 0
14 20 0
14 20 0
0 0 0
0 0 0
20 28 0
20 30 0
14 20 0
20 28 0
25 36 0
0 0 0
14 20 0
20 28 0
20 28 0
0 0 0
20 28 0
0 0 0
0 0 0
14 20 0
20 28 0
14 20 0
0 0 0
0 0 0
25 35 0
20 28 0
0 0 0
14 20 0
0 0 0
14 20 0
20 28 0
25 35 0
0 0 0
14 20 0
0 0 0
14 20 0
14 20 0
20 28 0
20 28 0
0 0 0
0 0 0
0 0 0
0 0 0
20 28 0
14 20 0
14 20 0
0 0 0
20 28 0
0 0 0
0 0 0
20 28 0
0 0 0
0 0 0
0 0 0
0 0 0
0 0 0
0 0 0
0 0 0
0 0 0
0 0 0
0 0 0
0 0 0
0 0 0
0 0 0
0 0 0
0 0 0
0 0 0
0 0 0
0 0 0
0 0 0
0 0 0
0 0 0
0 0 0
0 0 0
0 0 0
0 0 0
0 0 0
0 0 0
0 0 0
0 0 0
0 0 0
0 0 0
0 0 0
0 0 0
0 0 0
0 0 0
0 0 0
0 0 0
0 0 0
0 0 0
0 0 0
0 0 0
0 0 0
0 0 0
0 0 0
0 0 0
0 0 0
0 0 0
0 0 0
0 0 0
0 0 0
0 0 0
0 0 0
0 0 0
0 0 0
0 0 0
0 0 0
0 0 0
0 0 0
0 0 0
0 0 0
0 0 0
0 0 0
0 0 0
0 0 0
0 0 0
0 0 0
0 0 0
0 0 0
0 0 0
0 0 0
0 0 0
0 0 0
0 0 0
0 0 0
0 0 0
0 0 0
0 0 0
0 0 0
0 0 0
0 0 0
0 0 0
0 0 0
0 0 0
0 0 0
0 0 0
0 0 0
0 0 0
0 0 0
0 0 0
0 0 0
0 0 0
0 0 0
0 0 0
0 0 0
0 0 0
0 0 0
0 0 0
0 0 0
0 0 0
0 0 0
0 0 0
0 0 0
0 0 0
0 0 0
0 0 0
0 0 0
0 0 0
0 0 0
0 0 0
0 0 0
0 0 0
0 0 0
0 0 0
0 0 0
0 0 0
0 0 0
0 0 0
0 0 0
0 0 0
0 0 0
0 0 0
0 0 0
0 0 0
0 0 0
0 0 0
0 0 0
0 0 0
0 0 0
0 0 0
0 0 0
0 0 0
0 0 0
0 0 0
0 0 0
0 0 0
0 0 0
0 0 0
0 0 0
0 0 0
0 0 0
0 0 0
0 0 0
0 0 0
0 0 0
0 0 0
0 0 0
0 0 0
0 0 0
0 0 0
0 0 0
0 0 0
0 0 0
0 0 0
0 0 0
0 0 0
0 0 0
0 0 0
0 0 0
0 0 0
0 0 0
0 0 0
0 0 0
0 0 0
0 0 0
0 0 0
0 0 0
0 0 0
0 0 0
0 0 0
0 0 0
0 0 0
0 0 0
0 0 0
0 0 0
0 0 0
0 0 0
0 0 0
0 0 0
0 0 0
0 0 0
0 0 0
0 0 0
0 0 0
0 0 0
0 0 0
0 0 0
0 0 0
0 0 0
0 0 0
0 0 0
0 0 0
0 0 0
0 0 0
0 0 0
0 0 0
0 0 0
0 0 0
0 0 0
0 0 0
0 0 0
0 0 0
0 0 0
0 0 0
0 0 0
0 0 0
0 0 0
0 0 0
0 0 0
0 0 0
0 0 0
0 0 0
0 0 0
0 0 0
0 0 0
0 0 0
0 0 0
0 0 0
0 0 0
0 0 0
0 0 0
0 0 0
0 0 0
0 0 0
0 0 0
0 0 0
0 0 0
0 0 0
0 0 0
0 0 0
0 0 0
0 0 0
0 0 0
0 0 0
0 0 0
0 0 0
0 0 0
0 0 0
0 0 0
0 0 0
0 0 0
0 0 0
0 0 0
0 0 0
0 0 0
0 0 0
0 0 0
0 0 0
0 0 0
0 0 0
0 0 0
0 0 0
0 0 0
0 0 0
0 0 0
0 0 0
0 0 0
0 0 0
0 0 0
0 0 0
0 0 0
0 0 0
0 0 0
0 0 0
0 0 0
0 0 0
0 0 0
0 0 0
0 0 0
0 0 0
0 0 0
14 20 0
20 28 0
14 20 0
14 20 0
14 20 0
20 28 0
14 20 0
28 40 0
20 28 0
20 28 0
14 20 0
20 28 0
20 28 0
25 35 0
14 20 0
0 0 0
14 20 0
20 28 0
0 0 0
14 20 0
14 20 0
20 28 0
0 0 0
14 20 0
20 28 0
20 28 0
14 20 0
25 35 0
14 20 0
20 28 0
0 0 0
20 28 0
14 20 0
0 0 0
14 20 0
20 28 0
14 20 0
35 50 0
0 0 0
28 40 0
14 20 0
14 20 0
14 20 0
14 20 0
14 20 0
0 0 0
20 28 0
25 35 0
0 0 0
14 20 0
25 35 0
20 28 0
0 0 0
14 20 0
0 0 0
25 35 0
0 0 0
20 28 0
25 35 0
20 30 0
20 28 0
0 0 0
4 8 0
14 20 0
14 20 0
20 28 0
14 20 0
20 28 0
14 20 0
0 0 0
14 20 0
20 28 0
20 28 0
0 0 0
14 20 0
20 28 0
20 28 0
20 28 0
0 0 0
20 28 0
0 0 0
25 35 0
0 0 0
14 20 0
14 20 0
14 20 0
14 20 0
14 20 0
20 28 0
14 20 0
14 20 0
20 28 0
25 35 0
25 35 0
14 20 0
14 20 0
14 20 0
20 28 0
14 20 0
25 35 0
28 40 0
0 0 0
0 0 0
0 0 0
20 28 0
20 28 0
0 0 0
14 20 0
20 28 0
0 0 0
20 28 0
14 20 0
0 0 0
14 20 0
0 0 0
0 0 0
20 28 0
25 35 0
15 22 0
25 35 0
25 35 0
14 20 0
15 22 0
25 35 0
20 28 0
14 20 0
14 20 0
0 0 0
14 20 0
15 22 0
0 0 0
0 0 0
0 0 0
0 0 0
0 0 0
0 0 0
0 0 0
0 0 0
0 0 0
0 0 0
0 0 0
0 0 0
0 0 0
0 0 0
0 0 0
0 0 0
0 0 0
0 0 0
0 0 0
0 0 0
0 0 0
0 0 0
0 0 0
0 0 0
0 0 0
0 0 0
0 0 0
0 0 0
0 0 0
0 0 0
0 0 0
0 0 0
0 0 0
0 0 0
0 0 0
0 0 0
0 0 0
0 0 0
0 0 0
0 0 0
0 0 0
0 0 0
0 0 0
0 0 0
0 0 0
0 0 0
0 0 0
0 0 0
0 0 0
0 0 0
0 0 0
0 0 0
0 0 0
0 0 0
0 0 0
0 0 0
0 0 0
0 0 0
0 0 0
0 0 0
0 0 0
0 0 0
0 0 0
0 0 0
0 0 0
0 0 0
0 0 0
0 0 0
0 0 0
0 0 0
0 0 0
0 0 0
0 0 0
0 0 0
0 0 0
0 0 0
0 0 0
0 0 0
0 0 0
0 0 0
0 0 0
0 0 0
0 0 0
0 0 0
0 0 0
0 0 0
0 0 0
0 0 0
0 0 0
0 0 0
0 0 0
0 0 0
0 0 0
0 0 0
0 0 0
0 0 0
0 0 0
0 0 0
0 0 0
0 0 0
0 0 0
0 0 0
0 0 0
0 0 0
0 0 0
0 0 0
0 0 0
0 0 0
0 0 0
0 0 0
0 0 0
0 0 0
0 0 0
0 0 0
0 0 0
0 0 0
0 0 0
0 0 0
0 0 0
0 0 0
0 0 0
0 0 0
0 0 0
0 0 0
0 0 0
0 0 0
0 0 0
0 0 0
0 0 0
0 0 0
0 0 0
0 0 0
0 0 0
0 0 0
0 0 0
0 0 0
0 0 0
0 0 0
0 0 0
0 0 0
0 0 0
0 0 0
0 0 0
0 0 0
0 0 0
0 0 0
0 0 0
0 0 0
0 0 0
0 0 0
0 0 0
0 0 0
0 0 0
0 0 0
0 0 0
0 0 0
0 0 0
0 0 0
0 0 0
0 0 0
0 0 0
0 0 0
0 0 0
0 0 0
0 0 0
0 0 0
0 0 0
0 0 0
0 0 0
0 0 0
0 0 0
0 0 0
0 0 0
0 0 0
0 0 0
0 0 0
0 0 0
0 0 0
0 0 0
0 0 0
0 0 0
0 0 0
0 0 0
0 0 0
0 0 0
0 0 0
0 0 0
0 0 0
0 0 0
0 0 0
0 0 0
0 0 0
0 0 0
0 0 0
0 0 0
0 0 0
0 0 0
0 0 0
0 0 0
0 0 0
0 0 0
0 0 0
0 0 0
0 0 0
0 0 0
0 0 0
0 0 0
0 0 0
0 0 0
0 0 0
0 0 0
0 0 0
0 0 0
0 0 0
0 0 0
0 0 0
0 0 0
0 0 0
0 0 0
0 0 0
0 0 0
0 0 0
0 0 0
0 0 0
0 0 0
0 0 0
0 0 0
0 0 0
0 0 0
0 0 0
0 0 0
0 0 0
0 0 0
0 0 0
0 0 0
0 0 0
0 0 0
0 0 0
0 0 0
0 0 0
0 0 0
0 0 0
0 0 0
0 0 0
0 0 0
0 0 0
0 0 0
0 0 0
0 0 0
0 0 0
0 0 0
0 0 0
0 0 0
0 0 0
0 0 0
0 0 0
0 0 0
0 0 0
0 0 0
0 0 0
0 0 0
0 0 0
0 0 0
0 0 0
0 0 0
0 0 0
0 0 0
0 0 0
0 0 0
0 0 0
20 28 0
14 20 0
0 0 0
0 0 0
0 0 0
32 45 0
0 0 0
28 40 0
0 0 0
14 20 0
0 0 0
0 0 0
25 35 0
20 28 0
14 20 0
0 0 0
25 35 0
0 0 0
25 35 0
0 0 0
25 35 0
14 20 0
14 20 0
14 20 0
14 20 0
20 28 0
14 20 0
14 20 0
20 30 0
20 28 0
0 0 0
32 45 0
0 0 0
20 28 0
14 20 0
0 0 0
14 20 0
0 0 0
0 0 0
14 20 0
14 20 0
20 28 0
0 0 0
0 0 0
0 0 0
14 20 0
20 28 0
14 20 0
25 35 0
14 20 0
14 20 0
28 40 0
14 20 0
20 28 0
14 20 0
0 0 0
14 20 0
0 0 0
25 35 0
20 28 0
0 0 0
14 20 0
0 0 0
28 40 0
20 28 0
20 28 0
0 0 0
0 0 0
14 20 0
0 0 0
0 0 0
20 28 0
14 20 0
15 22 0
25 35 0
25 35 0
20 28 0
0 0 0
28 40 0
14 20 0
14 20 0
20 28 0
0 0 0
20 28 0
14 20 0
25 35 0
20 28 0
20 28 0
14 20 0
0 0 0
20 28 0
20 28 0
0 0 0
0 0 0
25 35 0
0 0 0
14 20 0
14 20 0
14 20 0
0 0 0
0 0 0
20 28 0
14 20 0
14 20 0
0 0 0
14 20 0
14 20 0
0 0 0
28 40 0
14 20 0
0 0 0
14 20 0
14 20 0
14 20 0
20 28 0
14 20 0
0 0 0
0 0 0
14 20 0
0 0 0
14 20 0
14 20 0
14 20 0
20 28 0
0 0 0
14 20 0
0 0 0
25 35 0
0 0 0
14 20 0
0 0 0
0 0 0
0 0 0
0 0 0
0 0 0
0 0 0
0 0 0
0 0 0
0 0 0
0 0 0
0 0 0
0 0 0
0 0 0
0 0 0
0 0 0
0 0 0
0 0 0
0 0 0
0 0 0
0 0 0
0 0 0
0 0 0
0 0 0
0 0 0
0 0 0
0 0 0
0 0 0
0 0 0
0 0 0
0 0 0
0 0 0
0 0 0
0 0 0
0 0 0
0 0 0
0 0 0
0 0 0
0 0 0
0 0 0
0 0 0
0 0 0
0 0 0
0 0 0
0 0 0
0 0 0
0 0 0
0 0 0
0 0 0
0 0 0
0 0 0
0 0 0
0 0 0
0 0 0
0 0 0
0 0 0
0 0 0
0 0 0
0 0 0
0 0 0
0 0 0
0 0 0
0 0 0
0 0 0
0 0 0
0 0 0
0 0 0
0 0 0
0 0 0
0 0 0
0 0 0
0 0 0
0 0 0
0 0 0
0 0 0
0 0 0
0 0 0
0 0 0
0 0 0
0 0 0
0 0 0
0 0 0
0 0 0
0 0 0
0 0 0
0 0 0
0 0 0
0 0 0
0 0 0
0 0 0
0 0 0
0 0 0
0 0 0
0 0 0
0 0 0
0 0 0
0 0 0
0 0 0
0 0 0
0 0 0
0 0 0
0 0 0
0 0 0
0 0 0
0 0 0
0 0 0
0 0 0
0 0 0
0 0 0
0 0 0
0 0 0
0 0 0
0 0 0
0 0 0
0 0 0
0 0 0
0 0 0
0 0 0
0 0 0
0 0 0
0 0 0
0 0 0
0 0 0
0 0 0
0 0 0
0 0 0
0 0 0
0 0 0
0 0 0
0 0 0
0 0 0
0 0 0
0 0 0
0 0 0
0 0 0
0 0 0
0 0 0
0 0 0
0 0 0
0 0 0
0 0 0
0 0 0
0 0 0
0 0 0
0 0 0
0 0 0
0 0 0
0 0 0
0 0 0
0 0 0
0 0 0
0 0 0
0 0 0
0 0 0
0 0 0
0 0 0
0 0 0
0 0 0
0 0 0
0 0 0
0 0 0
0 0 0
0 0 0
0 0 0
0 0 0
0 0 0
0 0 0
0 0 0
0 0 0
0 0 0
0 0 0
0 0 0
0 0 0
0 0 0
0 0 0
0 0 0
0 0 0
0 0 0
0 0 0
0 0 0
0 0 0
0 0 0
0 0 0
0 0 0
0 0 0
0 0 0
0 0 0
0 0 0
0 0 0
0 0 0
0 0 0
0 0 0
0 0 0
0 0 0
0 0 0
0 0 0
0 0 0
0 0 0
0 0 0
0 0 0
0 0 0
0 0 0
0 0 0
0 0 0
0 0 0
0 0 0
0 0 0
0 0 0
0 0 0
0 0 0
0 0 0
0 0 0
0 0 0
0 0 0
0 0 0
0 0 0
0 0 0
0 0 0
0 0 0
0 0 0
0 0 0
0 0 0
0 0 0
0 0 0
0 0 0
0 0 0
0 0 0
0 0 0
0 0 0
0 0 0
0 0 0
0 0 0
0 0 0
0 0 0
0 0 0
0 0 0
0 0 0
0 0 0
0 0 0
0 0 0
0 0 0
0 0 0
0 0 0
0 0 0
0 0 0
0 0 0
0 0 0
0 0 0
0 0 0
0 0 0
0 0 0
0 0 0
0 0 0
0 0 0
0 0 0
0 0 0
0 0 0
0 0 0
0 0 0
0 0 0
0 0 0
0 0 0
0 0 0
0 0 0
0 0 0
0 0 0
0 0 0
0 0 0
0 0 0
0 0 0
0 0 0
14 20 0
20 28 0
14 20 0
14 20 0
14 20 0
20 28 0
14 20 0
28 40 0
20 28 0
25 35 0
14 20 0
20 28 0
20 28 0
25 35 0
20 28 0
14 20 0
20 28 0
14 20 0
0 0 0
20 28 0
0 0 0
20 28 0
0 0 0
14 20 0
20 30 0
14 20 0
20 28 0
20 28 0
14 20 0
14 20 0
14 20 0
14 20 0
25 35 0
0 0 0
20 28 0
0 0 0
25 35 0
32 45 0
0 0 0
32 45 0
14 20 0
14 20 0
14 20 0
14 20 0
0 0 0
14 20 0
25 35 0
14 20 0
0 0 0
20 28 0
20 28 0
14 20 0
0 0 0
20 28 0
20 28 0
14 20 0
0 0 0
20 28 0
29 41 0
14 20 0
14 20 0
0 0 0
14 20 0
14 20 0
20 28 0
14 20 0
20 28 0
14 20 0
14 20 0
20 28 0
20 28 0
14 20 0
20 28 0
14 20 0
20 28 0
20 28 0
20 28 0
14 20 0
20 28 0
0 0 0
20 28 0
20 28 0
14 20 0
0 0 0
20 28 0
20 28 0
14 20 0
25 35 0
14 20 0
0 0 0
0 0 0
25 35 0
20 30 0
14 20 0
14 20 0
14 20 0
20 28 0
14 20 0
28 40 0
25 35 0
14 20 0
4 8 0
0 0 0
14 20 0
25 35 0
0 0 0
14 20 0
20 28 0
14 20 0
20 28 0
14 20 0
0 0 0
14 20 0
0 0 0
0 0 0
14 20 0
20 28 0
20 30 0
25 35 0
14 20 0
14 20 0
14 20 0
25 35 0
20 28 0
0 0 0
20 28 0
0 0 0
15 22 0
28 40 0
20 28 0
0 0 0
0 0 0
0 0 0
0 0 0
0 0 0
0 0 0
0 0 0
0 0 0
0 0 0
0 0 0
0 0 0
0 0 0
0 0 0
0 0 0
0 0 0
0 0 0
0 0 0
0 0 0
0 0 0
0 0 0
0 0 0
0 0 0
0 0 0
0 0 0
0 0 0
0 0 0
0 0 0
0 0 0
0 0 0
0 0 0
0 0 0
0 0 0
0 0 0
0 0 0
0 0 0
0 0 0
0 0 0
0 0 0
0 0 0
0 0 0
0 0 0
0 0 0
0 0 0
0 0 0
0 0 0
0 0 0
0 0 0
0 0 0
0 0 0
0 0 0
0 0 0
0 0 0
0 0 0
0 0 0
0 0 0
0 0 0
0 0 0
0 0 0
0 0 0
0 0 0
0 0 0
0 0 0
0 0 0
0 0 0
0 0 0
0 0 0
0 0 0
0 0 0
0 0 0
0 0 0
0 0 0
0 0 0
0 0 0
0 0 0
0 0 0
0 0 0
0 0 0
0 0 0
0 0 0
0 0 0
0 0 0
0 0 0
0 0 0
0 0 0
0 0 0
0 0 0
0 0 0
0 0 0
0 0 0
0 0 0
0 0 0
0 0 0
0 0 0
0 0 0
0 0 0
0 0 0
0 0 0
0 0 0
0 0 0
0 0 0
0 0 0
0 0 0
0 0 0
0 0 0
0 0 0
0 0 0
0 0 0
0 0 0
0 0 0
0 0 0
0 0 0
0 0 0
0 0 0
0 0 0
0 0 0
0 0 0
0 0 0
0 0 0
0 0 0
0 0 0
0 0 0
0 0 0
0 0 0
0 0 0
0 0 0
0 0 0
0 0 0
0 0 0
0 0 0
0 0 0
0 0 0
0 0 0
0 0 0
0 0 0
0 0 0
0 0 0
0 0 0
0 0 0
0 0 0
0 0 0
0 0 0
0 0 0
0 0 0
0 0 0
0 0 0
0 0 0
0 0 0
0 0 0
0 0 0
0 0 0
0 0 0
0 0 0
0 0 0
0 0 0
0 0 0
0 0 0
0 0 0
0 0 0
0 0 0
0 0 0
0 0 0
0 0 0
0 0 0
0 0 0
0 0 0
0 0 0
0 0 0
0 0 0
0 0 0
0 0 0
0 0 0
0 0 0
0 0 0
0 0 0
0 0 0
0 0 0
0 0 0
0 0 0
0 0 0
0 0 0
0 0 0
0 0 0
0 0 0
0 0 0
0 0 0
0 0 0
0 0 0
0 0 0
0 0 0
0 0 0
0 0 0
0 0 0
0 0 0
0 0 0
0 0 0
0 0 0
0 0 0
0 0 0
0 0 0
0 0 0
0 0 0
0 0 0
0 0 0
0 0 0
0 0 0
0 0 0
0 0 0
0 0 0
0 0 0
0 0 0
0 0 0
0 0 0
0 0 0
0 0 0
0 0 0
0 0 0
0 0 0
0 0 0
0 0 0
0 0 0
0 0 0
0 0 0
0 0 0
0 0 0
0 0 0
0 0 0
0 0 0
0 0 0
0 0 0
0 0 0
0 0 0
0 0 0
0 0 0
0 0 0
0 0 0
0 0 0
0 0 0
0 0 0
0 0 0
0 0 0
0 0 0
0 0 0
0 0 0
0 0 0
0 0 0
0 0 0
0 0 0
0 0 0
0 0 0
0 0 0
0 0 0
0 0 0
0 0 0
0 0 0
0 0 0
0 0 0
0 0 0
0 0 0
0 0 0
0 0 0
0 0 0
0 0 0
0 0 0
0 0 0
0 0 0
0 0 0
0 0 0
0 0 0
0 0 0
0 0 0
0 0 0
0 0 0
0 0 0
14 20 0
35 50 0
0 0 0
20 30 0
0 0 0
14 20 0
0 0 0
0 0 0
25 35 0
20 28 0
0 0 0
0 0 0
20 30 0
14 20 0
14 20 0
0 0 0
25 35 0
14 20 0
20 28 0
14 20 0
14 20 0
25 35 0
14 20 0
25 35 0
4 9 0
20 28 0
0 0 0
20 28 0
14 20 0
0 0 0
14 20 0
0 0 0
14 20 0
0 0 0
14 20 0
14 20 0
25 35 0
4 8 0
0 0 0
0 0 0
14 20 0
0 0 0
25 35 0
20 28 0
20 30 0
14 20 0
20 28 0
14 20 0
14 20 0
14 20 0
0 0 0
14 20 0
0 0 0
14 20 0
28 40 0
0 0 0
14 20 0
0 0 0
14 20 0
28 40 0
20 28 0
0 0 0
0 0 0
0 0 0
14 20 0
0 0 0
14 20 0
20 30 0
14 20 0
14 20 0
20 28 0
20 28 0
0 0 0
25 35 0
20 28 0
14 20 0
20 28 0
5 11 0
20 28 0
14 20 0
20 28 0
20 28 0
20 28 0
20 28 0
0 0 0
20 28 0
20 28 0
14 20 0
0 0 0
25 35 0
0 0 0
14 20 0
0 0 0
14 20 0
0 0 0
0 0 0
14 20 0
20 28 0
14 20 0
14 20 0
14 20 0
14 20 0
14 20 0
28 40 0
15 22 0
0 0 0
14 20 0
20 28 0
14 20 0
20 28 0
20 28 0
0 0 0
0 0 0
14 20 0
0 0 0
14 20 0
20 28 0
25 35 0
20 28 0
14 20 0
14 20 0
0 0 0
20 28 0
20 30 0
14 20 0
20 28 0
0 0 0
0 0 0
0 0 0
0 0 0
0 0 0
0 0 0
0 0 0
0 0 0
0 0 0
0 0 0
0 0 0
0 0 0
0 0 0
0 0 0
0 0 0
0 0 0
0 0 0
0 0 0
0 0 0
0 0 0
0 0 0
0 0 0
0 0 0
0 0 0
0 0 0
0 0 0
0 0 0
0 0 0
0 0 0
0 0 0
0 0 0
0 0 0
0 0 0
0 0 0
0 0 0
0 0 0
0 0 0
0 0 0
0 0 0
0 0 0
0 0 0
0 0 0
0 0 0
0 0 0
0 0 0
0 0 0
0 0 0
0 0 0
0 0 0
0 0 0
0 0 0
0 0 0
0 0 0
0 0 0
0 0 0
0 0 0
0 0 0
0 0 0
0 0 0
0 0 0
0 0 0
0 0 0
0 0 0
0 0 0
0 0 0
0 0 0
0 0 0
0 0 0
0 0 0
0 0 0
0 0 0
0 0 0
0 0 0
0 0 0
0 0 0
0 0 0
0 0 0
0 0 0
0 0 0
0 0 0
0 0 0
0 0 0
0 0 0
0 0 0
0 0 0
0 0 0
0 0 0
0 0 0
0 0 0
0 0 0
0 0 0
0 0 0
0 0 0
0 0 0
0 0 0
0 0 0
0 0 0
0 0 0
0 0 0
0 0 0
0 0 0
0 0 0
0 0 0
0 0 0
0 0 0
0 0 0
0 0 0
0 0 0
0 0 0
0 0 0
0 0 0
0 0 0
0 0 0
0 0 0
0 0 0
0 0 0
0 0 0
0 0 0
0 0 0
0 0 0
0 0 0
0 0 0
0 0 0
0 0 0
0 0 0
0 0 0
0 0 0
0 0 0
0 0 0
0 0 0
0 0 0
0 0 0
0 0 0
0 0 0
0 0 0
0 0 0
0 0 0
0 0 0
0 0 0
0 0 0
0 0 0
0 0 0
0 0 0
0 0 0
0 0 0
0 0 0
0 0 0
0 0 0
0 0 0
0 0 0
0 0 0
0 0 0
0 0 0
0 0 0
0 0 0
0 0 0
0 0 0
0 0 0
0 0 0
0 0 0
0 0 0
0 0 0
0 0 0
0 0 0
0 0 0
0 0 0
0 0 0
0 0 0
0 0 0
0 0 0
0 0 0
0 0 0
0 0 0
0 0 0
0 0 0
0 0 0
0 0 0
0 0 0
0 0 0
0 0 0
0 0 0
0 0 0
0 0 0
0 0 0
0 0 0
0 0 0
0 0 0
0 0 0
0 0 0
0 0 0
0 0 0
0 0 0
0 0 0
0 0 0
0 0 0
0 0 0
0 0 0
0 0 0
0 0 0
0 0 0
0 0 0
0 0 0
0 0 0
0 0 0
0 0 0
0 0 0
0 0 0
0 0 0
0 0 0
0 0 0
0 0 0
0 0 0
0 0 0
0 0 0
0 0 0
0 0 0
0 0 0
0 0 0
0 0 0
0 0 0
0 0 0
0 0 0
0 0 0
0 0 0
0 0 0
0 0 0
0 0 0
0 0 0
0 0 0
0 0 0
0 0 0
0 0 0
0 0 0
0 0 0
0 0 0
0 0 0
0 0 0
0 0 0
0 0 0
0 0 0
0 0 0
0 0 0
0 0 0
0 0 0
0 0 0
0 0 0
0 0 0
0 0 0
0 0 0
0 0 0
0 0 0
0 0 0
0 0 0
0 0 0
0 0 0
0 0 0
0 0 0
0 0 0
0 0 0
0 0 0
0 0 0
0 0 0
0 0 0
0 0 0
0 0 0
0 0 0
0 0 0
0 0 0
0 0 0
0 0 0
0 0 0
0 0 0
20 28 0
14 20 0
14 20 0
20 28 0
20 28 0
0 0 0
20 28 0
20 28 0
25 35 0
14 20 0
14 20 0
14 20 0
25 35 0
20 28 0
14 20 0
20 28 0
14 20 0
0 0 0
25 35 0
0 0 0
20 28 0
0 0 0
14 20 0
15 23 0
14 20 0
25 35 0
20 28 0
25 35 0
0 0 0
20 28 0
14 20 0
25 35 0
0 0 0
20 28 0
14 20 0
25 35 0
28 40 0
25 35 0
20 28 0
14 20 0
20 28 0
14 20 0
14 20 0
0 0 0
14 20 0
20 28 0
14 20 0
0 0 0
28 40 0
0 0 0
14 20 0
14 20 0
14 20 0
20 28 0
14 20 0
0 0 0
14 20 0
20 30 0
14 20 0
0 0 0
14 20 0
0 0 0
14 20 0
20 28 0
14 20 0
20 28 0
14 20 0
20 28 0
20 28 0
14 20 0
20 28 0
25 35 0
14 20 0
20 28 0
25 35 0
20 28 0
20 28 0
14 20 0
0 0 0
20 28 0
20 28 0
14 20 0
14 20 0
20 28 0
20 28 0
25 35 0
20 28 0
0 0 0
0 0 0
25 35 0
20 28 0
25 36 0
0 0 0
0 0 0
20 28 0
25 35 0
25 35 0
20 28 0
25 35 0
0 0 0
0 0 0
20 28 0
25 35 0
20 28 0
0 0 0
25 35 0
0 0 0
20 28 0
20 28 0
14 20 0
14 20 0
0 0 0
0 0 0
14 20 0
14 20 0
20 30 0
28 40 0
14 20 0
0 0 0
14 20 0
25 35 0
20 28 0
0 0 0
20 28 0
20 28 0
15 22 0
25 35 0
28 40 0
0 0 0
0 0 0
0 0 0
0 0 0
0 0 0
0 0 0
0 0 0
0 0 0
0 0 0
0 0 0
0 0 0
0 0 0
0 0 0
0 0 0
0 0 0
0 0 0
0 0 0
0 0 0
0 0 0
0 0 0
0 0 0
0 0 0
0 0 0
0 0 0
0 0 0
0 0 0
0 0 0
0 0 0
0 0 0
0 0 0
0 0 0
0 0 0
0 0 0
0 0 0
0 0 0
0 0 0
0 0 0
0 0 0
0 0 0
0 0 0
0 0 0
0 0 0
0 0 0
0 0 0
0 0 0
0 0 0
0 0 0
0 0 0
0 0 0
0 0 0
0 0 0
0 0 0
0 0 0
0 0 0
0 0 0
0 0 0
0 0 0
0 0 0
0 0 0
0 0 0
0 0 0
0 0 0
0 0 0
0 0 0
0 0 0
0 0 0
0 0 0
0 0 0
0 0 0
0 0 0
0 0 0
0 0 0
0 0 0
0 0 0
0 0 0
0 0 0
0 0 0
0 0 0
0 0 0
0 0 0
0 0 0
0 0 0
0 0 0
0 0 0
0 0 0
0 0 0
0 0 0
0 0 0
0 0 0
0 0 0
0 0 0
0 0 0
0 0 0
0 0 0
0 0 0
0 0 0
0 0 0
0 0 0
0 0 0
0 0 0
0 0 0
0 0 0
0 0 0
0 0 0
0 0 0
0 0 0
0 0 0
0 0 0
0 0 0
0 0 0
0 0 0
0 0 0
0 0 0
0 0 0
0 0 0
0 0 0
0 0 0
0 0 0
0 0 0
0 0 0
0 0 0
0 0 0
0 0 0
0 0 0
0 0 0
0 0 0
0 0 0
0 0 0
0 0 0
0 0 0
0 0 0
0 0 0
0 0 0
0 0 0
0 0 0
0 0 0
0 0 0
0 0 0
0 0 0
0 0 0
0 0 0
0 0 0
0 0 0
0 0 0
0 0 0
0 0 0
0 0 0
0 0 0
0 0 0
0 0 0
0 0 0
0 0 0
0 0 0
0 0 0
0 0 0
0 0 0
0 0 0
0 0 0
0 0 0
0 0 0
0 0 0
0 0 0
0 0 0
0 0 0
0 0 0
0 0 0
0 0 0
0 0 0
0 0 0
0 0 0
0 0 0
0 0 0
0 0 0
0 0 0
0 0 0
0 0 0
0 0 0
0 0 0
0 0 0
0 0 0
0 0 0
0 0 0
0 0 0
0 0 0
0 0 0
0 0 0
0 0 0
0 0 0
0 0 0
0 0 0
0 0 0
0 0 0
0 0 0
0 0 0
0 0 0
0 0 0
0 0 0
0 0 0
0 0 0
0 0 0
0 0 0
0 0 0
0 0 0
0 0 0
0 0 0
0 0 0
0 0 0
0 0 0
0 0 0
0 0 0
0 0 0
0 0 0
0 0 0
0 0 0
0 0 0
0 0 0
0 0 0
0 0 0
0 0 0
0 0 0
0 0 0
0 0 0
0 0 0
0 0 0
0 0 0
0 0 0
0 0 0
0 0 0
0 0 0
0 0 0
0 0 0
0 0 0
0 0 0
0 0 0
0 0 0
0 0 0
0 0 0
0 0 0
0 0 0
0 0 0
0 0 0
0 0 0
0 0 0
0 0 0
0 0 0
0 0 0
0 0 0
0 0 0
0 0 0
0 0 0
0 0 0
0 0 0
0 0 0
0 0 0
0 0 0
0 0 0
0 0 0
0 0 0
0 0 0
0 0 0
0 0 0
0 0 0
0 0 0
0 0 0
0 0 0
0 0 0
0 0 0
0 0 0
0 0 0
0 0 0
0 0 0
14 20 0
4 8 0
14 20 0
28 40 0
14 20 0
25 36 0
14 20 0
14 20 0
0 0 0
14 20 0
20 28 0
20 28 0
0 0 0
0 0 0
20 30 0
14 20 0
14 20 0
20 28 0
14 20 0
20 28 0
20 28 0
20 28 0
14 20 0
20 28 0
20 28 0
14 20 0
4 9 0
20 28 0
25 35 0
0 0 0
14 20 0
0 0 0
14 20 0
20 28 0
14 20 0
0 0 0
14 20 0
14 20 0
25 35 0
0 0 0
0 0 0
0 0 0
14 20 0
25 35 0
20 28 0
20 28 0
25 35 0
0 0 0
25 35 0
14 20 0
14 20 0
0 0 0
0 0 0
14 20 0
0 0 0
28 40 0
25 35 0
20 28 0
0 0 0
0 0 0
14 20 0
25 35 0
14 20 0
0 0 0
0 0 0
14 20 0
0 0 0
14 20 0
14 20 0
14 20 0
0 0 0
20 28 0
20 28 0
0 0 0
20 28 0
28 40 0
0 0 0
25 35 0
4 8 0
15 22 0
25 35 0
25 35 0
14 20 0
20 28 0
20 28 0
14 20 0
14 20 0
20 28 0
20 28 0
0 0 0
20 28 0
14 20 0
0 0 0
14 20 0
14 20 0
0 0 0
0 0 0
20 28 0
20 28 0
14 20 0
14 20 0
14 20 0
14 20 0
14 20 0
20 28 0
20 30 0
0 0 0
14 20 0
0 0 0
14 20 0
20 28 0
20 28 0
20 28 0
14 20 0
14 20 0
0 0 0
14 20 0
14 20 0
14 20 0
32 45 0
25 35 0
20 28 0
14 20 0
20 28 0
20 28 0
29 41 0
20 30 0
14 20 0
0 0 0
14 20 0
0 0 0
0 0 0
0 0 0
0 0 0
0 0 0
0 0 0
0 0 0
0 0 0
0 0 0
0 0 0
0 0 0
0 0 0
0 0 0
0 0 0
0 0 0
0 0 0
0 0 0
0 0 0
0 0 0
0 0 0
0 0 0
0 0 0
0 0 0
0 0 0
0 0 0
0 0 0
0 0 0
0 0 0
0 0 0
0 0 0
0 0 0
0 0 0
0 0 0
0 0 0
0 0 0
0 0 0
0 0 0
0 0 0
0 0 0
0 0 0
0 0 0
0 0 0
0 0 0
0 0 0
0 0 0
0 0 0
0 0 0
0 0 0
0 0 0
0 0 0
0 0 0
0 0 0
0 0 0
0 0 0
0 0 0
0 0 0
0 0 0
0 0 0
0 0 0
0 0 0
0 0 0
0 0 0
0 0 0
0 0 0
0 0 0
0 0 0
0 0 0
0 0 0
0 0 0
0 0 0
0 0 0
0 0 0
0 0 0
0 0 0
0 0 0
0 0 0
0 0 0
0 0 0
0 0 0
0 0 0
0 0 0
0 0 0
0 0 0
0 0 0
0 0 0
0 0 0
0 0 0
0 0 0
0 0 0
0 0 0
0 0 0
0 0 0
0 0 0
0 0 0
0 0 0
0 0 0
0 0 0
0 0 0
0 0 0
0 0 0
0 0 0
0 0 0
0 0 0
0 0 0
0 0 0
0 0 0
0 0 0
0 0 0
0 0 0
0 0 0
0 0 0
0 0 0
0 0 0
0 0 0
0 0 0
0 0 0
0 0 0
0 0 0
0 0 0
0 0 0
0 0 0
0 0 0
0 0 0
0 0 0
0 0 0
0 0 0
0 0 0
0 0 0
0 0 0
0 0 0
0 0 0
0 0 0
0 0 0
0 0 0
0 0 0
0 0 0
0 0 0
0 0 0
0 0 0
0 0 0
0 0 0
0 0 0
0 0 0
0 0 0
0 0 0
0 0 0
0 0 0
0 0 0
0 0 0
0 0 0
0 0 0
0 0 0
0 0 0
0 0 0
0 0 0
0 0 0
0 0 0
0 0 0
0 0 0
0 0 0
0 0 0
0 0 0
0 0 0
0 0 0
0 0 0
0 0 0
0 0 0
0 0 0
0 0 0
0 0 0
0 0 0
0 0 0
0 0 0
0 0 0
0 0 0
0 0 0
0 0 0
0 0 0
0 0 0
0 0 0
0 0 0
0 0 0
0 0 0
0 0 0
0 0 0
0 0 0
0 0 0
0 0 0
0 0 0
0 0 0
0 0 0
0 0 0
0 0 0
0 0 0
0 0 0
0 0 0
0 0 0
0 0 0
0 0 0
0 0 0
0 0 0
0 0 0
0 0 0
0 0 0
0 0 0
0 0 0
0 0 0
0 0 0
0 0 0
0 0 0
0 0 0
0 0 0
0 0 0
0 0 0
0 0 0
0 0 0
0 0 0
0 0 0
0 0 0
0 0 0
0 0 0
0 0 0
0 0 0
0 0 0
0 0 0
0 0 0
0 0 0
0 0 0
0 0 0
0 0 0
0 0 0
0 0 0
0 0 0
0 0 0
0 0 0
0 0 0
0 0 0
0 0 0
0 0 0
0 0 0
0 0 0
0 0 0
0 0 0
0 0 0
0 0 0
0 0 0
0 0 0
0 0 0
0 0 0
0 0 0
0 0 0
0 0 0
0 0 0
0 0 0
0 0 0
0 0 0
0 0 0
0 0 0
0 0 0
0 0 0
0 0 0
0 0 0
0 0 0
0 0 0
0 0 0
0 0 0
0 0 0
0 0 0
0 0 0
0 0 0
0 0 0
32 45 0
4 8 0
0 0 0
14 20 0
25 35 0
0 0 0
14 20 0
25 35 0
25 35 0
14 20 0
14 20 0
14 20 0
20 28 0
20 28 0
14 20 0
20 28 0
14 20 0
0 0 0
25 35 0
0 0 0
20 28 0
0 0 0
14 20 0
14 20 0
14 20 0
28 40 0
14 20 0
25 35 0
0 0 0
20 28 0
0 0 0
25 35 0
14 20 0
14 20 0
14 20 0
28 40 0
28 40 0
28 40 0
25 35 0
14 20 0
14 20 0
14 20 0
14 20 0
0 0 0
14 20 0
25 35 0
0 0 0
0 0 0
25 35 0
20 28 0
0 0 0
20 28 0
0 0 0
25 35 0
0 0 0
0 0 0
20 30 0
0 0 0
14 20 0
0 0 0
14 20 0
0 0 0
0 0 0
20 28 0
14 20 0
20 28 0
14 20 0
14 20 0
20 28 0
0 0 0
25 35 0
25 35 0
14 20 0
20 28 0
25 35 0
20 28 0
0 0 0
0 0 0
20 28 0
0 0 0
25 35 0
0 0 0
14 20 0
20 28 0
25 35 0
0 0 0
14 20 0
14 20 0
14 20 0
25 35 0
25 35 0
0 0 0
0 0 0
20 28 0
25 35 0
20 28 0
20 28 0
28 40 0
14 20 0
0 0 0
20 28 0
20 28 0
20 28 0
0 0 0
20 28 0
14 20 0
20 28 0
20 28 0
20 28 0
0 0 0
14 20 0
0 0 0
0 0 0
14 20 0
25 35 0
32 45 0
14 20 0
14 20 0
14 20 0
20 28 0
14 20 0
14 20 0
20 28 0
20 28 0
14 20 0
25 36 0
14 20 0
25 35 0
14 20 0
0 0 0
0 0 0
0 0 0
0 0 0
0 0 0
0 0 0
0 0 0
0 0 0
0 0 0
0 0 0
0 0 0
0 0 0
0 0 0
0 0 0
0 0 0
0 0 0
0 0 0
0 0 0
0 0 0
0 0 0
0 0 0
0 0 0
0 0 0
0 0 0
0 0 0
0 0 0
0 0 0
0 0 0
0 0 0
0 0 0
0 0 0
0 0 0
0 0 0
0 0 0
0 0 0
0 0 0
0 0 0
0 0 0
0 0 0
0 0 0
0 0 0
0 0 0
0 0 0
0 0 0
0 0 0
0 0 0
0 0 0
0 0 0
0 0 0
0 0 0
0 0 0
0 0 0
0 0 0
0 0 0
0 0 0
0 0 0
0 0 0
0 0 0
0 0 0
0 0 0
0 0 0
0 0 0
0 0 0
0 0 0
0 0 0
0 0 0
0 0 0
0 0 0
0 0 0
0 0 0
0 0 0
0 0 0
0 0 0
0 0 0
0 0 0
0 0 0
0 0 0
0 0 0
0 0 0
0 0 0
0 0 0
0 0 0
0 0 0
0 0 0
0 0 0
0 0 0
0 0 0
0 0 0
0 0 0
0 0 0
0 0 0
0 0 0
0 0 0
0 0 0
0 0 0
0 0 0
0 0 0
0 0 0
0 0 0
0 0 0
0 0 0
0 0 0
0 0 0
0 0 0
0 0 0
0 0 0
0 0 0
0 0 0
0 0 0
0 0 0
0 0 0
0 0 0
0 0 0
0 0 0
0 0 0
0 0 0
0 0 0
0 0 0
0 0 0
0 0 0
0 0 0
0 0 0
0 0 0
0 0 0
0 0 0
0 0 0
0 0 0
0 0 0
0 0 0
0 0 0
0 0 0
0 0 0
0 0 0
0 0 0
0 0 0
0 0 0
0 0 0
0 0 0
0 0 0
0 0 0
0 0 0
0 0 0
0 0 0
0 0 0
0 0 0
0 0 0
0 0 0
0 0 0
0 0 0
0 0 0
0 0 0
0 0 0
0 0 0
0 0 0
0 0 0
0 0 0
0 0 0
0 0 0
0 0 0
0 0 0
0 0 0
0 0 0
0 0 0
0 0 0
0 0 0
0 0 0
0 0 0
0 0 0
0 0 0
0 0 0
0 0 0
0 0 0
0 0 0
0 0 0
0 0 0
0 0 0
0 0 0
0 0 0
0 0 0
0 0 0
0 0 0
0 0 0
0 0 0
0 0 0
0 0 0
0 0 0
0 0 0
0 0 0
0 0 0
0 0 0
0 0 0
0 0 0
0 0 0
0 0 0
0 0 0
0 0 0
0 0 0
0 0 0
0 0 0
0 0 0
0 0 0
0 0 0
0 0 0
0 0 0
0 0 0
0 0 0
0 0 0
0 0 0
0 0 0
0 0 0
0 0 0
0 0 0
0 0 0
0 0 0
0 0 0
0 0 0
0 0 0
0 0 0
0 0 0
0 0 0
0 0 0
0 0 0
0 0 0
0 0 0
0 0 0
0 0 0
0 0 0
0 0 0
0 0 0
0 0 0
0 0 0
0 0 0
0 0 0
0 0 0
0 0 0
0 0 0
0 0 0
0 0 0
0 0 0
0 0 0
0 0 0
0 0 0
0 0 0
0 0 0
0 0 0
0 0 0
0 0 0
0 0 0
0 0 0
0 0 0
0 0 0
0 0 0
0 0 0
0 0 0
0 0 0
0 0 0
0 0 0
0 0 0
0 0 0
0 0 0
0 0 0
0 0 0
0 0 0
0 0 0
0 0 0
0 0 0
0 0 0
0 0 0
0 0 0
0 0 0
0 0 0
14 20 0
32 45 0
14 20 0
29 41 0
0 0 0
20 28 0
0 0 0
14 20 0
14 20 0
20 28 0
0 0 0
0 0 0
20 28 0
14 20 0
20 28 0
20 30 0
14 20 0
25 35 0
14 20 0
20 28 0
14 20 0
20 28 0
20 28 0
14 20 0
4 9 0
20 28 0
25 35 0
0 0 0
28 40 0
14 20 0
0 0 0
25 35 0
0 0 0
0 0 0
14 20 0
14 20 0
25 35 0
0 0 0
0 0 0
14 20 0
14 20 0
25 35 0
20 28 0
20 28 0
20 28 0
20 28 0
0 0 0
14 20 0
25 35 0
0 0 0
0 0 0
14 20 0
0 0 0
20 28 0
25 35 0
20 28 0
0 0 0
14 20 0
20 28 0
20 28 0
14 20 0
0 0 0
14 20 0
20 28 0
0 0 0
14 20 0
14 20 0
14 20 0
0 0 0
25 35 0
20 28 0
14 20 0
25 35 0
20 28 0
14 20 0
14 20 0
15 22 0
20 30 0
14 20 0
25 35 0
15 22 0
20 28 0
20 28 0
0 0 0
20 28 0
25 35 0
0 0 0
0 0 0
25 35 0
0 0 0
0 0 0
0 0 0
20 28 0
0 0 0
14 20 0
20 28 0
14 20 0
14 20 0
0 0 0
14 20 0
0 0 0
14 20 0
25 36 0
0 0 0
14 20 0
0 0 0
14 20 0
14 20 0
20 28 0
20 28 0
20 28 0
0 0 0
14 20 0
20 28 0
14 20 0
14 20 0
25 35 0
25 35 0
25 35 0
20 28 0
20 28 0
14 20 0
25 36 0
25 36 0
20 28 0
4 9 0
20 28 0
32 45 0
14 20 0
0 0 0
0 0 0
0 0 0
0 0 0
0 0 0
0 0 0
0 0 0
0 0 0
0 0 0
0 0 0
0 0 0
0 0 0
0 0 0
0 0 0
0 0 0
0 0 0
0 0 0
0 0 0
0 0 0
0 0 0
0 0 0
0 0 0
0 0 0
0 0 0
0 0 0
0 0 0
0 0 0
0 0 0
0 0 0
0 0 0
0 0 0
0 0 0
0 0 0
0 0 0
0 0 0
0 0 0
0 0 0
0 0 0
0 0 0
0 0 0
0 0 0
0 0 0
0 0 0
0 0 0
0 0 0
0 0 0
0 0 0
0 0 0
0 0 0
0 0 0
0 0 0
0 0 0
0 0 0
0 0 0
0 0 0
0 0 0
0 0 0
0 0 0
0 0 0
0 0 0
0 0 0
0 0 0
0 0 0
0 0 0
0 0 0
0 0 0
0 0 0
0 0 0
0 0 0
0 0 0
0 0 0
0 0 0
0 0 0
0 0 0
0 0 0
0 0 0
0 0 0
0 0 0
0 0 0
0 0 0
0 0 0
0 0 0
0 0 0
0 0 0
0 0 0
0 0 0
0 0 0
0 0 0
0 0 0
0 0 0
0 0 0
0 0 0
0 0 0
0 0 0
0 0 0
0 0 0
0 0 0
0 0 0
0 0 0
0 0 0
0 0 0
0 0 0
0 0 0
0 0 0
0 0 0
0 0 0
0 0 0
0 0 0
0 0 0
0 0 0
0 0 0
0 0 0
0 0 0
0 0 0
0 0 0
0 0 0
0 0 0
0 0 0
0 0 0
0 0 0
0 0 0
0 0 0
0 0 0
0 0 0
0 0 0
0 0 0
0 0 0
0 0 0
0 0 0
0 0 0
0 0 0
0 0 0
0 0 0
0 0 0
0 0 0
0 0 0
0 0 0
0 0 0
0 0 0
0 0 0
0 0 0
0 0 0
0 0 0
0 0 0
0 0 0
0 0 0
0 0 0
0 0 0
0 0 0
0 0 0
0 0 0
0 0 0
0 0 0
0 0 0
0 0 0
0 0 0
0 0 0
0 0 0
0 0 0
0 0 0
0 0 0
0 0 0
0 0 0
0 0 0
0 0 0
0 0 0
0 0 0
0 0 0
0 0 0
0 0 0
0 0 0
0 0 0
0 0 0
0 0 0
0 0 0
0 0 0
0 0 0
0 0 0
0 0 0
0 0 0
0 0 0
0 0 0
0 0 0
0 0 0
0 0 0
0 0 0
0 0 0
0 0 0
0 0 0
0 0 0
0 0 0
0 0 0
0 0 0
0 0 0
0 0 0
0 0 0
0 0 0
0 0 0
0 0 0
0 0 0
0 0 0
0 0 0
0 0 0
0 0 0
0 0 0
0 0 0
0 0 0
0 0 0
0 0 0
0 0 0
0 0 0
0 0 0
0 0 0
0 0 0
0 0 0
0 0 0
0 0 0
0 0 0
0 0 0
0 0 0
0 0 0
0 0 0
0 0 0
0 0 0
0 0 0
0 0 0
0 0 0
0 0 0
0 0 0
0 0 0
0 0 0
0 0 0
0 0 0
0 0 0
0 0 0
0 0 0
0 0 0
0 0 0
0 0 0
0 0 0
0 0 0
0 0 0
0 0 0
0 0 0
0 0 0
0 0 0
0 0 0
0 0 0
0 0 0
0 0 0
0 0 0
0 0 0
0 0 0
0 0 0
0 0 0
0 0 0
0 0 0
0 0 0
0 0 0
0 0 0
0 0 0
0 0 0
0 0 0
0 0 0
0 0 0
0 0 0
0 0 0
0 0 0
0 0 0
0 0 0
20 28 0
20 28 0
14 20 0
0 0 0
14 20 0
28 40 0
0 0 0
20 30 0
25 35 0
25 35 0
14 20 0
20 28 0
14 20 0
20 28 0
14 20 0
14 20 0
14 20 0
14 20 0
20 28 0
14 20 0
20 28 0
0 0 0
0 0 0
14 20 0
25 35 0
20 28 0
25 35 0
14 20 0
20 28 0
0 0 0
20 28 0
14 20 0
20 28 0
14 20 0
0 0 0
14 20 0
28 40 0
28 40 0
35 50 0
14 20 0
14 20 0
14 20 0
14 20 0
14 20 0
14 20 0
20 28 0
20 28 0
0 0 0
14 20 0
20 28 0
20 28 0
14 20 0
20 28 0
0 0 0
25 35 0
0 0 0
0 0 0
20 30 0
0 0 0
14 20 0
0 0 0
20 28 0
0 0 0
20 28 0
14 20 0
20 28 0
20 28 0
20 28 0
14 20 0
20 28 0
20 28 0
25 35 0
20 28 0
20 28 0
20 28 0
14 20 0
14 20 0
0 0 0
0 0 0
20 28 0
25 35 0
0 0 0
0 0 0
20 28 0
20 28 0
14 20 0
14 20 0
0 0 0
14 20 0
25 35 0
25 36 0
0 0 0
0 0 0
20 28 0
20 28 0
20 28 0
14 20 0
28 40 0
0 0 0
14 20 0
0 0 0
25 35 0
20 28 0
0 0 0
14 20 0
14 20 0
14 20 0
20 30 0
25 35 0
0 0 0
14 20 0
0 0 0
14 20 0
0 0 0
20 28 0
25 35 0
20 28 0
25 35 0
0 0 0
25 35 0
14 20 0
14 20 0
14 20 0
25 35 0
14 20 0
20 30 0
20 28 0
25 35 0
20 28 0
0 0 0
0 0 0
0 0 0
0 0 0
0 0 0
0 0 0
0 0 0
0 0 0
0 0 0
0 0 0
0 0 0
0 0 0
0 0 0
0 0 0
0 0 0
0 0 0
0 0 0
0 0 0
0 0 0
0 0 0
0 0 0
0 0 0
0 0 0
0 0 0
0 0 0
0 0 0
0 0 0
0 0 0
0 0 0
0 0 0
0 0 0
0 0 0
0 0 0
0 0 0
0 0 0
0 0 0
0 0 0
0 0 0
0 0 0
0 0 0
0 0 0
0 0 0
0 0 0
0 0 0
0 0 0
0 0 0
0 0 0
0 0 0
0 0 0
0 0 0
0 0 0
0 0 0
0 0 0
0 0 0
0 0 0
0 0 0
0 0 0
0 0 0
0 0 0
0 0 0
0 0 0
0 0 0
0 0 0
0 0 0
0 0 0
0 0 0
0 0 0
0 0 0
0 0 0
0 0 0
0 0 0
0 0 0
0 0 0
0 0 0
0 0 0
0 0 0
0 0 0
0 0 0
0 0 0
0 0 0
0 0 0
0 0 0
0 0 0
0 0 0
0 0 0
0 0 0
0 0 0
0 0 0
0 0 0
0 0 0
0 0 0
0 0 0
0 0 0
0 0 0
0 0 0
0 0 0
0 0 0
0 0 0
0 0 0
0 0 0
0 0 0
0 0 0
0 0 0
0 0 0
0 0 0
0 0 0
0 0 0
0 0 0
0 0 0
0 0 0
0 0 0
0 0 0
0 0 0
0 0 0
0 0 0
0 0 0
0 0 0
0 0 0
0 0 0
0 0 0
0 0 0
0 0 0
0 0 0
0 0 0
0 0 0
0 0 0
0 0 0
0 0 0
0 0 0
0 0 0
0 0 0
0 0 0
0 0 0
0 0 0
0 0 0
0 0 0
0 0 0
0 0 0
0 0 0
0 0 0
0 0 0
0 0 0
0 0 0
0 0 0
0 0 0
0 0 0
0 0 0
0 0 0
0 0 0
0 0 0
0 0 0
0 0 0
0 0 0
0 0 0
0 0 0
0 0 0
0 0 0
0 0 0
0 0 0
0 0 0
0 0 0
0 0 0
0 0 0
0 0 0
0 0 0
0 0 0
0 0 0
0 0 0
0 0 0
0 0 0
0 0 0
0 0 0
0 0 0
0 0 0
0 0 0
0 0 0
0 0 0
0 0 0
0 0 0
0 0 0
0 0 0
0 0 0
0 0 0
0 0 0
0 0 0
0 0 0
0 0 0
0 0 0
0 0 0
0 0 0
0 0 0
0 0 0
0 0 0
0 0 0
0 0 0
0 0 0
0 0 0
0 0 0
0 0 0
0 0 0
0 0 0
0 0 0
0 0 0
0 0 0
0 0 0
0 0 0
0 0 0
0 0 0
0 0 0
0 0 0
0 0 0
0 0 0
0 0 0
0 0 0
0 0 0
0 0 0
0 0 0
0 0 0
0 0 0
0 0 0
0 0 0
0 0 0
0 0 0
0 0 0
0 0 0
0 0 0
0 0 0
0 0 0
0 0 0
0 0 0
0 0 0
0 0 0
0 0 0
0 0 0
0 0 0
0 0 0
0 0 0
0 0 0
0 0 0
0 0 0
0 0 0
0 0 0
0 0 0
0 0 0
0 0 0
0 0 0
0 0 0
0 0 0
0 0 0
0 0 0
0 0 0
0 0 0
0 0 0
0 0 0
0 0 0
0 0 0
0 0 0
0 0 0
0 0 0
0 0 0
0 0 0
0 0 0
0 0 0
0 0 0
0 0 0
0 0 0
0 0 0
0 0 0
0 0 0
0 0 0
0 0 0
14 20 0
32 45 0
14 20 0
28 40 0
20 28 0
25 35 0
0 0 0
20 28 0
20 28 0
14 20 0
0 0 0
14 20 0
14 20 0
0 0 0
25 35 0
14 20 0
28 40 0
25 35 0
14 20 0
20 28 0
14 20 0
25 35 0
14 20 0
20 28 0
4 9 0
20 28 0
20 28 0
14 20 0
20 28 0
14 20 0
20 28 0
28 40 0
14 20 0
0 0 0
14 20 0
14 20 0
25 35 0
0 0 0
0 0 0
14 20 0
20 28 0
25 35 0
20 28 0
28 40 0
20 28 0
20 28 0
0 0 0
20 28 0
28 40 0
0 0 0
0 0 0
14 20 0
0 0 0
25 35 0
20 28 0
20 28 0
0 0 0
14 20 0
14 20 0
14 20 0
14 20 0
0 0 0
20 28 0
20 28 0
0 0 0
14 20 0
14 20 0
14 20 0
0 0 0
28 40 0
14 20 0
14 20 0
20 28 0
20 28 0
14 20 0
14 20 0
5 11 0
20 28 0
20 28 0
20 28 0
15 22 0
20 28 0
20 28 0
14 20 0
0 0 0
25 35 0
0 0 0
20 28 0
14 20 0
0 0 0
0 0 0
25 35 0
14 20 0
0 0 0
14 20 0
14 20 0
14 20 0
14 20 0
14 20 0
0 0 0
14 20 0
14 20 0
20 30 0
0 0 0
20 28 0
0 0 0
14 20 0
20 28 0
20 28 0
20 28 0
25 35 0
14 20 0
20 28 0
20 28 0
20 28 0
14 20 0
28 40 0
25 35 0
25 35 0
4 8 0
14 20 0
15 22 0
28 40 0
25 36 0
20 28 0
15 22 0
32 45 0
25 35 0
0 0 0
0 0 0
0 0 0
0 0 0
0 0 0
0 0 0
0 0 0
0 0 0
0 0 0
0 0 0
0 0 0
0 0 0
0 0 0
0 0 0
0 0 0
0 0 0
0 0 0
0 0 0
0 0 0
0 0 0
0 0 0
0 0 0
0 0 0
0 0 0
0 0 0
0 0 0
0 0 0
0 0 0
0 0 0
0 0 0
0 0 0
0 0 0
0 0 0
0 0 0
0 0 0
0 0 0
0 0 0
0 0 0
0 0 0
0 0 0
0 0 0
0 0 0
0 0 0
0 0 0
0 0 0
0 0 0
0 0 0
0 0 0
0 0 0
0 0 0
0 0 0
0 0 0
0 0 0
0 0 0
0 0 0
0 0 0
0 0 0
0 0 0
0 0 0
0 0 0
0 0 0
0 0 0
0 0 0
0 0 0
0 0 0
0 0 0
0 0 0
0 0 0
0 0 0
0 0 0
0 0 0
0 0 0
0 0 0
0 0 0
0 0 0
0 0 0
0 0 0
0 0 0
0 0 0
0 0 0
0 0 0
0 0 0
0 0 0
0 0 0
0 0 0
0 0 0
0 0 0
0 0 0
0 0 0
0 0 0
0 0 0
0 0 0
0 0 0
0 0 0
0 0 0
0 0 0
0 0 0
0 0 0
0 0 0
0 0 0
0 0 0
0 0 0
0 0 0
0 0 0
0 0 0
0 0 0
0 0 0
0 0 0
0 0 0
0 0 0
0 0 0
0 0 0
0 0 0
0 0 0
0 0 0
0 0 0
0 0 0
0 0 0
0 0 0
0 0 0
0 0 0
0 0 0
0 0 0
0 0 0
0 0 0
0 0 0
0 0 0
0 0 0
0 0 0
0 0 0
0 0 0
0 0 0
0 0 0
0 0 0
0 0 0
0 0 0
0 0 0
0 0 0
0 0 0
0 0 0
0 0 0
0 0 0
0 0 0
0 0 0
0 0 0
0 0 0
0 0 0
0 0 0
0 0 0
0 0 0
0 0 0
0 0 0
0 0 0
0 0 0
0 0 0
0 0 0
0 0 0
0 0 0
0 0 0
0 0 0
0 0 0
0 0 0
0 0 0
0 0 0
0 0 0
0 0 0
0 0 0
0 0 0
0 0 0
0 0 0
0 0 0
0 0 0
0 0 0
0 0 0
0 0 0
0 0 0
0 0 0
0 0 0
0 0 0
0 0 0
0 0 0
0 0 0
0 0 0
0 0 0
0 0 0
0 0 0
0 0 0
0 0 0
0 0 0
0 0 0
0 0 0
0 0 0
0 0 0
0 0 0
0 0 0
0 0 0
0 0 0
0 0 0
0 0 0
0 0 0
0 0 0
0 0 0
0 0 0
0 0 0
0 0 0
0 0 0
0 0 0
0 0 0
0 0 0
0 0 0
0 0 0
0 0 0
0 0 0
0 0 0
0 0 0
0 0 0
0 0 0
0 0 0
0 0 0
0 0 0
0 0 0
0 0 0
0 0 0
0 0 0
0 0 0
0 0 0
0 0 0
0 0 0
0 0 0
0 0 0
0 0 0
0 0 0
0 0 0
0 0 0
0 0 0
0 0 0
0 0 0
0 0 0
0 0 0
0 0 0
0 0 0
0 0 0
0 0 0
0 0 0
0 0 0
0 0 0
0 0 0
0 0 0
0 0 0
0 0 0
0 0 0
0 0 0
0 0 0
0 0 0
0 0 0
0 0 0
0 0 0
0 0 0
0 0 0
0 0 0
0 0 0
0 0 0
0 0 0
0 0 0
0 0 0
0 0 0
0 0 0
0 0 0
0 0 0
0 0 0
0 0 0
0 0 0
0 0 0
25 35 0
0 0 0
14 20 0
0 0 0
32 45 0
14 20 0
20 30 0
14 20 0
28 40 0
20 28 0
25 35 0
14 20 0
20 28 0
20 28 0
14 20 0
25 35 0
14 20 0
25 35 0
14 20 0
0 0 0
4 8 0
0 0 0
20 28 0
25 35 0
14 20 0
28 40 0
0 0 0
20 28 0
4 8 0
20 30 0
20 28 0
20 28 0
20 28 0
20 28 0
20 28 0
35 50 0
4 8 0
35 50 0
20 28 0
14 20 0
0 0 0
14 20 0
14 20 0
20 28 0
20 28 0
14 20 0
0 0 0
14 20 0
20 28 0
14 20 0
20 28 0
14 20 0
20 28 0
20 28 0
0 0 0
14 20 0
14 20 0
0 0 0
20 28 0
20 28 0
0 0 0
0 0 0
20 28 0
0 0 0
20 28 0
14 20 0
14 20 0
20 28 0
14 20 0
25 35 0
28 40 0
14 20 0
14 20 0
25 35 0
14 20 0
0 0 0
0 0 0
0 0 0
20 28 0
25 35 0
0 0 0
14 20 0
20 28 0
20 28 0
0 0 0
14 20 0
14 20 0
14 20 0
25 35 0
25 35 0
0 0 0
14 20 0
14 20 0
25 35 0
14 20 0
14 20 0
25 35 0
14 20 0
0 0 0
20 28 0
25 35 0
14 20 0
14 20 0
20 28 0
0 0 0
20 30 0
20 28 0
14 20 0
0 0 0
14 20 0
20 28 0
0 0 0
20 28 0
25 35 0
20 28 0
20 28 0
14 20 0
14 20 0
14 20 0
20 28 0
20 28 0
25 35 0
0 0 0
15 22 0
20 28 0
28 40 0
25 35 0
0 0 0
0 0 0
0 0 0
0 0 0
0 0 0
0 0 0
0 0 0
0 0 0
0 0 0
0 0 0
0 0 0
0 0 0
0 0 0
0 0 0
0 0 0
0 0 0
0 0 0
0 0 0
0 0 0
0 0 0
0 0 0
0 0 0
0 0 0
0 0 0
0 0 0
0 0 0
0 0 0
0 0 0
0 0 0
0 0 0
0 0 0
0 0 0
0 0 0
0 0 0
0 0 0
0 0 0
0 0 0
0 0 0
0 0 0
0 0 0
0 0 0
0 0 0
0 0 0
0 0 0
0 0 0
0 0 0
0 0 0
0 0 0
0 0 0
0 0 0
0 0 0
0 0 0
0 0 0
0 0 0
0 0 0
0 0 0
0 0 0
0 0 0
0 0 0
0 0 0
0 0 0
0 0 0
0 0 0
0 0 0
0 0 0
0 0 0
0 0 0
0 0 0
0 0 0
0 0 0
0 0 0
0 0 0
0 0 0
0 0 0
0 0 0
0 0 0
0 0 0
0 0 0
0 0 0
0 0 0
0 0 0
0 0 0
0 0 0
0 0 0
0 0 0
0 0 0
0 0 0
0 0 0
0 0 0
0 0 0
0 0 0
0 0 0
0 0 0
0 0 0
0 0 0
0 0 0
0 0 0
0 0 0
0 0 0
0 0 0
0 0 0
0 0 0
0 0 0
0 0 0
0 0 0
0 0 0
0 0 0
0 0 0
0 0 0
0 0 0
0 0 0
0 0 0
0 0 0
0 0 0
0 0 0
0 0 0
0 0 0
0 0 0
0 0 0
0 0 0
0 0 0
0 0 0
0 0 0
0 0 0
0 0 0
0 0 0
0 0 0
0 0 0
0 0 0
0 0 0
0 0 0
0 0 0
0 0 0
0 0 0
0 0 0
0 0 0
0 0 0
0 0 0
0 0 0
0 0 0
0 0 0
0 0 0
0 0 0
0 0 0
0 0 0
0 0 0
0 0 0
0 0 0
0 0 0
0 0 0
0 0 0
0 0 0
0 0 0
0 0 0
0 0 0
0 0 0
0 0 0
0 0 0
0 0 0
0 0 0
0 0 0
0 0 0
0 0 0
0 0 0
0 0 0
0 0 0
0 0 0
0 0 0
0 0 0
0 0 0
0 0 0
0 0 0
0 0 0
0 0 0
0 0 0
0 0 0
0 0 0
0 0 0
0 0 0
0 0 0
0 0 0
0 0 0
0 0 0
0 0 0
0 0 0
0 0 0
0 0 0
0 0 0
0 0 0
0 0 0
0 0 0
0 0 0
0 0 0
0 0 0
0 0 0
0 0 0
0 0 0
0 0 0
0 0 0
0 0 0
0 0 0
0 0 0
0 0 0
0 0 0
0 0 0
0 0 0
0 0 0
0 0 0
0 0 0
0 0 0
0 0 0
0 0 0
0 0 0
0 0 0
0 0 0
0 0 0
0 0 0
0 0 0
0 0 0
0 0 0
0 0 0
0 0 0
0 0 0
0 0 0
0 0 0
0 0 0
0 0 0
0 0 0
0 0 0
0 0 0
0 0 0
0 0 0
0 0 0
0 0 0
0 0 0
0 0 0
0 0 0
0 0 0
0 0 0
0 0 0
0 0 0
0 0 0
0 0 0
0 0 0
0 0 0
0 0 0
0 0 0
0 0 0
0 0 0
0 0 0
0 0 0
0 0 0
0 0 0
0 0 0
0 0 0
0 0 0
0 0 0
0 0 0
0 0 0
0 0 0
0 0 0
0 0 0
0 0 0
0 0 0
0 0 0
0 0 0
0 0 0
0 0 0
0 0 0
0 0 0
0 0 0
0 0 0
0 0 0
40 57 0
0 0 0
35 50 0
0 0 0
25 35 0
0 0 0
14 20 0
14 20 0
14 20 0
14 20 0
14 20 0
14 20 0
25 35 0
14 20 0
14 20 0
20 28 0
25 35 0
20 28 0
14 20 0
14 20 0
28 40 0
0 0 0
14 20 0
14 20 0
14 20 0
25 35 0
14 20 0
20 28 0
20 28 0
28 40 0
14 20 0
0 0 0
14 20 0
14 20 0
20 28 0
14 20 0
0 0 0
14 20 0
25 35 0
14 20 0
20 28 0
20 28 0
25 35 0
20 28 0
20 28 0
14 20 0
28 40 0
20 28 0
14 20 0
14 20 0
0 0 0
0 0 0
20 28 0
0 0 0
14 20 0
0 0 0
14 20 0
25 35 0
14 20 0
0 0 0
20 28 0
14 20 0
0 0 0
20 28 0
14 20 0
0 0 0
14 20 0
25 35 0
14 20 0
14 20 0
20 28 0
20 28 0
20 28 0
14 20 0
0 0 0
20 28 0
14 20 0
20 28 0
15 22 0
20 28 0
20 28 0
0 0 0
14 20 0
20 28 0
0 0 0
14 20 0
14 20 0
0 0 0
4 8 0
25 35 0
20 28 0
0 0 0
0 0 0
14 20 0
14 20 0
14 20 0
14 20 0
0 0 0
14 20 0
14 20 0
20 28 0
0 0 0
14 20 0
14 20 0
20 28 0
20 28 0
14 20 0
25 35 0
25 35 0
20 28 0
20 28 0
20 28 0
20 28 0
20 28 0
25 35 0
28 40 0
20 28 0
4 8 0
0 0 0
20 30 0
25 35 0
25 35 0
14 20 0
20 30 0
32 45 0
20 28 0
0 0 0
0 0 0
0 0 0
0 0 0
0 0 0
0 0 0
0 0 0
0 0 0
0 0 0
0 0 0
0 0 0
0 0 0
0 0 0
0 0 0
0 0 0
0 0 0
0 0 0
0 0 0
0 0 0
0 0 0
0 0 0
0 0 0
0 0 0
0 0 0
0 0 0
0 0 0
0 0 0
0 0 0
0 0 0
0 0 0
0 0 0
0 0 0
0 0 0
0 0 0
0 0 0
0 0 0
0 0 0
0 0 0
0 0 0
0 0 0
0 0 0
0 0 0
0 0 0
0 0 0
0 0 0
0 0 0
0 0 0
0 0 0
0 0 0
0 0 0
0 0 0
0 0 0
0 0 0
0 0 0
0 0 0
0 0 0
0 0 0
0 0 0
0 0 0
0 0 0
0 0 0
0 0 0
0 0 0
0 0 0
0 0 0
0 0 0
0 0 0
0 0 0
0 0 0
0 0 0
0 0 0
0 0 0
0 0 0
0 0 0
0 0 0
0 0 0
0 0 0
0 0 0
0 0 0
0 0 0
0 0 0
0 0 0
0 0 0
0 0 0
0 0 0
0 0 0
0 0 0
0 0 0
0 0 0
0 0 0
0 0 0
0 0 0
0 0 0
0 0 0
0 0 0
0 0 0
0 0 0
0 0 0
0 0 0
0 0 0
0 0 0
0 0 0
0 0 0
0 0 0
0 0 0
0 0 0
0 0 0
0 0 0
0 0 0
0 0 0
0 0 0
0 0 0
0 0 0
0 0 0
0 0 0
0 0 0
0 0 0
0 0 0
0 0 0
0 0 0
0 0 0
0 0 0
0 0 0
0 0 0
0 0 0
0 0 0
0 0 0
0 0 0
0 0 0
0 0 0
0 0 0
0 0 0
0 0 0
0 0 0
0 0 0
0 0 0
0 0 0
0 0 0
0 0 0
0 0 0
0 0 0
0 0 0
0 0 0
0 0 0
0 0 0
0 0 0
0 0 0
0 0 0
0 0 0
0 0 0
0 0 0
0 0 0
0 0 0
0 0 0
0 0 0
0 0 0
0 0 0
0 0 0
0 0 0
0 0 0
0 0 0
0 0 0
0 0 0
0 0 0
0 0 0
0 0 0
0 0 0
0 0 0
0 0 0
0 0 0
0 0 0
0 0 0
0 0 0
0 0 0
0 0 0
0 0 0
0 0 0
0 0 0
0 0 0
0 0 0
0 0 0
0 0 0
0 0 0
0 0 0
0 0 0
0 0 0
0 0 0
0 0 0
0 0 0
0 0 0
0 0 0
0 0 0
0 0 0
0 0 0
0 0 0
0 0 0
0 0 0
0 0 0
0 0 0
0 0 0
0 0 0
0 0 0
0 0 0
0 0 0
0 0 0
0 0 0
0 0 0
0 0 0
0 0 0
0 0 0
0 0 0
0 0 0
0 0 0
0 0 0
0 0 0
0 0 0
0 0 0
0 0 0
0 0 0
0 0 0
0 0 0
0 0 0
0 0 0
0 0 0
0 0 0
0 0 0
0 0 0
0 0 0
0 0 0
0 0 0
0 0 0
0 0 0
0 0 0
0 0 0
0 0 0
0 0 0
0 0 0
0 0 0
0 0 0
0 0 0
0 0 0
0 0 0
0 0 0
0 0 0
0 0 0
0 0 0
0 0 0
0 0 0
0 0 0
0 0 0
0 0 0
0 0 0
0 0 0
0 0 0
0 0 0
0 0 0
0 0 0
0 0 0
0 0 0
0 0 0
0 0 0
0 0 0
0 0 0
0 0 0
0 0 0
0 0 0
0 0 0
0 0 0
0 0 0
0 0 0
0 0 0
0 0 0
45 45 0
0 0 0
14 20 0
20 28 0
32 45 0
20 28 0
20 30 0
0 0 0
14 20 0
28 40 0
14 20 0
20 28 0
0 0 0
20 28 0
14 20 0
20 28 0
25 35 0
20 28 0
20 28 0
0 0 0
20 28 0
0 0 0
14 20 0
25 35 0
20 28 0
25 35 0
14 20 0
14 20 0
15 22 0
20 28 0
15 22 0
25 35 0
14 20 0
25 35 0
25 35 0
32 45 0
20 30 0
32 45 0
20 28 0
0 0 0
14 20 0
14 20 0
20 28 0
20 28 0
25 35 0
14 20 0
0 0 0
14 20 0
20 28 0
14 20 0
28 40 0
14 20 0
14 20 0
28 40 0
0 0 0
20 28 0
14 20 0
0 0 0
14 20 0
20 28 0
14 20 0
14 20 0
20 28 0
0 0 0
14 20 0
14 20 0
14 20 0
14 20 0
14 20 0
25 35 0
32 45 0
14 20 0
14 20 0
25 35 0
14 20 0
0 0 0
0 0 0
14 20 0
14 20 0
25 35 0
0 0 0
14 20 0
14 20 0
14 20 0
0 0 0
20 28 0
14 20 0
14 20 0
28 40 0
20 28 0
14 20 0
14 20 0
14 20 0
25 35 0
14 20 0
20 28 0
14 20 0
14 20 0
0 0 0
14 20 0
25 35 0
20 28 0
14 20 0
20 28 0
0 0 0
20 30 0
14 20 0
0 0 0
14 20 0
0 0 0
0 0 0
0 0 0
14 20 0
32 45 0
20 28 0
20 28 0
20 28 0
28 40 0
14 20 0
14 20 0
28 40 0
14 20 0
0 0 0
20 28 0
14 20 0
25 35 0
20 30 0
0 0 0
14 20 0
14 20 0
0 0 0
45 45 0
0 0 0
0 0 0
45 45 0
0 0 0
0 0 0
0 0 0
0 0 0
0 0 0
0 0 0
0 0 0
0 0 0
0 0 0
0 0 0
0 0 0
0 0 0
0 0 0
0 0 0
0 0 0
0 0 0
0 0 0
0 0 0
0 0 0
0 0 0
0 0 0
0 0 0
0 0 0
0 0 0
0 0 0
0 0 0
0 0 0
0 0 0
0 0 0
0 0 0
0 0 0
0 0 0
0 0 0
0 0 0
0 0 0
0 0 0
0 0 0
0 0 0
0 0 0
0 0 0
0 0 0
0 0 0
0 0 0
0 0 0
0 0 0
0 0 0
0 0 0
0 0 0
0 0 0
0 0 0
0 0 0
0 0 0
0 0 0
0 0 0
0 0 0
0 0 0
0 0 0
0 0 0
0 0 0
0 0 0
0 0 0
0 0 0
0 0 0
0 0 0
0 0 0
0 0 0
0 0 0
0 0 0
0 0 0
0 0 0
0 0 0
0 0 0
0 0 0
0 0 0
0 0 0
0 0 0
0 0 0
0 0 0
0 0 0
0 0 0
0 0 0
0 0 0
0 0 0
0 0 0
0 0 0
0 0 0
0 0 0
0 0 0
0 0 0
0 0 0
0 0 0
0 0 0
0 0 0
0 0 0
0 0 0
0 0 0
0 0 0
0 0 0
0 0 0
0 0 0
0 0 0
0 0 0
0 0 0
0 0 0
0 0 0
0 0 0
0 0 0
0 0 0
0 0 0
0 0 0
0 0 0
0 0 0
0 0 0
0 0 0
0 0 0
0 0 0
0 0 0
0 0 0
0 0 0
0 0 0
0 0 0
0 0 0
0 0 0
0 0 0
0 0 0
0 0 0
0 0 0
0 0 0
0 0 0
0 0 0
0 0 0
0 0 0
0 0 0
0 0 0
0 0 0
0 0 0
0 0 0
0 0 0
0 0 0
0 0 0
0 0 0
0 0 0
0 0 0
0 0 0
0 0 0
0 0 0
0 0 0
0 0 0
0 0 0
0 0 0
0 0 0
0 0 0
0 0 0
0 0 0
0 0 0
0 0 0
0 0 0
0 0 0
0 0 0
0 0 0
0 0 0
0 0 0
0 0 0
0 0 0
0 0 0
0 0 0
0 0 0
0 0 0
0 0 0
0 0 0
0 0 0
0 0 0
0 0 0
0 0 0
0 0 0
0 0 0
0 0 0
0 0 0
0 0 0
0 0 0
0 0 0
0 0 0
0 0 0
0 0 0
0 0 0
0 0 0
0 0 0
0 0 0
0 0 0
0 0 0
0 0 0
0 0 0
0 0 0
0 0 0
0 0 0
0 0 0
0 0 0
0 0 0
0 0 0
0 0 0
0 0 0
0 0 0
0 0 0
0 0 0
0 0 0
0 0 0
0 0 0
0 0 0
0 0 0
0 0 0
0 0 0
0 0 0
0 0 0
0 0 0
0 0 0
0 0 0
0 0 0
0 0 0
0 0 0
0 0 0
0 0 0
0 0 0
0 0 0
0 0 0
0 0 0
0 0 0
0 0 0
0 0 0
0 0 0
0 0 0
0 0 0
0 0 0
0 0 0
0 0 0
0 0 0
0 0 0
0 0 0
0 0 0
0 0 0
0 0 0
0 0 0
0 0 0
0 0 0
0 0 0
0 0 0
0 0 0
0 0 0
0 0 0
0 0 0
0 0 0
45 45 0
0 0 0
0 0 0
0 0 0
0 0 0
0 0 0
0 0 0
0 0 0
0 0 0
45 45 0
0 0 0
0 0 0
0 0 0
0 0 0
0 0 0
45 45 0
45 45 0
14 20 0
14 20 0
25 35 0
14 20 0
20 28 0
14 20 0
20 28 0
20 28 0
0 0 0
14 20 0
14 20 0
0 0 0
14 20 0
28 40 0
15 22 0
14 20 0
14 20 0
14 20 0
20 28 0
20 28 0
20 28 0
14 20 0
14 20 0
14 20 0
25 35 0
14 20 0
14 20 0
28 40 0
1 3 0
15 22 0
20 28 0
25 35 0
20 28 0
0 0 0
0 0 0
0 0 0
20 28 0
20 28 0
0 0 0
14 20 0
25 36 0
20 28 0
20 28 0
14 20 0
14 20 0
20 28 0
14 20 0
0 0 0
25 35 0
14 20 0
28 40 0
20 28 0
20 28 0
20 28 0
14 20 0
25 35 0
20 28 0
0 0 0
20 28 0
0 0 0
20 28 0
14 20 0
25 35 0
14 20 0
25 35 0
20 28 0
0 0 0
14 20 0
14 20 0
0 0 0
0 0 0
14 20 0
0 0 0
15 22 0
14 20 0
15 22 0
0 0 0
20 28 0
14 20 0
14 20 0
0 0 0
20 28 0
14 20 0
14 20 0
20 28 0
0 0 0
14 20 0
0 0 0
25 35 0
20 28 0
25 35 0
14 20 0
25 35 0
20 28 0
0 0 0
25 35 0
25 35 0
20 28 0
28 40 0
25 35 0
0 0 0
25 35 0
14 20 0
14 20 0
20 28 0
20 29 0
14 20 0
25 35 0
25 35 0
14 20 0
14 20 0
20 28 0
4 8 0
20 28 0
20 28 0
14 20 0
28 40 0
14 20 0
28 40 0
14 20 0
14 20 0
28 40 0
28 40 0
0 0 0
0 0 0
14 20 0
14 20 0
20 28 0
45 45 0
0 0 0
0 0 0
0 0 0
0 0 0
0 0 0
0 0 0
0 0 0
0 0 0
0 0 0
0 0 0
0 0 0
0 0 0
0 0 0
0 0 0
0 0 0
0 0 0
0 0 0
0 0 0
0 0 0
0 0 0
0 0 0
0 0 0
0 0 0
0 0 0
0 0 0
0 0 0
0 0 0
0 0 0
0 0 0
0 0 0
0 0 0
0 0 0
0 0 0
0 0 0
0 0 0
0 0 0
0 0 0
0 0 0
0 0 0
0 0 0
0 0 0
0 0 0
0 0 0
0 0 0
0 0 0
0 0 0
0 0 0
0 0 0
0 0 0
0 0 0
0 0 0
0 0 0
0 0 0
0 0 0
0 0 0
0 0 0
0 0 0
0 0 0
0 0 0
0 0 0
0 0 0
0 0 0
0 0 0
0 0 0
0 0 0
0 0 0
0 0 0
0 0 0
0 0 0
0 0 0
0 0 0
0 0 0
0 0 0
0 0 0
0 0 0
0 0 0
0 0 0
0 0 0
0 0 0
0 0 0
0 0 0
0 0 0
0 0 0
0 0 0
0 0 0
0 0 0
0 0 0
0 0 0
0 0 0
0 0 0
0 0 0
0 0 0
0 0 0
0 0 0
0 0 0
0 0 0
0 0 0
0 0 0
0 0 0
0 0 0
0 0 0
0 0 0
0 0 0
0 0 0
0 0 0
0 0 0
0 0 0
0 0 0
0 0 0
0 0 0
0 0 0
0 0 0
0 0 0
0 0 0
0 0 0
0 0 0
0 0 0
0 0 0
0 0 0
0 0 0
0 0 0
0 0 0
0 0 0
0 0 0
0 0 0
0 0 0
0 0 0
0 0 0
0 0 0
0 0 0
0 0 0
0 0 0
0 0 0
0 0 0
0 0 0
0 0 0
0 0 0
0 0 0
0 0 0
0 0 0
0 0 0
0 0 0
0 0 0
0 0 0
0 0 0
0 0 0
0 0 0
0 0 0
0 0 0
0 0 0
0 0 0
0 0 0
0 0 0
0 0 0
0 0 0
0 0 0
0 0 0
0 0 0
0 0 0
0 0 0
0 0 0
0 0 0
0 0 0
0 0 0
0 0 0
0 0 0
0 0 0
0 0 0
0 0 0
0 0 0
0 0 0
0 0 0
0 0 0
0 0 0
0 0 0
0 0 0
0 0 0
0 0 0
0 0 0
0 0 0
0 0 0
0 0 0
0 0 0
0 0 0
0 0 0
0 0 0
0 0 0
0 0 0
0 0 0
0 0 0
0 0 0
0 0 0
0 0 0
0 0 0
0 0 0
0 0 0
0 0 0
0 0 0
0 0 0
0 0 0
0 0 0
0 0 0
0 0 0
0 0 0
0 0 0
0 0 0
0 0 0
0 0 0
0 0 0
0 0 0
0 0 0
0 0 0
0 0 0
0 0 0
0 0 0
0 0 0
0 0 0
0 0 0
0 0 0
0 0 0
0 0 0
0 0 0
0 0 0
0 0 0
0 0 0
0 0 0
0 0 0
0 0 0
0 0 0
0 0 0
0 0 0
0 0 0
0 0 0
0 0 0
0 0 0
0 0 0
0 0 0
0 0 0
0 0 0
0 0 0
45 45 0
0 0 0
0 0 0
0 0 0
0 0 0
0 0 0
0 0 0
0 0 0
45 45 0
0 0 0
45 45 0
0 0 0
0 0 0
0 0 0
0 0 0
0 0 0
0 0 0
0 0 0
0 0 0
0 0 0
0 0 0
0 0 0
0 0 0
0 0 0
0 0 0
0 0 0
0 0 0
0 0 0
45 45 0
0 0 0
0 0 0
20 28 0
14 20 0
14 20 0
0 0 0
25 35 0
4 8 0
25 35 0
28 40 0
14 20 0
14 20 0
20 28 0
20 30 0
20 30 0
20 28 0
0 0 0
25 35 0
25 35 0
0 0 0
20 28 0
28 40 0
0 0 0
20 28 0
14 20 0
14 20 0
25 35 0
14 20 0
20 28 0
14 20 0
20 28 0
14 20 0
14 20 0
25 35 0
20 28 0
20 28 0
20 28 0
0 0 0
14 20 0
20 28 0
0 0 0
15 22 0
20 28 0
20 28 0
14 20 0
20 28 0
14 20 0
14 20 0
14 20 0
25 35 0
20 28 0
14 20 0
20 30 0
20 28 0
14 20 0
14 20 0
0 0 0
20 28 0
14 20 0
0 0 0
25 35 0
14 20 0
14 20 0
0 0 0
14 20 0
14 20 0
20 28 0
25 35 0
20 28 0
0 0 0
28 40 0
28 40 0
20 28 0
14 20 0
14 20 0
20 28 0
25 35 0
20 28 0
25 35 0
20 28 0
4 8 0
0 0 0
0 0 0
20 28 0
0 0 0
14 20 0
14 20 0
20 28 0
32 45 0
14 20 0
14 20 0
25 35 0
20 28 0
0 0 0
0 0 0
15 22 0
25 35 0
20 28 0
28 40 0
14 20 0
15 22 0
25 35 0
14 20 0
32 45 0
28 40 0
0 0 0
14 20 0
20 28 0
20 28 0
14 20 0
14 20 0
14 20 0
14 20 0
14 20 0
14 20 0
14 20 0
20 28 0
20 28 0
0 0 0
28 40 0
25 35 0
25 35 0
14 20 0
14 20 0
14 20 0
20 28 0
20 28 0
14 20 0
28 40 0
50 54 0
45 45 0
0 0 0
0 0 0
45 45 0
0 0 0
0 0 0
0 0 0
0 0 0
0 0 0
0 0 0
0 0 0
0 0 0
0 0 0
0 0 0
0 0 0
0 0 0
0 0 0
0 0 0
0 0 0
0 0 0
0 0 0
0 0 0
0 0 0
45 45 0
45 45 0
0 0 0
0 0 0
45 45 0
0 0 0
0 0 0
0 0 0
0 0 0
0 0 0
0 0 0
0 0 0
0 0 0
0 0 0
0 0 0
0 0 0
0 0 0
0 0 0
0 0 0
0 0 0
0 0 0
0 0 0
0 0 0
0 0 0
0 0 0
0 0 0
0 0 0
0 0 0
0 0 0
0 0 0
0 0 0
0 0 0
0 0 0
0 0 0
0 0 0
0 0 0
0 0 0
0 0 0
0 0 0
0 0 0
0 0 0
0 0 0
0 0 0
0 0 0
0 0 0
0 0 0
0 0 0
0 0 0
0 0 0
0 0 0
0 0 0
0 0 0
0 0 0
0 0 0
0 0 0
0 0 0
0 0 0
0 0 0
0 0 0
0 0 0
0 0 0
0 0 0
0 0 0
0 0 0
0 0 0
0 0 0
0 0 0
0 0 0
0 0 0
0 0 0
0 0 0
0 0 0
0 0 0
0 0 0
0 0 0
0 0 0
0 0 0
0 0 0
0 0 0
0 0 0
0 0 0
0 0 0
0 0 0
0 0 0
0 0 0
0 0 0
0 0 0
0 0 0
0 0 0
0 0 0
0 0 0
0 0 0
0 0 0
0 0 0
0 0 0
0 0 0
0 0 0
0 0 0
0 0 0
0 0 0
0 0 0
0 0 0
0 0 0
0 0 0
0 0 0
0 0 0
0 0 0
0 0 0
0 0 0
0 0 0
0 0 0
0 0 0
0 0 0
0 0 0
0 0 0
0 0 0
0 0 0
0 0 0
0 0 0
0 0 0
0 0 0
0 0 0
0 0 0
0 0 0
0 0 0
0 0 0
0 0 0
0 0 0
0 0 0
0 0 0
0 0 0
0 0 0
0 0 0
0 0 0
0 0 0
0 0 0
0 0 0
0 0 0
0 0 0
0 0 0
0 0 0
0 0 0
0 0 0
0 0 0
0 0 0
0 0 0
0 0 0
0 0 0
0 0 0
0 0 0
0 0 0
0 0 0
0 0 0
0 0 0
0 0 0
0 0 0
0 0 0
0 0 0
0 0 0
0 0 0
0 0 0
0 0 0
0 0 0
0 0 0
0 0 0
0 0 0
0 0 0
0 0 0
0 0 0
0 0 0
0 0 0
0 0 0
0 0 0
0 0 0
0 0 0
0 0 0
0 0 0
0 0 0
0 0 0
0 0 0
0 0 0
0 0 0
0 0 0
0 0 0
0 0 0
0 0 0
0 0 0
0 0 0
0 0 0
0 0 0
0 0 0
0 0 0
0 0 0
0 0 0
0 0 0
0 0 0
0 0 0
0 0 0
0 0 0
0 0 0
0 0 0
0 0 0
0 0 0
0 0 0
0 0 0
0 0 0
0 0 0
0 0 0
0 0 0
0 0 0
0 0 0
0 0 0
0 0 0
0 0 0
45 45 0
0 0 0
0 0 0
45 45 0
0 0 0
0 0 0
0 0 0
0 0 0
0 0 0
0 0 0
0 0 0
0 0 0
45 45 0
0 0 0
0 0 0
0 0 0
0 0 0
0 0 0
45 45 0
0 0 0
0 0 0
64 64 0
0 0 0
45 45 0
45 45 0
0 0 0
0 0 0
0 0 0
0 0 0
45 45 0
0 0 0
0 0 0
0 0 0
0 0 0
64 64 0
0 0 0
14 20 0
14 20 0
20 28 0
20 30 0
14 20 0
0 0 0
0 0 0
25 35 0
14 20 0
28 40 0
14 20 0
0 0 0
20 28 0
14 20 0
20 28 0
14 20 0
20 28 0
0 0 0
20 28 0
14 20 0
14 20 0
14 20 0
14 20 0
20 28 0
14 20 0
14 20 0
14 20 0
14 20 0
20 28 0
14 20 0
14 20 0
20 28 0
25 35 0
14 20 0
14 20 0
15 22 0
28 40 0
14 20 0
32 46 0
32 45 0
0 0 0
14 20 0
14 20 0
0 0 0
0 0 0
20 28 0
25 35 0
25 35 0
14 20 0
25 36 0
28 40 0
20 28 0
14 20 0
20 28 0
20 28 0
0 0 0
28 40 0
0 0 0
25 35 0
14 20 0
14 20 0
14 20 0
20 28 0
20 28 0
4 8 0
14 20 0
0 0 0
14 20 0
20 28 0
20 28 0
14 20 0
25 35 0
0 0 0
14 20 0
0 0 0
28 40 0
25 36 0
20 28 0
28 40 0
14 20 0
4 8 0
0 0 0
15 22 0
14 20 0
20 28 0
25 35 0
25 35 0
25 35 0
0 0 0
25 35 0
14 20 0
0 0 0
0 0 0
14 20 0
14 20 0
20 28 0
14 20 0
20 28 0
14 20 0
20 28 0
0 0 0
25 35 0
25 35 0
14 20 0
14 20 0
20 30 0
20 28 0
20 28 0
20 28 0
14 20 0
25 35 0
25 36 0
25 35 0
14 20 0
25 35 0
14 20 0
20 28 0
32 45 0
20 28 0
0 0 0
0 0 0
29 41 0
20 28 0
20 28 0
20 28 0
0 0 0
0 0 0
0 0 0
0 0 0
45 45 0
0 0 0
0 0 0
0 0 0
0 0 0
0 0 0
0 0 0
0 0 0
45 45 0
0 0 0
64 64 0
0 0 0
45 45 0
0 0 0
0 0 0
0 0 0
0 0 0
45 45 0
0 0 0
0 0 0
0 0 0
0 0 0
0 0 0
0 0 0
0 0 0
0 0 0
0 0 0
0 0 0
0 0 0
0 0 0
0 0 0
45 45 0
0 0 0
0 0 0
0 0 0
0 0 0
0 0 0
0 0 0
0 0 0
0 0 0
0 0 0
0 0 0
0 0 0
0 0 0
0 0 0
0 0 0
0 0 0
0 0 0
0 0 0
0 0 0
0 0 0
0 0 0
0 0 0
0 0 0
0 0 0
0 0 0
0 0 0
0 0 0
0 0 0
0 0 0
0 0 0
0 0 0
0 0 0
0 0 0
0 0 0
0 0 0
0 0 0
0 0 0
0 0 0
0 0 0
0 0 0
0 0 0
0 0 0
0 0 0
0 0 0
0 0 0
0 0 0
0 0 0
0 0 0
0 0 0
0 0 0
0 0 0
0 0 0
0 0 0
0 0 0
0 0 0
0 0 0
0 0 0
0 0 0
0 0 0
0 0 0
0 0 0
0 0 0
0 0 0
0 0 0
0 0 0
0 0 0
0 0 0
0 0 0
0 0 0
0 0 0
0 0 0
0 0 0
0 0 0
0 0 0
0 0 0
0 0 0
0 0 0
0 0 0
0 0 0
0 0 0
0 0 0
0 0 0
0 0 0
0 0 0
0 0 0
0 0 0
0 0 0
0 0 0
0 0 0
0 0 0
0 0 0
0 0 0
0 0 0
0 0 0
0 0 0
0 0 0
0 0 0
0 0 0
0 0 0
0 0 0
0 0 0
0 0 0
0 0 0
0 0 0
0 0 0
0 0 0
0 0 0
0 0 0
0 0 0
0 0 0
0 0 0
0 0 0
0 0 0
0 0 0
0 0 0
0 0 0
0 0 0
0 0 0
0 0 0
0 0 0
0 0 0
0 0 0
0 0 0
0 0 0
0 0 0
0 0 0
0 0 0
0 0 0
0 0 0
0 0 0
0 0 0
0 0 0
0 0 0
0 0 0
0 0 0
0 0 0
0 0 0
0 0 0
0 0 0
0 0 0
0 0 0
0 0 0
0 0 0
0 0 0
0 0 0
0 0 0
0 0 0
0 0 0
0 0 0
0 0 0
0 0 0
0 0 0
0 0 0
0 0 0
0 0 0
0 0 0
0 0 0
0 0 0
0 0 0
0 0 0
0 0 0
0 0 0
0 0 0
0 0 0
0 0 0
0 0 0
0 0 0
0 0 0
0 0 0
0 0 0
0 0 0
0 0 0
0 0 0
0 0 0
0 0 0
0 0 0
0 0 0
0 0 0
0 0 0
0 0 0
0 0 0
0 0 0
0 0 0
45 45 0
0 0 0
0 0 0
0 0 0
0 0 0
0 0 0
0 0 0
0 0 0
0 0 0
0 0 0
0 0 0
0 0 0
0 0 0
0 0 0
0 0 0
0 0 0
0 0 0
0 0 0
0 0 0
0 0 0
0 0 0
45 45 0
0 0 0
0 0 0
0 0 0
0 0 0
0 0 0
0 0 0
0 0 0
45 45 0
0 0 0
45 45 0
45 45 0
45 45 0
0 0 0
0 0 0
0 0 0
45 45 0
0 0 0
45 45 0
0 0 0
0 0 0
45 45 0
0 0 0
0 0 0
0 0 0
0 0 0
45 45 0
0 0 0
0 0 0
0 0 0
79 79 0
45 45 0
45 45 0
64 64 0
45 45 0
0 0 0
14 20 0
20 28 0
14 20 0
14 20 0
14 20 0
0 0 0
20 28 0
20 28 0
20 28 0
20 28 0
14 20 0
20 28 0
14 20 0
20 28 0
25 35 0
20 28 0
20 28 0
20 28 0
14 20 0
20 28 0
14 20 0
14 20 0
20 28 0
20 28 0
14 20 0
20 28 0
20 28 0
14 20 0
20 30 0
25 35 0
14 20 0
25 35 0
0 0 0
32 45 0
0 0 0
0 0 0
14 20 0
14 20 0
0 0 0
0 0 0
14 20 0
14 20 0
0 0 0
25 35 0
20 28 0
14 20 0
0 0 0
20 28 0
0 0 0
0 0 0
20 28 0
25 35 0
14 20 0
32 45 0
32 45 0
20 30 0
20 28 0
14 20 0
32 45 0
20 28 0
28 40 0
25 35 0
14 20 0
0 0 0
0 0 0
0 0 0
20 28 0
0 0 0
14 20 0
0 0 0
20 28 0
0 0 0
20 28 0
0 0 0
20 28 0
14 20 0
14 20 0
15 22 0
0 0 0
28 40 0
29 41 0
25 35 0
25 36 0
14 20 0
14 20 0
20 28 0
32 45 0
20 28 0
0 0 0
25 35 0
25 35 0
20 28 0
0 0 0
14 20 0
14 20 0
20 28 0
0 0 0
14 20 0
4 8 0
20 28 0
0 0 0
25 35 0
14 20 0
20 28 0
14 20 0
15 22 0
0 0 0
0 0 0
20 28 0
14 20 0
25 35 0
14 20 0
14 20 0
14 20 0
14 20 0
20 28 0
14 20 0
32 45 0
14 20 0
0 0 0
20 28 0
14 20 0
0 0 0
0 0 0
25 35 0
28 40 0
45 45 0
0 0 0
0 0 0
0 0 0
0 0 0
0 0 0
0 0 0
45 45 0
45 45 0
45 45 0
45 45 0
45 45 0
0 0 0
0 0 0
0 0 0
0 0 0
0 0 0
0 0 0
0 0 0
45 45 0
45 45 0
0 0 0
0 0 0
0 0 0
45 45 0
64 64 0
0 0 0
45 45 0
0 0 0
0 0 0
0 0 0
0 0 0
0 0 0
0 0 0
0 0 0
0 0 0
45 45 0
0 0 0
0 0 0
0 0 0
0 0 0
0 0 0
0 0 0
0 0 0
0 0 0
0 0 0
0 0 0
0 0 0
0 0 0
0 0 0
0 0 0
45 45 0
0 0 0
0 0 0
45 45 0
0 0 0
0 0 0
45 45 0
0 0 0
0 0 0
0 0 0
0 0 0
0 0 0
0 0 0
0 0 0
0 0 0
0 0 0
0 0 0
0 0 0
0 0 0
0 0 0
0 0 0
0 0 0
0 0 0
0 0 0
0 0 0
0 0 0
0 0 0
0 0 0
0 0 0
0 0 0
0 0 0
0 0 0
0 0 0
0 0 0
0 0 0
0 0 0
0 0 0
0 0 0
0 0 0
0 0 0
0 0 0
0 0 0
0 0 0
0 0 0
0 0 0
0 0 0
0 0 0
0 0 0
0 0 0
0 0 0
0 0 0
0 0 0
0 0 0
0 0 0
0 0 0
0 0 0
0 0 0
0 0 0
0 0 0
0 0 0
0 0 0
0 0 0
0 0 0
0 0 0
0 0 0
0 0 0
0 0 0
0 0 0
0 0 0
0 0 0
0 0 0
0 0 0
0 0 0
0 0 0
0 0 0
0 0 0
0 0 0
0 0 0
0 0 0
0 0 0
0 0 0
0 0 0
0 0 0
0 0 0
0 0 0
0 0 0
0 0 0
0 0 0
0 0 0
0 0 0
0 0 0
0 0 0
0 0 0
0 0 0
0 0 0
0 0 0
0 0 0
0 0 0
0 0 0
0 0 0
0 0 0
0 0 0
0 0 0
0 0 0
0 0 0
0 0 0
0 0 0
0 0 0
0 0 0
0 0 0
0 0 0
0 0 0
0 0 0
0 0 0
0 0 0
0 0 0
0 0 0
0 0 0
0 0 0
0 0 0
0 0 0
0 0 0
0 0 0
0 0 0
0 0 0
0 0 0
0 0 0
0 0 0
0 0 0
0 0 0
0 0 0
0 0 0
0 0 0
0 0 0
0 0 0
0 0 0
0 0 0
0 0 0
0 0 0
0 0 0
0 0 0
0 0 0
0 0 0
0 0 0
0 0 0
45 45 0
0 0 0
0 0 0
0 0 0
0 0 0
45 45 0
0 0 0
0 0 0
0 0 0
0 0 0
0 0 0
0 0 0
0 0 0
0 0 0
0 0 0
0 0 0
0 0 0
0 0 0
0 0 0
0 0 0
45 45 0
0 0 0
0 0 0
0 0 0
0 0 0
0 0 0
0 0 0
0 0 0
0 0 0
0 0 0
0 0 0
0 0 0
0 0 0
0 0 0
0 0 0
0 0 0
0 0 0
0 0 0
0 0 0
0 0 0
45 45 0
45 45 0
0 0 0
0 0 0
0 0 0
0 0 0
0 0 0
45 45 0
0 0 0
45 45 0
0 0 0
45 45 0
45 45 0
0 0 0
0 0 0
45 45 0
0 0 0
0 0 0
45 45 0
0 0 0
0 0 0
0 0 0
0 0 0
45 45 0
0 0 0
0 0 0
0 0 0
0 0 0
45 45 0
0 0 0
0 0 0
0 0 0
64 64 0
0 0 0
0 0 0
0 0 0
45 45 0
0 0 0
0 0 0
0 0 0
20 28 0
25 35 0
14 20 0
0 0 0
14 20 0
29 41 0
20 28 0
20 28 0
0 0 0
20 28 0
14 20 0
14 20 0
0 0 0
25 35 0
14 20 0
0 0 0
20 28 0
20 28 0
14 20 0
14 20 0
0 0 0
20 28 0
14 20 0
25 35 0
28 40 0
20 28 0
25 35 0
14 20 0
14 20 0
14 20 0
32 45 0
14 20 0
20 28 0
14 20 0
14 20 0
0 0 0
0 0 0
15 22 0
14 20 0
0 0 0
25 35 0
20 28 0
20 28 0
0 0 0
20 30 0
20 28 0
0 0 0
14 20 0
14 20 0
25 35 0
14 20 0
20 28 0
20 28 0
0 0 0
0 0 0
14 20 0
20 28 0
20 28 0
28 40 0
14 20 0
0 0 0
14 20 0
4 8 0
28 41 0
20 28 0
14 20 0
20 30 0
25 35 0
25 35 0
0 0 0
14 20 0
14 20 0
14 20 0
14 20 0
20 28 0
0 0 0
25 35 0
32 45 0
25 36 0
1 3 0
25 35 0
25 35 0
25 35 0
32 45 0
14 20 0
29 41 0
0 0 0
0 0 0
0 0 0
28 40 0
0 0 0
20 28 0
14 20 0
14 20 0
0 0 0
0 0 0
14 20 0
14 20 0
20 28 0
20 28 0
20 28 0
28 40 0
20 28 0
14 20 0
20 28 0
0 0 0
0 0 0
14 20 0
0 0 0
14 20 0
15 22 0
14 20 0
20 28 0
20 28 0
0 0 0
14 20 0
20 28 0
14 20 0
20 28 0
20 28 0
0 0 0
14 20 0
25 35 0
14 20 0
45 45 0
66 67 0
45 45 0
0 0 0
0 0 0
45 45 0
79 79 0
0 0 0
0 0 0
64 64 0
0 0 0
0 0 0
0 0 0
64 64 0
0 0 0
0 0 0
0 0 0
45 45 0
0 0 0
0 0 0
0 0 0
0 0 0
64 64 0
0 0 0
0 0 0
0 0 0
0 0 0
0 0 0
0 0 0
0 0 0
0 0 0
0 0 0
0 0 0
45 45 0
0 0 0
45 45 0
0 0 0
0 0 0
0 0 0
0 0 0
0 0 0
0 0 0
0 0 0
0 0 0
0 0 0
45 45 0
0 0 0
0 0 0
0 0 0
64 64 0
0 0 0
0 0 0
0 0 0
0 0 0
0 0 0
0 0 0
0 0 0
64 64 0
45 45 0
0 0 0
45 45 0
0 0 0
0 0 0
0 0 0
0 0 0
0 0 0
0 0 0
0 0 0
0 0 0
0 0 0
0 0 0
0 0 0
0 0 0
0 0 0
0 0 0
0 0 0
0 0 0
0 0 0
0 0 0
0 0 0
0 0 0
0 0 0
0 0 0
0 0 0
0 0 0
0 0 0
0 0 0
0 0 0
0 0 0
0 0 0
0 0 0
0 0 0
0 0 0
0 0 0
0 0 0
0 0 0
0 0 0
0 0 0
0 0 0
0 0 0
0 0 0
0 0 0
0 0 0
0 0 0
0 0 0
0 0 0
0 0 0
0 0 0
0 0 0
0 0 0
0 0 0
0 0 0
0 0 0
0 0 0
0 0 0
0 0 0
0 0 0
0 0 0
0 0 0
0 0 0
0 0 0
0 0 0
0 0 0
0 0 0
0 0 0
0 0 0
0 0 0
0 0 0
0 0 0
0 0 0
0 0 0
0 0 0
0 0 0
0 0 0
0 0 0
0 0 0
0 0 0
0 0 0
0 0 0
0 0 0
0 0 0
0 0 0
0 0 0
0 0 0
0 0 0
0 0 0
0 0 0
0 0 0
0 0 0
0 0 0
0 0 0
0 0 0
0 0 0
0 0 0
0 0 0
0 0 0
0 0 0
0 0 0
0 0 0
0 0 0
0 0 0
0 0 0
0 0 0
0 0 0
0 0 0
0 0 0
0 0 0
0 0 0
0 0 0
0 0 0
0 0 0
0 0 0
0 0 0
0 0 0
0 0 0
0 0 0
0 0 0
0 0 0
0 0 0
0 0 0
0 0 0
0 0 0
0 0 0
0 0 0
0 0 0
0 0 0
0 0 0
0 0 0
0 0 0
0 0 0
0 0 0
0 0 0
0 0 0
0 0 0
45 45 0
0 0 0
0 0 0
0 0 0
45 45 0
0 0 0
45 45 0
0 0 0
45 45 0
0 0 0
0 0 0
0 0 0
0 0 0
0 0 0
0 0 0
0 0 0
0 0 0
0 0 0
45 45 0
0 0 0
0 0 0
0 0 0
0 0 0
0 0 0
0 0 0
0 0 0
0 0 0
0 0 0
0 0 0
0 0 0
0 0 0
0 0 0
0 0 0
0 0 0
0 0 0
0 0 0
0 0 0
0 0 0
0 0 0
0 0 0
0 0 0
45 45 0
45 45 0
0 0 0
64 64 0
45 45 0
45 45 0
0 0 0
0 0 0
45 45 0
0 0 0
0 0 0
45 45 0
0 0 0
45 45 0
45 45 0
64 64 0
45 45 0
0 0 0
0 0 0
45 45 0
47 49 0
0 0 0
0 0 0
45 45 0
0 0 0
64 64 0
45 45 0
0 0 0
79 79 0
45 45 0
0 0 0
0 0 0
0 0 0
45 45 0
45 45 0
64 64 0
64 64 0
45 45 0
64 64 0
45 45 0
14 20 0
25 35 0
20 28 0
0 0 0
0 0 0
20 28 0
14 20 0
28 40 0
25 35 0
0 0 0
28 40 0
35 50 0
14 20 0
25 35 0
28 40 0
20 28 0
14 20 0
14 20 0
14 20 0
25 35 0
14 20 0
14 20 0
25 35 0
0 0 0
0 0 0
0 0 0
0 0 0
25 35 0
25 35 0
20 28 0
14 20 0
0 0 0
14 20 0
20 28 0
0 0 0
0 0 0
20 28 0
20 28 0
20 28 0
28 40 0
28 40 0
15 22 0
14 20 0
0 0 0
28 40 0
20 28 0
14 20 0
0 0 0
14 20 0
14 20 0
0 0 0
0 0 0
14 20 0
0 0 0
14 20 0
14 20 0
0 0 0
14 20 0
25 35 0
14 20 0
14 20 0
14 20 0
20 28 0
4 8 0
14 20 0
25 35 0
32 46 0
14 20 0
20 30 0
28 40 0
20 28 0
28 40 0
25 35 0
14 20 0
0 0 0
28 40 0
20 28 0
20 28 0
20 28 0
0 0 0
14 20 0
14 20 0
4 8 0
20 28 0
28 40 0
14 20 0
14 20 0
14 20 0
20 28 0
14 20 0
20 28 0
0 0 0
14 20 0
0 0 0
20 28 0
28 40 0
14 20 0
20 30 0
0 0 0
4 8 0
14 20 0
20 28 0
32 45 0
20 28 0
0 0 0
0 0 0
25 35 0
25 35 0
14 20 0
14 20 0
0 0 0
14 20 0
25 35 0
14 20 0
14 20 0
14 20 0
20 28 0
28 40 0
14 20 0
20 28 0
25 35 0
28 40 0
20 28 0
0 0 0
14 20 0
45 45 0
0 0 0
45 45 0
0 0 0
64 64 0
45 45 0
45 45 0
0 0 0
45 45 0
45 45 0
64 64 0
0 0 0
0 0 0
0 0 0
0 0 0
64 64 0
64 64 0
0 0 0
0 0 0
0 0 0
45 45 0
0 0 0
45 45 0
45 45 0
0 0 0
0 0 0
0 0 0
0 0 0
0 0 0
45 45 0
0 0 0
0 0 0
45 45 0
0 0 0
0 0 0
0 0 0
0 0 0
0 0 0
0 0 0
0 0 0
0 0 0
0 0 0
45 45 0
45 45 0
0 0 0
0 0 0
0 0 0
0 0 0
0 0 0
45 45 0
0 0 0
0 0 0
0 0 0
45 45 0
0 0 0
0 0 0
0 0 0
0 0 0
0 0 0
0 0 0
45 45 0
0 0 0
0 0 0
0 0 0
0 0 0
0 0 0
0 0 0
0 0 0
45 45 0
0 0 0
64 64 0
0 0 0
0 0 0
0 0 0
0 0 0
0 0 0
0 0 0
0 0 0
0 0 0
0 0 0
0 0 0
0 0 0
0 0 0
0 0 0
0 0 0
0 0 0
0 0 0
0 0 0
0 0 0
0 0 0
0 0 0
0 0 0
0 0 0
0 0 0
0 0 0
0 0 0
0 0 0
0 0 0
0 0 0
0 0 0
0 0 0
0 0 0
0 0 0
0 0 0
0 0 0
0 0 0
0 0 0
0 0 0
0 0 0
0 0 0
0 0 0
0 0 0
0 0 0
0 0 0
0 0 0
0 0 0
0 0 0
0 0 0
0 0 0
0 0 0
0 0 0
0 0 0
0 0 0
0 0 0
0 0 0
0 0 0
0 0 0
0 0 0
0 0 0
0 0 0
0 0 0
0 0 0
0 0 0
0 0 0
0 0 0
0 0 0
0 0 0
0 0 0
0 0 0
0 0 0
0 0 0
0 0 0
0 0 0
0 0 0
0 0 0
0 0 0
0 0 0
0 0 0
0 0 0
0 0 0
0 0 0
0 0 0
0 0 0
0 0 0
0 0 0
0 0 0
0 0 0
0 0 0
0 0 0
0 0 0
0 0 0
0 0 0
0 0 0
0 0 0
0 0 0
0 0 0
0 0 0
0 0 0
0 0 0
0 0 0
0 0 0
0 0 0
0 0 0
0 0 0
0 0 0
0 0 0
0 0 0
0 0 0
0 0 0
0 0 0
0 0 0
0 0 0
0 0 0
45 45 0
0 0 0
0 0 0
0 0 0
0 0 0
0 0 0
0 0 0
45 45 0
0 0 0
64 64 0
0 0 0
0 0 0
0 0 0
0 0 0
0 0 0
0 0 0
0 0 0
0 0 0
0 0 0
0 0 0
0 0 0
0 0 0
0 0 0
45 45 0
0 0 0
0 0 0
0 0 0
0 0 0
0 0 0
0 0 0
45 45 0
64 64 0
0 0 0
45 45 0
0 0 0
45 45 0
0 0 0
0 0 0
0 0 0
45 45 0
45 45 0
0 0 0
45 45 0
45 45 0
45 45 0
64 64 0
45 45 0
45 45 0
0 0 0
0 0 0
0 0 0
0 0 0
45 45 0
45 45 0
0 0 0
0 0 0
0 0 0
0 0 0
79 79 0
64 64 0
45 45 0
0 0 0
64 64 0
0 0 0
0 0 0
45 45 0
64 64 0
64 64 0
0 0 0
45 45 0
0 0 0
0 0 0
45 45 0
0 0 0
45 45 0
45 45 0
64 64 0
45 45 0
0 0 0
64 64 0
64 64 0
79 79 0
45 45 0
64 64 0
64 64 0
45 45 0
45 45 0
45 45 0
45 45 0
0 0 0
45 45 0
79 79 0
20 28 0
0 0 0
14 20 0
25 35 0
20 28 0
1 3 0
20 28 0
20 28 0
25 35 0
25 35 0
20 28 0
14 20 0
20 28 0
20 30 0
14 20 0
14 20 0
14 20 0
0 0 0
14 20 0
25 35 0
14 20 0
14 20 0
32 45 0
0 0 0
14 20 0
25 35 0
4 8 0
14 20 0
25 35 0
20 28 0
20 28 0
14 20 0
25 35 0
38 54 0
14 20 0
25 35 0
20 28 0
14 20 0
25 35 0
38 54 0
14 20 0
20 28 0
14 20 0
15 22 0
14 20 0
20 28 0
28 40 0
25 36 0
0 0 0
0 0 0
20 28 0
14 20 0
14 20 0
20 28 0
14 20 0
20 28 0
0 0 0
14 20 0
25 35 0
25 35 0
25 35 0
20 28 0
25 35 0
20 28 0
14 20 0
20 28 0
25 35 0
0 0 0
0 0 0
20 28 0
20 28 0
14 20 0
20 28 0
20 28 0
28 40 0
14 20 0
0 0 0
0 0 0
14 20 0
25 35 0
28 40 0
20 28 0
0 0 0
14 20 0
28 40 0
35 50 0
14 20 0
14 20 0
25 35 0
0 0 0
20 28 0
25 35 0
20 28 0
28 40 0
14 20 0
14 20 0
14 20 0
0 0 0
14 20 0
20 28 0
28 40 0
0 0 0
25 35 0
28 40 0
14 20 0
20 28 0
20 30 0
14 20 0
28 40 0
20 28 0
14 20 0
28 40 0
14 20 0
14 20 0
32 45 0
4 8 0
20 28 0
20 28 0
14 20 0
20 30 0
25 35 0
20 28 0
0 0 0
14 20 0
0 0 0
0 0 0
45 45 0
64 64 0
79 79 0
45 45 0
45 45 0
45 45 0
0 0 0
102 102 0
45 45 0
0 0 0
45 45 0
0 0 0
0 0 0
112 112 0
45 45 0
0 0 0
45 45 0
79 79 0
45 45 0
0 0 0
0 0 0
0 0 0
0 0 0
0 0 0
45 45 0
0 0 0
0 0 0
64 64 0
0 0 0
64 64 0
0 0 0
0 0 0
0 0 0
0 0 0
45 45 0
0 0 0
45 45 0
64 64 0
0 0 0
45 45 0
0 0 0
0 0 0
0 0 0
0 0 0
45 45 0
45 45 0
0 0 0
0 0 0
0 0 0
0 0 0
0 0 0
0 0 0
45 45 0
0 0 0
0 0 0
0 0 0
0 0 0
45 45 0
45 45 0
45 45 0
0 0 0
0 0 0
0 0 0
0 0 0
45 45 0
0 0 0
0 0 0
64 64 0
0 0 0
0 0 0
0 0 0
0 0 0
0 0 0
0 0 0
0 0 0
0 0 0
0 0 0
0 0 0
0 0 0
0 0 0
0 0 0
0 0 0
0 0 0
0 0 0
0 0 0
0 0 0
64 64 0
0 0 0
0 0 0
0 0 0
0 0 0
0 0 0
0 0 0
0 0 0
0 0 0
45 45 0
0 0 0
0 0 0
0 0 0
0 0 0
0 0 0
0 0 0
0 0 0
0 0 0
0 0 0
0 0 0
0 0 0
0 0 0
0 0 0
0 0 0
0 0 0
0 0 0
0 0 0
0 0 0
0 0 0
0 0 0
0 0 0
0 0 0
0 0 0
0 0 0
0 0 0
0 0 0
0 0 0
0 0 0
0 0 0
0 0 0
0 0 0
0 0 0
0 0 0
0 0 0
0 0 0
0 0 0
0 0 0
0 0 0
0 0 0
0 0 0
0 0 0
0 0 0
0 0 0
0 0 0
0 0 0
0 0 0
0 0 0
0 0 0
0 0 0
0 0 0
0 0 0
0 0 0
0 0 0
0 0 0
0 0 0
0 0 0
0 0 0
0 0 0
0 0 0
0 0 0
0 0 0
0 0 0
0 0 0
0 0 0
0 0 0
0 0 0
0 0 0
0 0 0
0 0 0
0 0 0
0 0 0
0 0 0
0 0 0
0 0 0
0 0 0
0 0 0
0 0 0
0 0 0
0 0 0
45 45 0
0 0 0
0 0 0
0 0 0
0 0 0
0 0 0
45 45 0
45 45 0
0 0 0
45 45 0
0 0 0
0 0 0
0 0 0
0 0 0
0 0 0
0 0 0
0 0 0
0 0 0
0 0 0
45 45 0
0 0 0
0 0 0
0 0 0
0 0 0
0 0 0
0 0 0
0 0 0
0 0 0
0 0 0
0 0 0
0 0 0
45 45 0
0 0 0
0 0 0
0 0 0
0 0 0
0 0 0
0 0 0
0 0 0
0 0 0
0 0 0
0 0 0
45 45 0
0 0 0
64 64 0
0 0 0
0 0 0
0 0 0
0 0 0
45 45 0
0 0 0
45 45 0
0 0 0
45 45 0
0 0 0
0 0 0
0 0 0
0 0 0
0 0 0
0 0 0
45 45 0
0 0 0
0 0 0
45 45 0
0 0 0
45 45 0
0 0 0
45 45 0
0 0 0
0 0 0
64 64 0
79 79 0
0 0 0
0 0 0
0 0 0
45 45 0
0 0 0
45 45 0
45 45 0
64 64 0
45 45 0
79 79 0
45 45 0
45 45 0
0 0 0
79 79 0
45 45 0
45 45 0
0 0 0
45 45 0
79 79 0
0 0 0
0 0 0
0 0 0
0 0 0
0 0 0
64 64 0
0 0 0
0 0 0
0 0 0
25 36 0
14 20 0
20 28 0
14 20 0
14 20 0
14 20 0
28 40 0
15 22 0
14 20 0
20 28 0
28 40 0
0 0 0
0 0 0
0 0 0
0 0 0
20 28 0
20 28 0
20 30 0
20 28 0
25 35 0
20 28 0
0 0 0
14 20 0
25 35 0
20 28 0
28 40 0
28 40 0
20 28 0
20 28 0
14 20 0
20 28 0
14 20 0
20 28 0
0 0 0
14 20 0
28 40 0
0 0 0
14 20 0
14 20 0
14 20 0
0 0 0
20 28 0
0 0 0
0 0 0
15 22 0
14 20 0
20 28 0
25 36 0
20 28 0
14 20 0
14 20 0
20 28 0
35 50 0
20 28 0
20 30 0
25 35 0
14 20 0
28 40 0
25 35 0
20 28 0
0 0 0
20 28 0
20 30 0
20 30 0
14 20 0
14 20 0
0 0 0
20 28 0
14 20 0
20 28 0
20 28 0
20 28 0
14 20 0
14 20 0
14 20 0
20 30 0
20 28 0
0 0 0
14 20 0
0 0 0
14 20 0
14 20 0
20 28 0
0 0 0
14 20 0
0 0 0
20 28 0
14 20 0
25 35 0
14 20 0
20 28 0
14 20 0
20 28 0
20 30 0
14 20 0
20 28 0
0 0 0
14 20 0
4 8 0
0 0 0
20 28 0
14 20 0
29 41 0
32 45 0
0 0 0
20 28 0
25 35 0
14 20 0
4 9 0
14 20 0
0 0 0
20 28 0
25 35 0
0 0 0
0 0 0
20 28 0
20 28 0
28 40 0
14 20 0
20 28 0
14 20 0
20 28 0
25 35 0
0 0 0
45 45 0
0 0 0
0 0 0
0 0 0
0 0 0
64 64 0
45 45 0
0 0 0
64 64 0
0 0 0
64 64 0
0 0 0
0 0 0
14 20 0
0 0 0
14 20 0
45 45 0
64 64 0
0 0 0
0 0 0
0 0 0
45 45 0
0 0 0
0 0 0
79 79 0
45 45 0
45 45 0
0 0 0
64 64 0
45 45 0
0 0 0
64 64 0
0 0 0
45 45 0
0 0 0
64 64 0
45 45 0
0 0 0
45 45 0
0 0 0
45 45 0
0 0 0
45 45 0
0 0 0
45 45 0
0 0 0
0 0 0
0 0 0
0 0 0
45 45 0
0 0 0
64 64 0
45 45 0
64 64 0
45 45 0
45 45 0
45 45 0
64 64 0
0 0 0
45 45 0
0 0 0
0 0 0
0 0 0
0 0 0
0 0 0
0 0 0
0 0 0
0 0 0
0 0 0
0 0 0
0 0 0
0 0 0
0 0 0
0 0 0
0 0 0
0 0 0
45 45 0
0 0 0
0 0 0
0 0 0
0 0 0
0 0 0
0 0 0
0 0 0
0 0 0
0 0 0
0 0 0
0 0 0
0 0 0
0 0 0
45 45 0
0 0 0
0 0 0
0 0 0
0 0 0
0 0 0
0 0 0
0 0 0
0 0 0
45 45 0
0 0 0
0 0 0
0 0 0
0 0 0
0 0 0
0 0 0
0 0 0
0 0 0
0 0 0
0 0 0
0 0 0
0 0 0
0 0 0
0 0 0
0 0 0
0 0 0
0 0 0
0 0 0
0 0 0
0 0 0
0 0 0
0 0 0
0 0 0
0 0 0
0 0 0
0 0 0
0 0 0
0 0 0
0 0 0
0 0 0
0 0 0
0 0 0
0 0 0
0 0 0
0 0 0
0 0 0
0 0 0
0 0 0
0 0 0
0 0 0
0 0 0
0 0 0
0 0 0
0 0 0
0 0 0
0 0 0
0 0 0
0 0 0
0 0 0
0 0 0
45 45 0
0 0 0
0 0 0
0 0 0
0 0 0
0 0 0
0 0 0
45 45 0
0 0 0
0 0 0
0 0 0
0 0 0
0 0 0
0 0 0
0 0 0
45 45 0
0 0 0
0 0 0
0 0 0
0 0 0
0 0 0
0 0 0
45 45 0
0 0 0
45 45 0
0 0 0
0 0 0
0 0 0
0 0 0
0 0 0
0 0 0
0 0 0
0 0 0
45 45 0
64 64 0
0 0 0
0 0 0
0 0 0
45 45 0
0 0 0
0 0 0
0 0 0
0 0 0
0 0 0
0 0 0
0 0 0
45 45 0
0 0 0
45 45 0
0 0 0
0 0 0
45 45 0
0 0 0
0 0 0
0 0 0
45 45 0
0 0 0
0 0 0
0 0 0
0 0 0
45 45 0
0 0 0
0 0 0
64 64 0
0 0 0
45 45 0
45 45 0
0 0 0
64 64 0
45 45 0
0 0 0
0 0 0
45 45 0
0 0 0
45 45 0
64 64 0
45 45 0
45 45 0
0 0 0
45 45 0
80 81 0
45 45 0
64 64 0
45 45 0
64 64 0
0 0 0
64 64 0
45 45 0
79 79 0
0 0 0
45 45 0
0 0 0
0 0 0
64 64 0
45 45 0
45 45 0
0 0 0
45 45 0
45 45 0
64 64 0
45 45 0
45 45 0
79 79 0
45 45 0
45 45 0
66 67 0
45 45 0
45 45 0
0 0 0
45 45 0
45 45 0
45 45 0
0 0 0
45 45 0
91 91 0
64 64 0
0 0 0
45 45 0
79 79 0
0 0 0
45 45 0
45 45 0
45 45 0
112 112 0
45 45 0
48 50 0
25 35 0
14 20 0
20 30 0
25 36 0
20 28 0
0 0 0
14 20 0
14 20 0
28 40 0
14 20 0
0 0 0
0 0 0
20 28 0
20 28 0
20 28 0
14 20 0
20 28 0
28 40 0
0 0 0
20 28 0
20 28 0
20 28 0
14 20 0
4 8 0
15 22 0
20 28 0
20 28 0
20 28 0
20 28 0
14 20 0
25 35 0
25 35 0
20 28 0
14 20 0
0 0 0
0 0 0
25 35 0
0 0 0
20 30 0
14 20 0
28 40 0
28 40 0
28 40 0
14 20 0
15 22 0
28 40 0
14 20 0
32 45 0
25 35 0
20 28 0
20 28 0
20 28 0
25 35 0
0 0 0
14 20 0
14 20 0
0 0 0
32 45 0
20 28 0
14 20 0
25 35 0
28 40 0
20 28 0
20 28 0
25 35 0
25 35 0
0 0 0
14 20 0
14 20 0
0 0 0
25 35 0
14 20 0
20 28 0
14 20 0
14 20 0
0 0 0
14 20 0
20 28 0
20 28 0
14 20 0
14 20 0
20 28 0
14 20 0
5 11 0
0 0 0
20 28 0
14 20 0
0 0 0
20 28 0
20 28 0
14 20 0
14 20 0
14 20 0
20 28 0
14 20 0
0 0 0
35 50 0
20 28 0
20 28 0
0 0 0
14 20 0
14 20 0
25 35 0
14 20 0
15 22 0
20 28 0
25 35 0
25 35 0
20 28 0
0 0 0
32 45 0
20 28 0
25 35 0
20 28 0
25 35 0
14 20 0
0 0 0
25 35 0
25 35 0
20 28 0
28 40 0
20 28 0
14 20 0
102 102 0
64 64 0
45 45 0
45 45 0
64 64 0
0 0 0
45 45 0
0 0 0
64 64 0
0 0 0
0 0 0
79 79 0
0 0 0
0 0 0
64 64 0
45 45 0
45 45 0
45 45 0
45 45 0
0 0 0
45 45 0
45 45 0
45 45 0
0 0 0
45 45 0
0 0 0
0 0 0
0 0 0
45 45 0
0 0 0
45 45 0
45 45 0
64 64 0
0 0 0
0 0 0
0 0 0
45 45 0
45 45 0
45 45 0
45 45 0
0 0 0
64 64 0
0 0 0
0 0 0
0 0 0
0 0 0
45 45 0
79 79 0
45 45 0
45 45 0
0 0 0
64 64 0
45 45 0
45 45 0
45 45 0
0 0 0
0 0 0
0 0 0
0 0 0
0 0 0
45 45 0
0 0 0
45 45 0
0 0 0
0 0 0
45 45 0
0 0 0
45 45 0
45 45 0
45 45 0
45 45 0
45 45 0
0 0 0
45 45 0
0 0 0
0 0 0
0 0 0
0 0 0
0 0 0
0 0 0
45 45 0
0 0 0
0 0 0
0 0 0
45 45 0
0 0 0
0 0 0
0 0 0
0 0 0
0 0 0
0 0 0
0 0 0
0 0 0
0 0 0
0 0 0
0 0 0
0 0 0
0 0 0
0 0 0
45 45 0
0 0 0
0 0 0
45 45 0
0 0 0
0 0 0
0 0 0
0 0 0
0 0 0
45 45 0
0 0 0
0 0 0
0 0 0
0 0 0
45 45 0
0 0 0
0 0 0
0 0 0
0 0 0
0 0 0
0 0 0
0 0 0
0 0 0
0 0 0
0 0 0
0 0 0
0 0 0
0 0 0
0 0 0
0 0 0
0 0 0
0 0 0
0 0 0
0 0 0
0 0 0
0 0 0
0 0 0
0 0 0
0 0 0
0 0 0
0 0 0
0 0 0
0 0 0
0 0 0
0 0 0
0 0 0
0 0 0
0 0 0
0 0 0
0 0 0
0 0 0
0 0 0
0 0 0
0 0 0
0 0 0
0 0 0
0 0 0
0 0 0
0 0 0
0 0 0
0 0 0
0 0 0
45 45 0
0 0 0
0 0 0
0 0 0
0 0 0
45 45 0
45 45 0
0 0 0
0 0 0
0 0 0
0 0 0
0 0 0
0 0 0
0 0 0
45 45 0
0 0 0
45 45 0
0 0 0
0 0 0
0 0 0
0 0 0
0 0 0
0 0 0
0 0 0
0 0 0
0 0 0
0 0 0
0 0 0
0 0 0
0 0 0
0 0 0
45 45 0
0 0 0
0 0 0
0 0 0
45 45 0
0 0 0
0 0 0
45 45 0
0 0 0
0 0 0
0 0 0
0 0 0
0 0 0
45 45 0
0 0 0
0 0 0
0 0 0
0 0 0
45 45 0
0 0 0
45 45 0
0 0 0
64 64 0
0 0 0
0 0 0
45 45 0
0 0 0
0 0 0
0 0 0
45 45 0
45 45 0
0 0 0
45 45 0
0 0 0
45 45 0
0 0 0
45 45 0
0 0 0
45 45 0
79 79 0
0 0 0
45 45 0
0 0 0
45 45 0
45 45 0
0 0 0
0 0 0
45 45 0
64 64 0
79 79 0
91 91 0
64 64 0
79 79 0
0 0 0
91 91 0
45 45 0
79 79 0
0 0 0
45 45 0
45 45 0
0 0 0
0 0 0
45 45 0
0 0 0
45 45 0
64 64 0
64 64 0
45 45 0
64 64 0
0 0 0
0 0 0
79 79 0
45 45 0
64 64 0
0 0 0
0 0 0
45 45 0
45 45 0
45 45 0
45 45 0
0 0 0
45 45 0
45 45 0
45 45 0
45 45 0
20 28 0
14 20 0
14 20 0
1 3 0
14 20 0
4 8 0
14 20 0
14 20 0
14 20 0
28 40 0
0 0 0
25 35 0
25 35 0
14 20 0
20 28 0
20 28 0
32 45 0
28 40 0
14 20 0
20 28 0
14 20 0
14 20 0
0 0 0
14 20 0
25 35 0
14 20 0
20 28 0
14 20 0
15 22 0
15 22 0
20 30 0
0 0 0
0 0 0
20 28 0
14 20 0
20 28 0
15 22 0
14 20 0
14 20 0
14 20 0
14 20 0
28 40 0
14 20 0
20 30 0
32 45 0
14 20 0
35 50 0
25 35 0
14 20 0
0 0 0
20 28 0
14 20 0
0 0 0
4 8 0
0 0 0
14 20 0
20 28 0
0 0 0
20 28 0
0 0 0
14 20 0
0 0 0
20 28 0
20 28 0
15 22 0
14 20 0
14 20 0
14 20 0
20 28 0
14 20 0
28 40 0
4 8 0
14 20 0
0 0 0
0 0 0
25 35 0
28 40 0
14 20 0
20 28 0
14 20 0
20 28 0
25 35 0
0 0 0
25 35 0
20 28 0
14 20 0
14 20 0
14 20 0
25 35 0
25 35 0
28 40 0
25 35 0
20 28 0
25 35 0
14 20 0
25 35 0
0 0 0
14 20 0
0 0 0
20 28 0
28 40 0
14 20 0
14 20 0
20 28 0
20 30 0
28 40 0
20 28 0
20 28 0
20 28 0
25 35 0
25 35 0
14 20 0
25 35 0
14 20 0
0 0 0
20 28 0
20 28 0
14 20 0
25 36 0
14 20 0
0 0 0
20 28 0
20 28 0
64 64 0
79 79 0
64 64 0
0 0 0
45 45 0
0 0 0
0 0 0
0 0 0
102 102 0
45 45 0
0 0 0
64 64 0
45 45 0
0 0 0
64 64 0
64 64 0
45 45 0
0 0 0
45 45 0
64 64 0
64 64 0
45 45 0
0 0 0
64 64 0
45 45 0
64 64 0
0 0 0
45 45 0
0 0 0
64 64 0
0 0 0
0 0 0
0 0 0
0 0 0
0 0 0
91 91 0
64 64 0
0 0 0
45 45 0
79 79 0
79 79 0
0 0 0
45 45 0
45 45 0
0 0 0
0 0 0
0 0 0
64 64 0
45 45 0
79 79 0
0 0 0
64 64 0
0 0 0
45 45 0
0 0 0
0 0 0
45 45 0
0 0 0
0 0 0
45 45 0
45 45 0
0 0 0
45 45 0
0 0 0
45 45 0
0 0 0
0 0 0
0 0 0
0 0 0
0 0 0
0 0 0
0 0 0
0 0 0
64 64 0
0 0 0
0 0 0
45 45 0
0 0 0
0 0 0
0 0 0
0 0 0
0 0 0
45 45 0
0 0 0
0 0 0
0 0 0
0 0 0
45 45 0
0 0 0
0 0 0
45 45 0
0 0 0
0 0 0
45 45 0
0 0 0
45 45 0
0 0 0
0 0 0
0 0 0
45 45 0
0 0 0
0 0 0
0 0 0
45 45 0
0 0 0
0 0 0
45 45 0
0 0 0
0 0 0
0 0 0
0 0 0
0 0 0
0 0 0
0 0 0
0 0 0
0 0 0
0 0 0
0 0 0
0 0 0
0 0 0
0 0 0
0 0 0
0 0 0
0 0 0
45 45 0
45 45 0
0 0 0
0 0 0
0 0 0
0 0 0
0 0 0
0 0 0
0 0 0
0 0 0
0 0 0
0 0 0
0 0 0
0 0 0
0 0 0
0 0 0
0 0 0
0 0 0
0 0 0
0 0 0
0 0 0
0 0 0
0 0 0
0 0 0
0 0 0
0 0 0
0 0 0
0 0 0
0 0 0
45 45 0
0 0 0
0 0 0
0 0 0
0 0 0
0 0 0
0 0 0
0 0 0
0 0 0
0 0 0
0 0 0
0 0 0
0 0 0
0 0 0
0 0 0
0 0 0
0 0 0
0 0 0
0 0 0
0 0 0
0 0 0
0 0 0
0 0 0
0 0 0
0 0 0
0 0 0
64 64 0
64 64 0
0 0 0
0 0 0
0 0 0
0 0 0
0 0 0
0 0 0
0 0 0
0 0 0
79 79 0
0 0 0
45 45 0
0 0 0
45 45 0
0 0 0
45 45 0
0 0 0
0 0 0
0 0 0
0 0 0
0 0 0
0 0 0
0 0 0
45 45 0
0 0 0
64 64 0
45 45 0
45 45 0
0 0 0
45 45 0
45 45 0
45 45 0
45 45 0
0 0 0
0 0 0
48 50 0
0 0 0
45 45 0
45 45 0
0 0 0
0 0 0
0 0 0
0 0 0
45 45 0
64 64 0
64 64 0
0 0 0
45 45 0
0 0 0
45 45 0
0 0 0
0 0 0
64 64 0
0 0 0
0 0 0
64 64 0
45 45 0
0 0 0
0 0 0
0 0 0
45 45 0
64 64 0
91 91 0
0 0 0
0 0 0
45 45 0
45 45 0
0 0 0
64 64 0
64 64 0
64 64 0
0 0 0
64 64 0
45 45 0
0 0 0
66 67 0
0 0 0
0 0 0
45 45 0
45 45 0
45 45 0
64 64 0
45 45 0
64 64 0
91 91 0
80 81 0
64 64 0
64 64 0
45 45 0
0 0 0
45 45 0
45 45 0
0 0 0
64 64 0
64 64 0
0 0 0
91 91 0
28 40 0
14 20 0
14 20 0
20 28 0
25 35 0
28 40 0
20 28 0
20 28 0
14 20 0
14 20 0
20 28 0
14 20 0
25 35 0
20 28 0
14 20 0
20 28 0
0 0 0
25 35 0
20 28 0
25 35 0
20 28 0
28 40 0
14 20 0
20 28 0
14 20 0
20 28 0
20 28 0
0 0 0
14 20 0
20 28 0
20 28 0
20 28 0
14 20 0
14 20 0
25 35 0
14 20 0
0 0 0
25 35 0
20 28 0
25 35 0
20 28 0
14 20 0
20 28 0
20 28 0
25 35 0
14 20 0
20 28 0
0 0 0
20 28 0
25 36 0
20 30 0
20 28 0
25 35 0
25 35 0
0 0 0
14 20 0
25 35 0
0 0 0
14 20 0
15 22 0
25 35 0
14 20 0
14 20 0
20 28 0
32 45 0
0 0 0
20 28 0
28 40 0
20 28 0
25 35 0
0 0 0
14 20 0
0 0 0
20 28 0
14 20 0
0 0 0
32 45 0
25 35 0
28 40 0
14 20 0
0 0 0
25 35 0
15 22 0
20 28 0
14 20 0
0 0 0
15 22 0
14 20 0
20 28 0
14 20 0
20 28 0
25 35 0
20 28 0
25 35 0
25 36 0
14 20 0
20 28 0
25 35 0
20 28 0
0 0 0
14 20 0
20 28 0
35 50 0
25 35 0
14 20 0
20 28 0
20 28 0
0 0 0
25 35 0
14 20 0
20 28 0
25 35 0
14 20 0
0 0 0
14 20 0
28 40 0
20 28 0
0 0 0
20 28 0
25 35 0
20 28 0
57 67 0
0 0 0
79 79 0
45 45 0
14 20 0
64 64 0
79 79 0
0 0 0
91 91 0
91 91 0
64 64 0
45 45 0
45 45 0
0 0 0
64 64 0
45 45 0
79 79 0
0 0 0
0 0 0
45 45 0
45 45 0
64 64 0
0 0 0
0 0 0
0 0 0
0 0 0
80 81 0
0 0 0
64 64 0
79 79 0
79 79 0
45 45 0
64 64 0
45 45 0
45 45 0
48 50 0
0 0 0
64 64 0
45 45 0
45 45 0
45 45 0
0 0 0
45 45 0
45 45 0
45 45 0
0 0 0
0 0 0
0 0 0
0 0 0
0 0 0
0 0 0
0 0 0
0 0 0
0 0 0
0 0 0
45 45 0
45 45 0
45 45 0
64 64 0
45 45 0
0 0 0
45 45 0
0 0 0
45 45 0
0 0 0
0 0 0
45 45 0
45 45 0
0 0 0
0 0 0
0 0 0
0 0 0
0 0 0
0 0 0
64 64 0
0 0 0
0 0 0
0 0 0
0 0 0
0 0 0
0 0 0
0 0 0
0 0 0
45 45 0
0 0 0
64 64 0
0 0 0
64 64 0
0 0 0
45 45 0
0 0 0
0 0 0
0 0 0
45 45 0
0 0 0
0 0 0
45 45 0
0 0 0
0 0 0
0 0 0
0 0 0
0 0 0
0 0 0
0 0 0
0 0 0
0 0 0
0 0 0
0 0 0
45 45 0
0 0 0
0 0 0
0 0 0
0 0 0
45 45 0
0 0 0
0 0 0
0 0 0
0 0 0
0 0 0
0 0 0
0 0 0
0 0 0
0 0 0
45 45 0
0 0 0
45 45 0
0 0 0
0 0 0
0 0 0
0 0 0
0 0 0
0 0 0
0 0 0
0 0 0
0 0 0
0 0 0
0 0 0
45 45 0
0 0 0
0 0 0
0 0 0
0 0 0
0 0 0
0 0 0
0 0 0
0 0 0
0 0 0
0 0 0
0 0 0
0 0 0
0 0 0
0 0 0
0 0 0
0 0 0
0 0 0
0 0 0
0 0 0
0 0 0
45 45 0
0 0 0
0 0 0
0 0 0
0 0 0
0 0 0
0 0 0
0 0 0
0 0 0
45 45 0
45 45 0
0 0 0
0 0 0
0 0 0
0 0 0
0 0 0
0 0 0
0 0 0
45 45 0
0 0 0
64 64 0
0 0 0
0 0 0
0 0 0
0 0 0
45 45 0
45 45 0
0 0 0
0 0 0
0 0 0
0 0 0
0 0 0
0 0 0
45 45 0
45 45 0
64 64 0
0 0 0
0 0 0
0 0 0
0 0 0
0 0 0
0 0 0
45 45 0
45 45 0
0 0 0
64 64 0
0 0 0
0 0 0
64 64 0
45 45 0
0 0 0
0 0 0
0 0 0
45 45 0
0 0 0
45 45 0
0 0 0
79 79 0
45 45 0
45 45 0
45 45 0
0 0 0
0 0 0
0 0 0
45 45 0
79 79 0
64 64 0
0 0 0
45 45 0
64 64 0
0 0 0
45 45 0
0 0 0
45 45 0
79 79 0
0 0 0
64 64 0
0 0 0
45 45 0
45 45 0
45 45 0
45 45 0
45 45 0
64 64 0
66 67 0
112 112 0
79 79 0
64 64 0
45 45 0
91 91 0
45 45 0
91 91 0
45 45 0
45 45 0
64 64 0
45 45 0
0 0 0
45 45 0
0 0 0
79 79 0
64 64 0
64 64 0
64 64 0
64 64 0
0 0 0
0 0 0
45 45 0
45 45 0
79 79 0
64 64 0
45 45 0
64 64 0
64 64 0
45 45 0
64 64 0
0 0 0
79 79 0
45 45 0
0 0 0
64 64 0
0 0 0
64 64 0
14 20 0
14 20 0
20 28 0
14 20 0
15 22 0
0 0 0
20 28 0
25 35 0
0 0 0
14 20 0
20 28 0
20 28 0
20 28 0
14 20 0
20 28 0
25 35 0
28 40 0
0 0 0
0 0 0
14 20 0
0 0 0
14 20 0
25 35 0
20 28 0
14 20 0
20 28 0
4 8 0
14 20 0
29 42 0
0 0 0
14 20 0
14 20 0
14 20 0
20 28 0
15 22 0
14 20 0
14 20 0
14 20 0
14 20 0
25 35 0
20 28 0
15 22 0
38 54 0
20 28 0
32 45 0
14 20 0
25 35 0
0 0 0
20 28 0
14 20 0
14 20 0
4 8 0
0 0 0
0 0 0
20 28 0
0 0 0
20 28 0
0 0 0
20 28 0
0 0 0
14 20 0
20 28 0
15 22 0
14 20 0
14 20 0
14 20 0
14 20 0
14 20 0
28 40 0
4 8 0
14 20 0
0 0 0
0 0 0
25 35 0
25 35 0
20 28 0
20 28 0
14 20 0
20 28 0
20 28 0
25 35 0
25 35 0
0 0 0
14 20 0
14 20 0
14 20 0
25 35 0
14 20 0
20 28 0
28 40 0
14 20 0
25 35 0
20 28 0
14 20 0
0 0 0
20 28 0
0 0 0
0 0 0
28 40 0
20 28 0
0 0 0
28 40 0
20 30 0
28 40 0
14 20 0
0 0 0
25 35 0
20 28 0
25 35 0
25 36 0
28 40 0
0 0 0
14 20 0
25 35 0
14 20 0
14 20 0
25 35 0
14 20 0
14 20 0
14 20 0
14 20 0
66 67 0
79 79 0
79 79 0
45 45 0
45 45 0
0 0 0
45 45 0
45 45 0
79 79 0
45 45 0
45 45 0
79 79 0
45 45 0
64 64 0
45 45 0
45 45 0
0 0 0
0 0 0
45 45 0
64 64 0
45 45 0
45 45 0
64 64 0
45 45 0
79 79 0
0 0 0
45 45 0
45 45 0
45 45 0
45 45 0
64 64 0
45 45 0
45 45 0
45 45 0
91 91 0
45 45 0
79 79 0
45 45 0
102 102 0
64 64 0
45 45 0
0 0 0
47 49 0
45 45 0
0 0 0
0 0 0
64 64 0
64 64 0
64 64 0
45 45 0
64 64 0
45 45 0
45 45 0
45 45 0
0 0 0
0 0 0
45 45 0
0 0 0
45 45 0
45 45 0
45 45 0
48 50 0
45 45 0
0 0 0
45 45 0
45 45 0
45 45 0
0 0 0
0 0 0
0 0 0
64 64 0
0 0 0
0 0 0
45 45 0
0 0 0
45 45 0
0 0 0
0 0 0
0 0 0
0 0 0
0 0 0
0 0 0
47 49 0
0 0 0
0 0 0
0 0 0
0 0 0
45 45 0
0 0 0
64 64 0
45 45 0
0 0 0
45 45 0
0 0 0
0 0 0
0 0 0
45 45 0
0 0 0
45 45 0
0 0 0
0 0 0
0 0 0
45 45 0
0 0 0
0 0 0
45 45 0
45 45 0
0 0 0
0 0 0
0 0 0
0 0 0
0 0 0
0 0 0
0 0 0
0 0 0
0 0 0
45 45 0
0 0 0
0 0 0
0 0 0
0 0 0
0 0 0
0 0 0
0 0 0
45 45 0
45 45 0
0 0 0
0 0 0
0 0 0
0 0 0
0 0 0
45 45 0
0 0 0
0 0 0
0 0 0
0 0 0
0 0 0
0 0 0
0 0 0
0 0 0
0 0 0
0 0 0
0 0 0
0 0 0
0 0 0
0 0 0
0 0 0
45 45 0
0 0 0
0 0 0
0 0 0
45 45 0
0 0 0
0 0 0
0 0 0
0 0 0
0 0 0
0 0 0
0 0 0
45 45 0
0 0 0
0 0 0
45 45 0
0 0 0
0 0 0
0 0 0
0 0 0
0 0 0
0 0 0
0 0 0
45 45 0
0 0 0
0 0 0
0 0 0
0 0 0
0 0 0
0 0 0
45 45 0
45 45 0
45 45 0
0 0 0
45 45 0
0 0 0
0 0 0
0 0 0
0 0 0
64 64 0
79 79 0
45 45 0
45 45 0
45 45 0
45 45 0
0 0 0
45 45 0
0 0 0
45 45 0
0 0 0
0 0 0
0 0 0
0 0 0
0 0 0
0 0 0
64 64 0
91 91 0
0 0 0
64 64 0
0 0 0
45 45 0
64 64 0
79 79 0
0 0 0
64 64 0
0 0 0
0 0 0
0 0 0
0 0 0
45 45 0
45 45 0
45 45 0
45 45 0
0 0 0
45 45 0
0 0 0
79 79 0
45 45 0
0 0 0
64 64 0
0 0 0
64 64 0
0 0 0
64 64 0
45 45 0
79 79 0
64 64 0
0 0 0
64 64 0
0 0 0
0 0 0
91 91 0
45 45 0
79 79 0
79 79 0
0 0 0
45 45 0
45 45 0
0 0 0
0 0 0
79 79 0
64 64 0
0 0 0
45 45 0
79 79 0
45 45 0
64 64 0
48 50 0
45 45 0
45 45 0
64 64 0
64 64 0
45 45 0
64 64 0
79 79 0
45 45 0
91 91 0
64 64 0
102 102 0
0 0 0
45 45 0
0 0 0
64 64 0
0 0 0
91 91 0
45 45 0
64 64 0
79 79 0
92 93 0
64 64 0
79 79 0
0 0 0
48 50 0
20 28 0
20 28 0
14 20 0
15 22 0
14 20 0
14 20 0
14 20 0
14 20 0
25 35 0
25 35 0
14 20 0
20 28 0
14 20 0
14 20 0
20 28 0
25 35 0
14 20 0
20 28 0
20 28 0
20 28 0
14 20 0
20 28 0
0 0 0
0 0 0
14 20 0
14 20 0
20 28 0
0 0 0
14 20 0
0 0 0
25 35 0
14 20 0
0 0 0
25 35 0
25 35 0
20 28 0
14 20 0
28 40 0
0 0 0
25 35 0
25 35 0
14 20 0
20 28 0
0 0 0
25 35 0
15 22 0
20 30 0
25 35 0
25 35 0
28 40 0
0 0 0
20 28 0
20 28 0
0 0 0
14 20 0
15 22 0
28 40 0
20 28 0
0 0 0
28 40 0
20 28 0
20 28 0
20 28 0
25 35 0
28 40 0
14 20 0
0 0 0
14 20 0
0 0 0
20 28 0
14 20 0
20 28 0
20 28 0
32 45 0
25 35 0
0 0 0
14 20 0
14 20 0
15 23 0
25 35 0
0 0 0
14 20 0
14 20 0
20 28 0
14 20 0
0 0 0
28 40 0
25 35 0
20 28 0
29 41 0
28 40 0
14 20 0
25 35 0
20 28 0
0 0 0
0 0 0
14 20 0
35 50 0
28 40 0
14 20 0
14 20 0
20 28 0
0 0 0
20 28 0
20 28 0
14 20 0
20 28 0
0 0 0
0 0 0
14 20 0
25 35 0
14 20 0
14 20 0
20 28 0
20 28 0
20 28 0
20 28 0
0 0 0
20 28 0
0 0 0
91 91 0
91 91 0
45 45 0
92 93 0
102 102 0
79 79 0
64 64 0
45 45 0
64 64 0
45 45 0
45 45 0
79 79 0
91 91 0
64 64 0
64 64 0
45 45 0
79 79 0
0 0 0
0 0 0
0 0 0
0 0 0
45 45 0
45 45 0
64 64 0
45 45 0
64 64 0
45 45 0
66 67 0
45 45 0
14 20 0
91 91 0
45 45 0
48 50 0
45 45 0
64 64 0
0 0 0
45 45 0
64 64 0
79 79 0
45 45 0
0 0 0
0 0 0
0 0 0
0 0 0
0 0 0
0 0 0
0 0 0
64 64 0
0 0 0
0 0 0
0 0 0
0 0 0
0 0 0
64 64 0
64 64 0
0 0 0
0 0 0
45 45 0
45 45 0
0 0 0
0 0 0
45 45 0
79 79 0
64 64 0
0 0 0
0 0 0
0 0 0
0 0 0
45 45 0
79 79 0
0 0 0
0 0 0
79 79 0
0 0 0
0 0 0
0 0 0
0 0 0
0 0 0
45 45 0
45 45 0
64 64 0
0 0 0
64 64 0
45 45 0
45 45 0
0 0 0
0 0 0
64 64 0
45 45 0
45 45 0
0 0 0
64 64 0
45 45 0
0 0 0
0 0 0
45 45 0
0 0 0
0 0 0
0 0 0
0 0 0
0 0 0
0 0 0
0 0 0
64 64 0
0 0 0
0 0 0
0 0 0
0 0 0
45 45 0
0 0 0
0 0 0
0 0 0
45 45 0
0 0 0
0 0 0
0 0 0
45 45 0
0 0 0
45 45 0
0 0 0
45 45 0
0 0 0
0 0 0
45 45 0
0 0 0
45 45 0
0 0 0
0 0 0
0 0 0
0 0 0
0 0 0
0 0 0
45 45 0
0 0 0
0 0 0
45 45 0
45 45 0
0 0 0
0 0 0
0 0 0
0 0 0
45 45 0
45 45 0
0 0 0
0 0 0
0 0 0
0 0 0
0 0 0
0 0 0
0 0 0
0 0 0
0 0 0
64 64 0
0 0 0
0 0 0
0 0 0
0 0 0
45 45 0
0 0 0
0 0 0
0 0 0
0 0 0
0 0 0
0 0 0
45 45 0
45 45 0
0 0 0
45 45 0
0 0 0
0 0 0
0 0 0
0 0 0
0 0 0
0 0 0
0 0 0
45 45 0
0 0 0
64 64 0
45 45 0
0 0 0
0 0 0
0 0 0
45 45 0
45 45 0
0 0 0
0 0 0
45 45 0
0 0 0
0 0 0
0 0 0
45 45 0
45 45 0
64 64 0
45 45 0
0 0 0
0 0 0
0 0 0
45 45 0
0 0 0
45 45 0
45 45 0
45 45 0
64 64 0
0 0 0
0 0 0
79 79 0
45 45 0
0 0 0
0 0 0
45 45 0
0 0 0
0 0 0
45 45 0
0 0 0
64 64 0
64 64 0
64 64 0
45 45 0
0 0 0
45 45 0
0 0 0
0 0 0
79 79 0
92 93 0
0 0 0
45 45 0
64 64 0
0 0 0
45 45 0
0 0 0
64 64 0
45 45 0
45 45 0
45 45 0
0 0 0
79 79 0
0 0 0
45 45 0
0 0 0
64 64 0
64 64 0
79 79 0
64 64 0
79 79 0
45 45 0
45 45 0
91 91 0
45 45 0
80 81 0
45 45 0
64 64 0
0 0 0
64 64 0
45 45 0
45 45 0
79 79 0
102 102 0
0 0 0
45 45 0
48 50 0
45 45 0
0 0 0
102 102 0
45 45 0
45 45 0
64 64 0
91 91 0
45 45 0
64 64 0
64 64 0
0 0 0
45 45 0
66 67 0
79 79 0
64 64 0
91 91 0
91 91 0
64 64 0
45 45 0
64 64 0
14 20 0
20 28 0
20 28 0
15 22 0
0 0 0
20 28 0
20 28 0
14 20 0
14 20 0
20 28 0
28 40 0
25 35 0
14 20 0
20 28 0
20 28 0
15 22 0
0 0 0
0 0 0
14 20 0
0 0 0
20 28 0
25 35 0
14 20 0
25 35 0
20 28 0
14 20 0
20 30 0
20 30 0
14 20 0
0 0 0
20 28 0
14 20 0
0 0 0
15 22 0
14 20 0
14 20 0
14 20 0
20 28 0
35 50 0
14 20 0
20 30 0
32 45 0
28 40 0
0 0 0
14 20 0
14 20 0
0 0 0
25 35 0
15 22 0
0 0 0
14 20 0
0 0 0
14 20 0
0 0 0
14 20 0
14 20 0
20 28 0
14 20 0
14 20 0
14 20 0
20 30 0
14 20 0
14 20 0
20 28 0
25 35 0
14 20 0
20 28 0
14 20 0
14 20 0
0 0 0
0 0 0
20 28 0
20 28 0
25 35 0
20 28 0
14 20 0
20 28 0
14 20 0
14 20 0
14 20 0
0 0 0
0 0 0
0 0 0
14 20 0
28 40 0
20 28 0
20 28 0
25 35 0
25 35 0
28 40 0
20 28 0
14 20 0
15 22 0
25 35 0
0 0 0
14 20 0
28 40 0
20 28 0
14 20 0
25 35 0
20 30 0
32 45 0
14 20 0
0 0 0
25 35 0
28 40 0
14 20 0
25 35 0
20 28 0
0 0 0
20 28 0
20 28 0
0 0 0
25 35 0
14 20 0
25 35 0
14 20 0
25 35 0
14 20 0
91 91 0
112 112 0
64 64 0
45 45 0
45 45 0
45 45 0
79 79 0
91 91 0
45 45 0
45 45 0
66 67 0
64 64 0
0 0 0
64 64 0
45 45 0
91 91 0
45 45 0
12 18 0
79 79 0
79 79 0
45 45 0
0 0 0
45 45 0
79 79 0
64 64 0
45 45 0
79 79 0
45 45 0
45 45 0
79 79 0
0 0 0
64 64 0
0 0 0
79 79 0
64 64 0
79 79 0
0 0 0
112 112 0
79 79 0
64 64 0
0 0 0
0 0 0
64 64 0
64 64 0
45 45 0
45 45 0
64 64 0
45 45 0
79 79 0
64 64 0
64 64 0
0 0 0
64 64 0
0 0 0
45 45 0
45 45 0
0 0 0
45 45 0
45 45 0
79 79 0
45 45 0
45 45 0
45 45 0
64 64 0
0 0 0
64 64 0
0 0 0
0 0 0
0 0 0
0 0 0
64 64 0
0 0 0
45 45 0
0 0 0
0 0 0
0 0 0
0 0 0
45 45 0
45 45 0
45 45 0
0 0 0
45 45 0
45 45 0
0 0 0
0 0 0
0 0 0
45 45 0
0 0 0
64 64 0
45 45 0
45 45 0
45 45 0
0 0 0
0 0 0
0 0 0
45 45 0
0 0 0
0 0 0
0 0 0
0 0 0
0 0 0
45 45 0
64 64 0
45 45 0
0 0 0
64 64 0
45 45 0
0 0 0
0 0 0
0 0 0
0 0 0
0 0 0
0 0 0
0 0 0
0 0 0
45 45 0
45 45 0
0 0 0
0 0 0
0 0 0
0 0 0
0 0 0
0 0 0
64 64 0
45 45 0
0 0 0
0 0 0
0 0 0
0 0 0
0 0 0
45 45 0
45 45 0
0 0 0
45 45 0
45 45 0
0 0 0
0 0 0
0 0 0
0 0 0
45 45 0
0 0 0
0 0 0
45 45 0
0 0 0
0 0 0
0 0 0
45 45 0
0 0 0
0 0 0
0 0 0
0 0 0
64 64 0
0 0 0
0 0 0
0 0 0
0 0 0
0 0 0
0 0 0
45 45 0
0 0 0
0 0 0
45 45 0
0 0 0
45 45 0
0 0 0
0 0 0
0 0 0
0 0 0
45 45 0
0 0 0
64 64 0
47 49 0
64 64 0
0 0 0
0 0 0
0 0 0
0 0 0
0 0 0
48 50 0
0 0 0
45 45 0
0 0 0
45 45 0
0 0 0
45 45 0
64 64 0
0 0 0
79 79 0
0 0 0
64 64 0
64 64 0
0 0 0
45 45 0
45 45 0
45 45 0
0 0 0
0 0 0
0 0 0
0 0 0
45 45 0
45 45 0
48 50 0
79 79 0
45 45 0
64 64 0
45 45 0
0 0 0
79 79 0
45 45 0
64 64 0
45 45 0
45 45 0
45 45 0
0 0 0
0 0 0
45 45 0
45 45 0
45 45 0
45 45 0
45 45 0
0 0 0
45 45 0
66 67 0
45 45 0
64 64 0
79 79 0
0 0 0
79 79 0
0 0 0
64 64 0
45 45 0
91 91 0
45 45 0
0 0 0
45 45 0
45 45 0
0 0 0
79 79 0
45 45 0
64 64 0
79 79 0
0 0 0
45 45 0
0 0 0
0 0 0
79 79 0
79 79 0
45 45 0
45 45 0
64 64 0
79 79 0
45 45 0
91 91 0
64 64 0
64 64 0
64 64 0
79 79 0
64 64 0
64 64 0
64 64 0
79 79 0
64 64 0
91 91 0
64 64 0
112 112 0
0 0 0
64 64 0
0 0 0
64 64 0
79 79 0
102 102 0
64 64 0
91 91 0
64 64 0
102 102 0
64 64 0
79 79 0
0 0 0
91 91 0
92 93 0
103 104 0
0 0 0
14 20 0
0 0 0
20 28 0
14 20 0
28 40 0
14 20 0
20 28 0
28 40 0
14 20 0
25 35 0
0 0 0
20 28 0
14 20 0
25 35 0
14 20 0
20 28 0
14 20 0
25 35 0
0 0 0
28 40 0
0 0 0
14 20 0
14 20 0
20 28 0
14 20 0
0 0 0
14 20 0
0 0 0
25 35 0
14 20 0
0 0 0
28 40 0
14 20 0
25 35 0
0 0 0
20 30 0
0 0 0
28 40 0
28 40 0
0 0 0
14 20 0
0 0 0
28 40 0
4 8 0
20 30 0
20 28 0
14 20 0
25 35 0
0 0 0
20 28 0
20 28 0
0 0 0
15 22 0
20 28 0
25 35 0
20 28 0
20 28 0
28 40 0
20 28 0
20 28 0
20 28 0
20 28 0
32 45 0
0 0 0
14 20 0
0 0 0
14 20 0
20 28 0
0 0 0
25 35 0
25 35 0
25 35 0
25 35 0
14 20 0
14 20 0
25 36 0
21 31 0
0 0 0
20 28 0
14 20 0
25 35 0
25 35 0
14 20 0
25 35 0
20 28 0
20 28 0
25 35 0
32 46 0
20 28 0
14 20 0
25 35 0
14 20 0
20 28 0
20 28 0
28 40 0
35 50 0
20 28 0
0 0 0
20 28 0
20 28 0
20 28 0
14 20 0
14 20 0
20 28 0
0 0 0
0 0 0
14 20 0
25 35 0
0 0 0
14 20 0
20 28 0
20 28 0
20 28 0
20 28 0
0 1 0
14 20 0
20 28 0
66 67 0
79 79 0
91 91 0
102 102 0
92 93 0
79 79 0
0 0 0
64 64 0
45 45 0
0 0 0
79 79 0
79 79 0
64 64 0
64 64 0
64 64 0
102 102 0
0 0 0
0 0 0
45 45 0
0 0 0
102 102 0
45 45 0
79 79 0
91 91 0
79 79 0
45 45 0
64 64 0
79 79 0
45 45 0
121 121 0
64 64 0
79 79 0
45 45 0
64 64 0
64 64 0
64 64 0
79 79 0
102 102 0
79 79 0
45 45 0
0 0 0
45 45 0
0 0 0
45 45 0
45 45 0
64 64 0
45 45 0
45 45 0
0 0 0
64 64 0
64 64 0
64 64 0
79 79 0
45 45 0
45 45 0
0 0 0
45 45 0
0 0 0
0 0 0
0 0 0
45 45 0
91 91 0
45 45 0
45 45 0
0 0 0
0 0 0
64 64 0
45 45 0
79 79 0
0 0 0
0 0 0
102 102 0
0 0 0
0 0 0
0 0 0
0 0 0
45 45 0
45 45 0
45 45 0
64 64 0
0 0 0
0 0 0
64 64 0
64 64 0
0 0 0
0 0 0
45 45 0
0 0 0
45 45 0
0 0 0
79 79 0
64 64 0
0 0 0
45 45 0
64 64 0
0 0 0
0 0 0
0 0 0
0 0 0
0 0 0
45 45 0
0 0 0
45 45 0
0 0 0
0 0 0
0 0 0
45 45 0
0 0 0
0 0 0
45 45 0
45 45 0
0 0 0
0 0 0
0 0 0
0 0 0
45 45 0
0 0 0
45 45 0
45 45 0
0 0 0
0 0 0
0 0 0
64 64 0
45 45 0
0 0 0
45 45 0
45 45 0
64 64 0
0 0 0
45 45 0
0 0 0
45 45 0
0 0 0
0 0 0
45 45 0
45 45 0
0 0 0
0 0 0
0 0 0
0 0 0
0 0 0
0 0 0
0 0 0
45 45 0
45 45 0
0 0 0
0 0 0
0 0 0
0 0 0
0 0 0
0 0 0
45 45 0
0 0 0
0 0 0
79 79 0
0 0 0
45 45 0
0 0 0
0 0 0
64 64 0
0 0 0
0 0 0
45 45 0
0 0 0
0 0 0
0 0 0
45 45 0
79 79 0
0 0 0
45 45 0
0 0 0
0 0 0
0 0 0
64 64 0
0 0 0
0 0 0
0 0 0
45 45 0
0 0 0
45 45 0
45 45 0
0 0 0
0 0 0
0 0 0
45 45 0
45 45 0
0 0 0
0 0 0
0 0 0
0 0 0
0 0 0
0 0 0
45 45 0
45 45 0
64 64 0
64 64 0
0 0 0
0 0 0
0 0 0
45 45 0
0 0 0
48 50 0
0 0 0
45 45 0
64 64 0
0 0 0
0 0 0
79 79 0
64 64 0
0 0 0
45 45 0
64 64 0
0 0 0
0 0 0
45 45 0
0 0 0
64 64 0
64 64 0
64 64 0
0 0 0
0 0 0
48 50 0
0 0 0
45 45 0
64 64 0
91 91 0
0 0 0
45 45 0
79 79 0
0 0 0
45 45 0
64 64 0
45 45 0
64 64 0
45 45 0
45 45 0
0 0 0
91 91 0
0 0 0
91 91 0
45 45 0
64 64 0
79 79 0
79 79 0
45 45 0
79 79 0
79 79 0
91 91 0
79 79 0
102 102 0
64 64 0
102 102 0
45 45 0
64 64 0
79 79 0
45 45 0
45 45 0
112 112 0
91 91 0
45 45 0
64 64 0
64 64 0
45 45 0
64 64 0
102 102 0
45 45 0
64 64 0
79 79 0
91 91 0
45 45 0
91 91 0
102 102 0
45 45 0
45 45 0
102 102 0
91 91 0
121 121 0
79 79 0
64 64 0
0 0 0
64 64 0
79 79 0
64 64 0
14 20 0
20 28 0
14 20 0
14 20 0
25 35 0
28 40 0
14 20 0
14 20 0
32 45 0
25 35 0
25 35 0
25 35 0
20 28 0
20 30 0
15 22 0
0 0 0
0 0 0
20 28 0
0 0 0
28 40 0
20 28 0
14 20 0
28 40 0
14 20 0
0 0 0
25 36 0
14 20 0
0 0 0
0 0 0
20 28 0
20 28 0
4 8 0
20 28 0
0 0 0
14 20 0
14 20 0
32 45 0
25 35 0
15 22 0
35 50 0
25 35 0
28 40 0
0 0 0
20 30 0
0 0 0
20 28 0
20 28 0
14 20 0
20 28 0
15 23 0
14 20 0
0 0 0
0 0 0
14 20 0
14 20 0
14 20 0
14 20 0
14 20 0
20 28 0
15 22 0
20 28 0
0 0 0
20 28 0
14 20 0
20 28 0
20 28 0
14 20 0
14 20 0
0 0 0
14 20 0
20 28 0
25 35 0
0 0 0
14 20 0
25 35 0
14 20 0
0 0 0
14 20 0
14 20 0
14 20 0
25 35 0
14 20 0
25 35 0
25 35 0
20 30 0
25 35 0
20 28 0
28 40 0
20 28 0
14 20 0
4 8 0
25 35 0
0 0 0
14 20 0
25 35 0
20 28 0
0 0 0
35 50 0
20 28 0
32 45 0
20 28 0
0 0 0
28 40 0
25 35 0
20 28 0
20 29 0
20 28 0
0 0 0
20 28 0
14 20 0
0 0 0
25 35 0
28 40 0
20 30 0
25 35 0
25 35 0
45 45 0
64 64 0
121 121 0
0 0 0
79 79 0
79 79 0
64 64 0
91 91 0
112 112 0
0 0 0
79 79 0
91 91 0
45 45 0
45 45 0
45 45 0
64 64 0
64 64 0
79 79 0
66 67 0
102 102 0
45 45 0
45 45 0
0 0 0
45 45 0
91 91 0
64 64 0
79 79 0
79 79 0
64 64 0
45 45 0
64 64 0
45 45 0
64 64 0
45 45 0
91 91 0
64 64 0
79 79 0
64 64 0
79 79 0
45 45 0
64 64 0
45 45 0
45 45 0
64 64 0
64 64 0
0 0 0
64 64 0
79 79 0
91 91 0
45 45 0
64 64 0
64 64 0
45 45 0
45 45 0
91 91 0
79 79 0
0 0 0
45 45 0
64 64 0
64 64 0
91 91 0
64 64 0
64 64 0
64 64 0
0 0 0
79 79 0
0 0 0
64 64 0
0 0 0
0 0 0
79 79 0
0 0 0
45 45 0
0 0 0
0 0 0
0 0 0
0 0 0
45 45 0
45 45 0
64 64 0
45 45 0
45 45 0
64 64 0
0 0 0
0 0 0
45 45 0
64 64 0
0 0 0
45 45 0
64 64 0
0 0 0
45 45 0
0 0 0
45 45 0
0 0 0
45 45 0
0 0 0
0 0 0
0 0 0
0 0 0
0 0 0
64 64 0
64 64 0
64 64 0
0 0 0
45 45 0
79 79 0
0 0 0
0 0 0
0 0 0
45 45 0
0 0 0
0 0 0
0 0 0
0 0 0
45 45 0
45 45 0
0 0 0
0 0 0
0 0 0
0 0 0
0 0 0
0 0 0
0 0 0
79 79 0
0 0 0
0 0 0
0 0 0
0 0 0
0 0 0
45 45 0
0 0 0
0 0 0
45 45 0
0 0 0
45 45 0
0 0 0
0 0 0
0 0 0
45 45 0
0 0 0
0 0 0
45 45 0
0 0 0
0 0 0
0 0 0
0 0 0
45 45 0
0 0 0
0 0 0
0 0 0
64 64 0
0 0 0
45 45 0
45 45 0
0 0 0
0 0 0
0 0 0
45 45 0
0 0 0
45 45 0
45 45 0
0 0 0
45 45 0
0 0 0
0 0 0
0 0 0
0 0 0
79 79 0
0 0 0
64 64 0
47 49 0
45 45 0
45 45 0
0 0 0
0 0 0
0 0 0
0 0 0
48 50 0
0 0 0
45 45 0
0 0 0
45 45 0
0 0 0
45 45 0
64 64 0
0 0 0
64 64 0
0 0 0
64 64 0
45 45 0
0 0 0
0 0 0
45 45 0
45 45 0
0 0 0
0 0 0
45 45 0
45 45 0
45 45 0
64 64 0
14 20 0
91 91 0
64 64 0
91 91 0
45 45 0
0 0 0
79 79 0
64 64 0
64 64 0
0 0 0
45 45 0
64 64 0
0 0 0
0 0 0
64 64 0
79 79 0
45 45 0
64 64 0
45 45 0
0 0 0
45 45 0
45 45 0
48 50 0
64 64 0
79 79 0
64 64 0
79 79 0
45 45 0
45 45 0
64 64 0
91 91 0
0 0 0
45 45 0
45 45 0
64 64 0
45 45 0
91 91 0
45 45 0
79 79 0
64 64 0
0 0 0
45 45 0
0 0 0
0 0 0
91 91 0
64 64 0
79 79 0
64 64 0
79 79 0
79 79 0
91 91 0
64 64 0
91 91 0
91 91 0
64 64 0
45 45 0
45 45 0
112 112 0
45 45 0
64 64 0
64 64 0
91 91 0
64 64 0
112 112 0
64 64 0
102 102 0
45 45 0
79 79 0
79 79 0
102 102 0
64 64 0
79 79 0
79 79 0
112 112 0
79 79 0
102 102 0
64 64 0
112 112 0
102 102 0
92 93 0
102 102 0
91 91 0
91 91 0
0 0 0
0 0 0
29 41 0
28 40 0
14 20 0
20 28 0
25 35 0
20 28 0
25 35 0
20 30 0
14 20 0
0 0 0
32 45 0
25 35 0
0 0 0
20 28 0
14 20 0
14 20 0
25 35 0
0 0 0
14 20 0
0 0 0
25 36 0
14 20 0
20 28 0
0 0 0
20 28 0
14 20 0
0 0 0
20 28 0
20 28 0
20 30 0
0 0 0
14 20 0
0 0 0
28 40 0
32 45 0
14 20 0
0 0 0
0 0 0
20 28 0
25 36 0
20 28 0
14 20 0
14 20 0
20 28 0
0 0 0
20 28 0
20 28 0
0 0 0
14 20 0
15 22 0
28 40 0
20 28 0
20 28 0
28 40 0
25 35 0
14 20 0
25 35 0
28 40 0
28 40 0
14 20 0
14 20 0
14 20 0
20 28 0
14 20 0
14 20 0
14 20 0
20 28 0
28 40 0
20 28 0
14 20 0
14 20 0
25 36 0
15 22 0
14 20 0
20 28 0
14 20 0
25 35 0
25 35 0
14 20 0
25 35 0
28 40 0
25 35 0
20 30 0
28 40 0
20 28 0
14 20 0
25 35 0
0 0 0
20 28 0
20 28 0
32 45 0
28 40 0
14 20 0
0 0 0
25 35 0
20 28 0
14 20 0
20 28 0
14 20 0
14 20 0
0 0 0
0 0 0
20 28 0
20 28 0
25 35 0
0 0 0
14 20 0
25 35 0
28 40 0
20 28 0
14 20 0
0 0 0
20 30 0
54 61 0
92 93 0
91 91 0
103 104 0
79 79 0
79 79 0
79 79 0
64 64 0
45 45 0
79 79 0
91 91 0
91 91 0
91 91 0
64 64 0
102 102 0
45 45 0
0 0 0
45 45 0
45 45 0
102 102 0
45 45 0
91 91 0
102 102 0
91 91 0
45 45 0
102 102 0
91 91 0
64 64 0
129 129 0
45 45 0
79 79 0
64 64 0
79 79 0
64 64 0
91 91 0
45 45 0
112 112 0
79 79 0
45 45 0
45 45 0
45 45 0
45 45 0
64 64 0
91 91 0
64 64 0
64 64 0
45 45 0
0 0 0
64 64 0
64 64 0
102 102 0
64 64 0
102 102 0
0 0 0
0 0 0
45 45 0
0 0 0
0 0 0
0 0 0
64 64 0
80 81 0
64 64 0
0 0 0
0 0 0
0 0 0
91 91 0
45 45 0
64 64 0
45 45 0
0 0 0
102 102 0
45 45 0
0 0 0
0 0 0
45 45 0
0 0 0
64 64 0
79 79 0
45 45 0
0 0 0
45 45 0
64 64 0
64 64 0
0 0 0
0 0 0
45 45 0
45 45 0
0 0 0
91 91 0
45 45 0
64 64 0
0 0 0
45 45 0
91 91 0
0 0 0
0 0 0
45 45 0
0 0 0
0 0 0
45 45 0
0 0 0
45 45 0
91 91 0
0 0 0
0 0 0
0 0 0
14 20 0
45 45 0
45 45 0
45 45 0
0 0 0
0 0 0
64 64 0
45 45 0
0 0 0
79 79 0
0 0 0
0 0 0
0 0 0
0 0 0
64 64 0
0 0 0
45 45 0
0 0 0
64 64 0
0 0 0
64 64 0
0 0 0
45 45 0
0 0 0
0 0 0
0 0 0
45 45 0
45 45 0
0 0 0
0 0 0
45 45 0
0 0 0
0 0 0
0 0 0
45 45 0
0 0 0
45 45 0
0 0 0
0 0 0
45 45 0
45 45 0
0 0 0
0 0 0
0 0 0
0 0 0
0 0 0
0 0 0
45 45 0
45 45 0
0 0 0
64 64 0
0 0 0
45 45 0
0 0 0
0 0 0
79 79 0
0 0 0
0 0 0
45 45 0
0 0 0
45 45 0
0 0 0
45 45 0
79 79 0
45 45 0
64 64 0
0 0 0
45 45 0
0 0 0
79 79 0
0 0 0
45 45 0
45 45 0
45 45 0
0 0 0
45 45 0
64 64 0
0 0 0
0 0 0
0 0 0
0 0 0
45 45 0
0 0 0
0 0 0
64 64 0
0 0 0
79 79 0
64 64 0
45 45 0
45 45 0
45 45 0
64 64 0
0 0 0
45 45 0
45 45 0
45 45 0
45 45 0
45 45 0
45 45 0
45 45 0
64 64 0
0 0 0
0 0 0
91 91 0
79 79 0
0 0 0
0 0 0
79 79 0
0 0 0
0 0 0
45 45 0
0 0 0
45 45 0
79 79 0
45 45 0
0 0 0
14 20 0
64 64 0
45 45 0
64 64 0
67 70 0
91 91 0
45 45 0
64 64 0
79 79 0
0 0 0
92 93 0
64 64 0
45 45 0
64 64 0
64 64 0
0 0 0
0 0 0
102 102 0
64 64 0
79 79 0
0 0 0
91 91 0
64 64 0
79 79 0
0 0 0
79 79 0
91 91 0
91 91 0
91 91 0
102 102 0
102 102 0
91 91 0
45 45 0
80 81 0
80 81 0
91 91 0
45 45 0
129 129 0
45 45 0
45 45 0
102 102 0
0 0 0
64 64 0
91 91 0
102 102 0
64 64 0
91 91 0
79 79 0
112 112 0
64 64 0
102 102 0
91 91 0
64 64 0
45 45 0
112 112 0
102 102 0
102 102 0
91 91 0
91 91 0
45 45 0
64 64 0
47 49 0
79 79 0
48 50 0
20 29 0
20 30 0
14 20 0
20 28 0
32 45 0
20 28 0
14 20 0
28 40 0
20 28 0
25 35 0
20 28 0
20 28 0
14 20 0
15 22 0
0 0 0
14 20 0
14 20 0
0 0 0
32 45 0
20 28 0
20 28 0
25 35 0
14 20 0
0 0 0
25 36 0
14 20 0
0 0 0
20 28 0
20 28 0
14 20 0
4 8 0
25 35 0
0 0 0
20 28 0
25 35 0
32 45 0
14 20 0
20 30 0
20 28 0
28 40 0
25 35 0
0 0 0
20 30 0
0 0 0
0 0 0
20 28 0
0 0 0
20 28 0
15 22 0
0 0 0
14 20 0
0 0 0
0 0 0
20 28 0
14 20 0
20 28 0
0 0 0
20 30 0
20 28 0
20 28 0
14 20 0
14 20 0
14 20 0
28 40 0
14 20 0
0 0 0
0 0 0
0 0 0
20 28 0
25 35 0
0 0 0
14 20 0
20 28 0
20 28 0
0 0 0
25 35 0
14 20 0
0 0 0
25 35 0
25 35 0
20 28 0
28 40 0
14 20 0
25 35 0
0 0 0
28 40 0
20 28 0
14 20 0
4 8 0
20 28 0
14 20 0
14 20 0
20 28 0
25 35 0
20 28 0
32 45 0
20 28 0
25 35 0
14 20 0
0 0 0
25 35 0
20 28 0
14 20 0
20 29 0
14 20 0
14 20 0
14 20 0
20 28 0
14 20 0
20 28 0
32 45 0
25 36 0
20 28 0
20 28 0
80 81 0
91 91 0
112 112 0
45 45 0
91 91 0
79 79 0
79 79 0
91 91 0
91 91 0
64 64 0
102 102 0
45 45 0
45 45 0
64 64 0
45 45 0
112 112 0
45 45 0
66 67 0
112 112 0
64 64 0
0 0 0
79 79 0
45 45 0
102 102 0
79 79 0
102 102 0
91 91 0
66 67 0
64 64 0
102 102 0
45 45 0
64 64 0
64 64 0
91 91 0
79 79 0
102 102 0
45 45 0
91 91 0
79 79 0
45 45 0
45 45 0
45 45 0
45 45 0
64 64 0
64 64 0
64 64 0
79 79 0
79 79 0
45 45 0
64 64 0
79 79 0
0 0 0
64 64 0
80 81 0
91 91 0
45 45 0
64 64 0
64 64 0
45 45 0
102 102 0
79 79 0
91 91 0
79 79 0
0 0 0
79 79 0
0 0 0
64 64 0
0 0 0
0 0 0
91 91 0
0 0 0
45 45 0
64 64 0
0 0 0
0 0 0
0 0 0
64 64 0
64 64 0
79 79 0
45 45 0
64 64 0
79 79 0
45 45 0
0 0 0
45 45 0
45 45 0
45 45 0
64 64 0
64 64 0
0 0 0
45 45 0
64 64 0
64 64 0
0 0 0
0 0 0
45 45 0
64 64 0
0 0 0
45 45 0
45 45 0
64 64 0
64 64 0
64 64 0
0 0 0
0 0 0
79 79 0
0 0 0
0 0 0
0 0 0
0 0 0
45 45 0
0 0 0
79 79 0
0 0 0
0 0 0
64 64 0
0 0 0
0 0 0
0 0 0
45 45 0
0 0 0
0 0 0
45 45 0
64 64 0
45 45 0
0 0 0
0 0 0
0 0 0
45 45 0
0 0 0
0 0 0
0 0 0
0 0 0
0 0 0
45 45 0
0 0 0
0 0 0
0 0 0
45 45 0
0 0 0
0 0 0
0 0 0
45 45 0
0 0 0
45 45 0
0 0 0
45 45 0
0 0 0
45 45 0
0 0 0
45 45 0
0 0 0
45 45 0
45 45 0
0 0 0
0 0 0
45 45 0
45 45 0
0 0 0
45 45 0
45 45 0
45 45 0
0 0 0
45 45 0
0 0 0
45 45 0
0 0 0
79 79 0
0 0 0
64 64 0
45 45 0
0 0 0
45 45 0
0 0 0
45 45 0
0 0 0
0 0 0
48 50 0
0 0 0
45 45 0
0 0 0
0 0 0
0 0 0
64 64 0
64 64 0
0 0 0
64 64 0
0 0 0
64 64 0
64 64 0
45 45 0
45 45 0
64 64 0
0 0 0
0 0 0
0 0 0
79 79 0
64 64 0
45 45 0
64 64 0
0 0 0
79 79 0
64 64 0
91 91 0
45 45 0
0 0 0
79 79 0
64 64 0
45 45 0
45 45 0
45 45 0
91 91 0
0 0 0
0 0 0
91 91 0
79 79 0
45 45 0
79 79 0
45 45 0
45 45 0
91 91 0
45 45 0
66 67 0
79 79 0
79 79 0
64 64 0
91 91 0
0 0 0
64 64 0
64 64 0
91 91 0
64 64 0
45 45 0
45 45 0
64 64 0
64 64 0
91 91 0
45 45 0
91 91 0
45 45 0
45 45 0
64 64 0
45 45 0
45 45 0
102 102 0
64 64 0
79 79 0
79 79 0
79 79 0
64 64 0
102 102 0
91 91 0
91 91 0
91 91 0
79 79 0
45 45 0
64 64 0
102 102 0
45 45 0
64 64 0
64 64 0
79 79 0
64 64 0
102 102 0
64 64 0
91 91 0
45 45 0
64 64 0
79 79 0
102 102 0
0 0 0
91 91 0
64 64 0
137 137 0
102 102 0
91 91 0
91 91 0
102 102 0
102 102 0
102 102 0
102 102 0
79 79 0
92 93 0
79 79 0
64 64 0
79 79 0
25 35 0
14 20 0
14 20 0
32 46 0
0 0 0
20 28 0
15 22 0
25 35 0
0 0 0
25 35 0
20 28 0
14 20 0
14 20 0
20 28 0
20 28 0
25 35 0
0 0 0
25 35 0
0 0 0
25 35 0
25 35 0
0 0 0
14 20 0
14 20 0
20 28 0
20 30 0
20 28 0
25 35 0
14 20 0
15 22 0
14 20 0
15 22 0
28 40 0
25 35 0
14 20 0
0 0 0
0 0 0
20 28 0
25 35 0
25 35 0
14 20 0
20 28 0
14 20 0
0 0 0
14 20 0
25 35 0
0 0 0
14 20 0
20 30 0
20 28 0
20 28 0
20 28 0
25 35 0
20 28 0
0 0 0
20 28 0
14 20 0
25 35 0
14 20 0
20 28 0
20 28 0
20 28 0
14 20 0
14 20 0
14 20 0
25 35 0
28 40 0
20 28 0
0 0 0
25 35 0
20 30 0
14 20 0
0 0 0
14 20 0
14 20 0
28 40 0
25 36 0
14 20 0
25 35 0
25 35 0
1 3 0
25 36 0
14 20 0
20 28 0
0 0 0
28 40 0
14 20 0
14 20 0
14 20 0
32 45 0
35 50 0
4 8 0
14 20 0
20 28 0
0 0 0
25 35 0
14 20 0
25 35 0
0 0 0
14 20 0
20 28 0
20 28 0
14 20 0
14 20 0
0 0 0
25 35 0
25 35 0
28 40 0
14 20 0
14 20 0
20 28 0
20 30 0
28 40 0
14 20 0
102 102 0
79 79 0
102 102 0
91 91 0
79 79 0
79 79 0
79 79 0
102 102 0
121 121 0
121 121 0
91 91 0
79 79 0
79 79 0
0 0 0
45 45 0
64 64 0
102 102 0
79 79 0
79 79 0
79 79 0
91 91 0
91 91 0
102 102 0
79 79 0
129 129 0
92 93 0
91 91 0
79 79 0
91 91 0
79 79 0
79 79 0
92 93 0
45 45 0
112 112 0
64 64 0
64 64 0
64 64 0
64 64 0
45 45 0
112 112 0
64 64 0
91 91 0
45 45 0
64 64 0
91 91 0
79 79 0
91 91 0
80 81 0
91 91 0
79 79 0
79 79 0
64 64 0
45 45 0
45 45 0
0 0 0
45 45 0
79 79 0
64 64 0
64 64 0
45 45 0
0 0 0
91 91 0
0 0 0
45 45 0
0 0 0
45 45 0
102 102 0
45 45 0
45 45 0
64 64 0
0 0 0
45 45 0
45 45 0
45 45 0
64 64 0
0 0 0
45 45 0
79 79 0
45 45 0
64 64 0
0 0 0
45 45 0
45 45 0
79 79 0
79 79 0
64 64 0
79 79 0
0 0 0
45 45 0
91 91 0
45 45 0
0 0 0
45 45 0
0 0 0
0 0 0
91 91 0
0 0 0
0 0 0
79 79 0
47 49 0
0 0 0
0 0 0
0 0 0
0 0 0
64 64 0
45 45 0
0 0 0
45 45 0
64 64 0
0 0 0
45 45 0
79 79 0
0 0 0
45 45 0
0 0 0
0 0 0
0 0 0
45 45 0
45 45 0
0 0 0
45 45 0
45 45 0
45 45 0
64 64 0
45 45 0
0 0 0
0 0 0
0 0 0
0 0 0
0 0 0
45 45 0
45 45 0
45 45 0
64 64 0
45 45 0
0 0 0
45 45 0
45 45 0
45 45 0
45 45 0
45 45 0
64 64 0
45 45 0
0 0 0
0 0 0
45 45 0
45 45 0
0 0 0
0 0 0
45 45 0
0 0 0
0 0 0
0 0 0
45 45 0
45 45 0
0 0 0
64 64 0
0 0 0
0 0 0
0 0 0
0 0 0
64 64 0
45 45 0
45 45 0
45 45 0
0 0 0
45 45 0
0 0 0
79 79 0
79 79 0
45 45 0
64 64 0
0 0 0
45 45 0
45 45 0
64 64 0
0 0 0
64 64 0
64 64 0
0 0 0
0 0 0
0 0 0
91 91 0
45 45 0
0 0 0
0 0 0
0 0 0
45 45 0
45 45 0
0 0 0
64 64 0
0 0 0
79 79 0
79 79 0
45 45 0
45 45 0
64 64 0
64 64 0
0 0 0
45 45 0
45 45 0
45 45 0
45 45 0
79 79 0
0 0 0
45 45 0
64 64 0
0 0 0
45 45 0
102 102 0
64 64 0
0 0 0
45 45 0
64 64 0
0 0 0
0 0 0
64 64 0
0 0 0
45 45 0
79 79 0
45 45 0
0 0 0
64 64 0
79 79 0
45 45 0
64 64 0
64 64 0
112 112 0
45 45 0
79 79 0
79 79 0
0 0 0
112 113 0
45 45 0
64 64 0
45 45 0
64 64 0
79 79 0
0 0 0
102 102 0
79 79 0
64 64 0
79 79 0
102 102 0
79 79 0
64 64 0
64 64 0
80 81 0
102 102 0
45 45 0
103 104 0
112 112 0
112 112 0
102 102 0
45 45 0
103 104 0
79 79 0
79 79 0
91 91 0
112 112 0
0 0 0
79 79 0
64 64 0
45 45 0
79 79 0
129 129 0
79 79 0
64 64 0
102 102 0
79 79 0
112 112 0
79 79 0
103 104 0
64 64 0
64 64 0
121 121 0
91 91 0
121 121 0
112 112 0
91 91 0
112 112 0
64 64 0
91 91 0
92 93 0
79 79 0
112 112 0
50 54 0
14 20 0
0 0 0
14 20 0
28 40 0
0 0 0
0 0 0
28 40 0
20 28 0
28 40 0
14 20 0
28 40 0
0 0 0
15 22 0
0 0 0
20 28 0
0 0 0
20 28 0
20 28 0
20 28 0
14 20 0
38 54 0
0 0 0
14 20 0
29 41 0
0 0 0
0 0 0
14 20 0
20 28 0
20 28 0
15 22 0
20 30 0
14 20 0
20 28 0
28 40 0
32 45 0
14 20 0
15 22 0
14 20 0
35 50 0
14 20 0
20 28 0
4 8 0
0 0 0
14 20 0
14 20 0
20 28 0
14 20 0
4 8 0
0 0 0
0 0 0
14 20 0
14 20 0
14 20 0
20 28 0
20 28 0
28 40 0
20 28 0
20 28 0
20 28 0
0 0 0
14 20 0
20 28 0
20 30 0
4 8 0
0 0 0
14 20 0
14 20 0
20 28 0
4 9 0
20 28 0
20 28 0
28 40 0
20 28 0
14 20 0
25 35 0
0 0 0
25 35 0
14 20 0
14 20 0
25 35 0
20 28 0
14 20 0
20 28 0
25 35 0
25 35 0
20 28 0
0 0 0
20 28 0
14 20 0
4 8 0
20 28 0
25 35 0
14 20 0
32 45 0
25 35 0
20 28 0
25 35 0
4 8 0
20 28 0
20 28 0
20 28 0
14 20 0
20 28 0
28 40 0
4 9 0
20 28 0
0 0 0
25 35 0
28 40 0
25 35 0
20 28 0
20 28 0
66 67 0
91 91 0
91 91 0
0 0 0
91 91 0
92 93 0
102 102 0
92 93 0
91 91 0
102 102 0
102 102 0
45 45 0
45 45 0
64 64 0
45 45 0
102 102 0
79 79 0
79 79 0
112 112 0
79 79 0
45 45 0
79 79 0
79 79 0
102 102 0
91 91 0
102 102 0
102 102 0
79 79 0
79 79 0
91 91 0
64 64 0
79 79 0
45 45 0
91 91 0
91 91 0
79 79 0
64 64 0
80 81 0
79 79 0
45 45 0
45 45 0
64 64 0
45 45 0
66 67 0
64 64 0
45 45 0
45 45 0
79 79 0
45 45 0
64 64 0
91 91 0
64 64 0
79 79 0
102 102 0
64 64 0
45 45 0
64 64 0
64 64 0
91 91 0
45 45 0
45 45 0
112 112 0
48 50 0
45 45 0
45 45 0
45 45 0
45 45 0
64 64 0
0 0 0
102 102 0
45 45 0
45 45 0
79 79 0
0 0 0
0 0 0
45 45 0
45 45 0
79 79 0
79 79 0
79 79 0
45 45 0
91 91 0
0 0 0
0 0 0
45 45 0
64 64 0
0 0 0
79 79 0
0 0 0
45 45 0
64 64 0
45 45 0
79 79 0
0 0 0
64 64 0
45 45 0
79 79 0
0 0 0
45 45 0
45 45 0
79 79 0
79 79 0
0 0 0
0 0 0
64 64 0
0 0 0
0 0 0
0 0 0
45 45 0
47 49 0
45 45 0
64 64 0
45 45 0
45 45 0
64 64 0
0 0 0
64 64 0
0 0 0
0 0 0
45 45 0
0 0 0
45 45 0
45 45 0
45 45 0
45 45 0
0 0 0
0 0 0
45 45 0
0 0 0
0 0 0
0 0 0
0 0 0
0 0 0
0 0 0
45 45 0
0 0 0
45 45 0
45 45 0
45 45 0
0 0 0
0 0 0
45 45 0
45 45 0
0 0 0
64 64 0
45 45 0
0 0 0
0 0 0
45 45 0
0 0 0
0 0 0
45 45 0
0 0 0
45 45 0
0 0 0
45 45 0
64 64 0
0 0 0
0 0 0
45 45 0
45 45 0
64 64 0
45 45 0
0 0 0
0 0 0
79 79 0
79 79 0
45 45 0
45 45 0
45 45 0
0 0 0
45 45 0
0 0 0
45 45 0
45 45 0
0 0 0
45 45 0
45 45 0
0 0 0
45 45 0
0 0 0
0 0 0
45 45 0
45 45 0
64 64 0
0 0 0
0 0 0
0 0 0
79 79 0
64 64 0
64 64 0
64 64 0
0 0 0
0 0 0
45 45 0
64 64 0
64 64 0
45 45 0
45 45 0
64 64 0
45 45 0
102 102 0
0 0 0
79 79 0
45 45 0
45 45 0
45 45 0
45 45 0
0 0 0
79 79 0
64 64 0
45 45 0
45 45 0
45 45 0
80 81 0
79 79 0
64 64 0
0 0 0
64 64 0
45 45 0
64 64 0
79 79 0
79 79 0
64 64 0
45 45 0
79 79 0
64 64 0
45 45 0
45 45 0
91 91 0
79 79 0
45 45 0
0 0 0
91 91 0
79 79 0
45 45 0
91 91 0
79 79 0
45 45 0
45 45 0
91 91 0
64 64 0
0 0 0
112 112 0
64 64 0
79 79 0
112 112 0
79 79 0
64 64 0
79 79 0
112 113 0
102 102 0
64 64 0
79 79 0
79 79 0
45 45 0
79 79 0
64 64 0
64 64 0
79 79 0
91 91 0
102 102 0
79 79 0
91 91 0
91 91 0
45 45 0
91 91 0
79 79 0
129 129 0
45 45 0
112 112 0
91 91 0
121 121 0
121 121 0
102 102 0
91 91 0
102 102 0
102 102 0
91 91 0
112 112 0
79 79 0
121 121 0
91 91 0
91 91 0
91 91 0
79 79 0
64 64 0
121 121 0
14 20 0
15 22 0
25 35 0
20 28 0
15 22 0
25 35 0
14 20 0
20 28 0
20 28 0
14 20 0
0 0 0
25 35 0
14 20 0
25 35 0
0 0 0
14 20 0
14 20 0
20 28 0
14 20 0
0 0 0
14 20 0
14 20 0
0 0 0
28 40 0
20 28 0
14 20 0
20 30 0
0 0 0
28 40 0
0 0 0
14 20 0
20 28 0
20 28 0
0 0 0
0 0 0
32 45 0
20 28 0
20 28 0
20 28 0
0 0 0
20 28 0
0 0 0
25 35 0
25 35 0
0 0 0
15 22 0
20 28 0
20 28 0
25 35 0
20 28 0
20 28 0
14 20 0
14 20 0
20 28 0
28 40 0
14 20 0
14 20 0
0 0 0
25 35 0
14 20 0
0 0 0
20 28 0
28 40 0
20 28 0
20 28 0
20 28 0
20 28 0
20 30 0
14 20 0
14 20 0
0 0 0
14 20 0
25 35 0
25 36 0
14 20 0
20 28 0
14 20 0
14 20 0
14 20 0
0 0 0
20 28 0
20 28 0
20 28 0
20 28 0
14 20 0
20 28 0
32 45 0
20 28 0
0 0 0
20 28 0
14 20 0
14 20 0
25 35 0
20 28 0
0 0 0
14 20 0
20 28 0
14 20 0
20 28 0
14 20 0
0 0 0
20 28 0
28 40 0
28 40 0
25 35 0
14 20 0
0 0 0
28 40 0
32 45 0
20 28 0
0 0 0
4 9 0
91 91 0
121 121 0
102 102 0
91 91 0
79 79 0
121 122 0
121 122 0
79 79 0
79 79 0
64 64 0
64 64 0
79 79 0
64 64 0
129 129 0
79 79 0
79 79 0
91 91 0
79 79 0
64 64 0
121 121 0
102 102 0
112 112 0
102 102 0
91 91 0
45 45 0
79 79 0
91 91 0
102 102 0
112 112 0
64 64 0
79 79 0
79 79 0
91 91 0
91 91 0
79 79 0
45 45 0
112 112 0
45 45 0
79 79 0
45 45 0
91 91 0
91 91 0
79 79 0
91 91 0
79 79 0
79 79 0
79 79 0
102 102 0
64 64 0
64 64 0
45 45 0
0 0 0
45 45 0
91 91 0
64 64 0
64 64 0
45 45 0
79 79 0
91 91 0
0 0 0
79 79 0
79 79 0
91 91 0
112 112 0
64 64 0
64 64 0
45 45 0
45 45 0
64 64 0
45 45 0
45 45 0
64 64 0
0 0 0
79 79 0
102 102 0
45 45 0
45 45 0
45 45 0
64 64 0
45 45 0
91 91 0
91 91 0
64 64 0
79 79 0
64 64 0
64 64 0
91 91 0
45 45 0
0 0 0
64 64 0
45 45 0
0 0 0
112 112 0
64 64 0
0 0 0
79 79 0
47 49 0
0 0 0
0 0 0
0 0 0
45 45 0
64 64 0
64 64 0
0 0 0
45 45 0
64 64 0
0 0 0
0 0 0
79 79 0
0 0 0
45 45 0
0 0 0
45 45 0
45 45 0
64 64 0
45 45 0
45 45 0
0 0 0
45 45 0
64 64 0
45 45 0
0 0 0
0 0 0
0 0 0
0 0 0
0 0 0
0 0 0
45 45 0
45 45 0
64 64 0
45 45 0
45 45 0
0 0 0
45 45 0
45 45 0
45 45 0
64 64 0
91 91 0
45 45 0
45 45 0
0 0 0
45 45 0
45 45 0
0 0 0
0 0 0
0 0 0
45 45 0
45 45 0
45 45 0
0 0 0
64 64 0
45 45 0
0 0 0
45 45 0
45 45 0
45 45 0
0 0 0
0 0 0
0 0 0
45 45 0
0 0 0
0 0 0
64 64 0
45 45 0
45 45 0
79 79 0
0 0 0
45 45 0
0 0 0
79 79 0
79 79 0
45 45 0
79 79 0
45 45 0
64 64 0
45 45 0
64 64 0
45 45 0
64 64 0
64 64 0
0 0 0
0 0 0
0 0 0
91 91 0
64 64 0
0 0 0
0 0 0
0 0 0
45 45 0
64 64 0
0 0 0
79 79 0
0 0 0
91 91 0
79 79 0
45 45 0
45 45 0
64 64 0
45 45 0
0 0 0
64 64 0
64 64 0
45 45 0
45 45 0
91 91 0
0 0 0
64 64 0
64 64 0
45 45 0
45 45 0
102 102 0
64 64 0
0 0 0
64 64 0
64 64 0
64 64 0
0 0 0
79 79 0
0 0 0
64 64 0
45 45 0
45 45 0
45 45 0
64 64 0
79 79 0
45 45 0
91 91 0
79 79 0
91 91 0
64 64 0
91 91 0
79 79 0
0 0 0
112 112 0
79 79 0
91 91 0
0 0 0
64 64 0
0 0 0
79 79 0
102 102 0
91 91 0
91 91 0
91 91 0
79 79 0
45 45 0
91 91 0
45 45 0
102 102 0
91 91 0
64 64 0
112 112 0
64 64 0
121 121 0
92 93 0
66 67 0
112 112 0
121 121 0
64 64 0
137 137 0
91 91 0
45 45 0
79 79 0
64 64 0
79 79 0
79 79 0
144 144 0
64 64 0
91 91 0
79 79 0
121 121 0
64 64 0
64 64 0
102 102 0
79 79 0
102 102 0
103 104 0
102 102 0
129 129 0
45 45 0
129 129 0
91 91 0
102 102 0
92 93 0
102 102 0
91 91 0
137 137 0
91 91 0
66 67 0
0 0 0
14 20 0
28 40 0
20 28 0
0 0 0
25 37 0
28 40 0
20 28 0
0 0 0
25 35 0
14 20 0
0 0 0
0 0 0
15 22 0
15 22 0
20 28 0
14 20 0
14 20 0
20 28 0
32 45 0
14 20 0
28 40 0
14 20 0
0 0 0
20 29 0
20 30 0
25 35 0
15 22 0
25 35 0
15 22 0
20 30 0
20 28 0
29 41 0
20 28 0
15 22 0
0 0 0
28 40 0
25 35 0
14 20 0
20 30 0
0 0 0
14 20 0
20 28 0
15 22 0
20 28 0
15 22 0
0 0 0
0 0 0
0 0 0
20 28 0
25 35 0
20 28 0
20 28 0
20 28 0
32 45 0
25 35 0
14 20 0
4 8 0
25 35 0
14 20 0
14 20 0
4 8 0
14 20 0
14 20 0
20 28 0
20 28 0
14 20 0
20 28 0
14 20 0
32 45 0
14 20 0
25 35 0
14 20 0
0 0 0
25 35 0
14 20 0
20 28 0
28 40 0
0 0 0
25 35 0
0 0 0
28 40 0
20 28 0
14 20 0
14 20 0
20 28 0
14 20 0
20 28 0
14 20 0
20 28 0
20 28 0
32 45 0
25 35 0
28 40 0
20 28 0
4 8 0
25 35 0
20 28 0
0 0 0
14 20 0
32 45 0
20 28 0
20 28 0
14 20 0
14 20 0
14 20 0
28 40 0
14 20 0
14 20 0
14 20 0
80 81 0
79 79 0
45 45 0
102 102 0
103 104 0
102 102 0
80 81 0
79 79 0
122 122 0
91 91 0
66 67 0
45 45 0
112 112 0
45 45 0
102 102 0
112 112 0
102 102 0
102 102 0
64 64 0
79 79 0
112 112 0
91 91 0
64 64 0
112 112 0
112 112 0
112 112 0
91 91 0
91 91 0
45 45 0
64 64 0
64 64 0
64 64 0
64 64 0
91 91 0
64 64 0
91 91 0
64 64 0
79 79 0
0 0 0
64 64 0
64 64 0
79 79 0
64 64 0
64 64 0
79 79 0
102 102 0
64 64 0
64 64 0
91 91 0
112 112 0
91 91 0
64 64 0
79 79 0
64 64 0
64 64 0
45 45 0
64 64 0
91 91 0
91 91 0
79 79 0
102 102 0
45 45 0
91 91 0
0 0 0
79 79 0
79 79 0
0 0 0
64 64 0
91 91 0
64 64 0
79 79 0
45 45 0
0 0 0
0 0 0
79 79 0
45 45 0
102 102 0
79 79 0
64 64 0
64 64 0
45 45 0
64 64 0
45 45 0
45 45 0
45 45 0
45 45 0
45 45 0
0 0 0
64 64 0
79 79 0
45 45 0
64 64 0
64 64 0
64 64 0
79 79 0
0 0 0
45 45 0
0 0 0
91 91 0
45 45 0
64 64 0
0 0 0
45 45 0
64 64 0
45 45 0
45 45 0
64 64 0
0 0 0
45 45 0
45 45 0
64 64 0
45 45 0
45 45 0
64 64 0
0 0 0
64 64 0
0 0 0
45 45 0
0 0 0
45 45 0
45 45 0
0 0 0
64 64 0
64 64 0
45 45 0
0 0 0
45 45 0
0 0 0
0 0 0
0 0 0
0 0 0
0 0 0
45 45 0
64 64 0
45 45 0
45 45 0
0 0 0
0 0 0
0 0 0
45 45 0
0 0 0
64 64 0
0 0 0
45 45 0
45 45 0
0 0 0
45 45 0
0 0 0
0 0 0
0 0 0
64 64 0
0 0 0
45 45 0
0 0 0
79 79 0
45 45 0
0 0 0
0 0 0
45 45 0
45 45 0
0 0 0
45 45 0
0 0 0
45 45 0
64 64 0
79 79 0
0 0 0
45 45 0
45 45 0
45 45 0
64 64 0
0 0 0
64 64 0
45 45 0
0 0 0
64 64 0
0 0 0
45 45 0
0 0 0
0 0 0
0 0 0
64 64 0
45 45 0
0 0 0
45 45 0
0 0 0
45 45 0
91 91 0
45 45 0
79 79 0
64 64 0
0 0 0
64 64 0
45 45 0
79 79 0
91 91 0
64 64 0
79 79 0
14 20 0
64 64 0
64 64 0
79 79 0
45 45 0
0 0 0
79 79 0
45 45 0
0 0 0
64 64 0
45 45 0
64 64 0
45 45 0
45 45 0
79 79 0
80 81 0
79 79 0
0 0 0
64 64 0
0 0 0
79 79 0
64 64 0
45 45 0
102 102 0
79 79 0
66 67 0
79 79 0
0 0 0
64 64 0
45 45 0
112 112 0
79 79 0
45 45 0
79 79 0
102 102 0
45 45 0
102 102 0
45 45 0
45 45 0
45 45 0
64 64 0
112 112 0
0 0 0
92 93 0
79 79 0
45 45 0
121 121 0
91 91 0
64 64 0
91 91 0
102 102 0
121 122 0
91 91 0
79 79 0
79 79 0
64 64 0
102 102 0
64 64 0
79 79 0
79 79 0
129 129 0
102 102 0
64 64 0
102 102 0
102 102 0
64 64 0
102 102 0
91 91 0
112 112 0
91 91 0
121 121 0
91 91 0
129 129 0
102 102 0
91 91 0
92 93 0
79 79 0
92 93 0
91 91 0
102 102 0
91 91 0
129 129 0
79 79 0
64 64 0
112 112 0
91 91 0
64 64 0
121 121 0
112 113 0
67 70 0
79 79 0
91 91 0
64 64 0
0 0 0
25 36 0
14 20 0
20 28 0
20 30 0
14 20 0
0 0 0
25 35 0
21 31 0
25 35 0
0 0 0
14 20 0
14 20 0
0 0 0
14 20 0
4 8 0
14 20 0
20 28 0
14 20 0
14 20 0
20 28 0
14 20 0
20 30 0
20 28 0
28 40 0
14 20 0
0 0 0
28 40 0
20 28 0
0 0 0
0 0 0
32 45 0
20 28 0
20 28 0
20 28 0
14 20 0
20 28 0
14 20 0
20 28 0
25 35 0
14 20 0
14 20 0
20 28 0
14 20 0
28 40 0
20 28 0
20 28 0
0 0 0
14 20 0
14 20 0
28 40 0
14 20 0
15 22 0
14 20 0
14 20 0
15 22 0
20 28 0
14 20 0
29 41 0
20 28 0
14 20 0
20 28 0
20 28 0
28 40 0
0 0 0
20 28 0
20 28 0
20 28 0
43 61 0
14 20 0
20 28 0
25 36 0
20 30 0
14 20 0
20 28 0
20 28 0
0 0 0
28 40 0
0 0 0
20 28 0
14 20 0
38 54 0
25 35 0
0 0 0
20 28 0
20 28 0
14 20 0
20 28 0
20 28 0
20 28 0
14 20 0
14 20 0
14 20 0
25 35 0
20 28 0
0 0 0
0 0 0
35 50 0
0 0 0
35 50 0
14 20 0
14 20 0
32 45 0
28 40 0
20 30 0
14 20 0
0 0 0
28 40 0
67 70 0
112 112 0
91 91 0
129 129 0
129 129 0
80 81 0
64 64 0
64 64 0
79 79 0
79 79 0
102 102 0
79 79 0
91 91 0
91 91 0
64 64 0
102 102 0
79 79 0
64 64 0
91 91 0
165 165 0
112 112 0
64 64 0
112 112 0
102 102 0
102 102 0
102 102 0
64 64 0
45 45 0
91 91 0
91 91 0
112 112 0
91 91 0
64 64 0
112 112 0
79 79 0
64 64 0
64 64 0
112 112 0
79 79 0
103 104 0
79 79 0
91 91 0
91 91 0
79 79 0
112 112 0
91 91 0
102 102 0
0 0 0
79 79 0
45 45 0
79 79 0
64 64 0
64 64 0
64 64 0
79 79 0
91 91 0
45 45 0
64 64 0
91 91 0
79 79 0
102 102 0
79 79 0
45 45 0
64 64 0
79 79 0
45 45 0
91 91 0
79 79 0
91 91 0
45 45 0
91 91 0
102 102 0
0 0 0
64 64 0
64 64 0
64 64 0
64 64 0
79 79 0
79 79 0
64 64 0
79 79 0
102 102 0
64 64 0
79 79 0
64 64 0
64 64 0
45 45 0
64 64 0
0 0 0
122 122 0
79 79 0
45 45 0
79 79 0
64 64 0
0 0 0
45 45 0
0 0 0
45 45 0
64 64 0
45 45 0
0 0 0
79 79 0
64 64 0
0 0 0
45 45 0
79 79 0
45 45 0
45 45 0
45 45 0
45 45 0
64 64 0
64 64 0
45 45 0
45 45 0
45 45 0
45 45 0
64 64 0
79 79 0
0 0 0
64 64 0
0 0 0
0 0 0
0 0 0
0 0 0
45 45 0
64 64 0
45 45 0
64 64 0
45 45 0
0 0 0
79 79 0
0 0 0
0 0 0
64 64 0
79 79 0
45 45 0
64 64 0
0 0 0
45 45 0
45 45 0
45 45 0
45 45 0
45 45 0
0 0 0
64 64 0
45 45 0
0 0 0
0 0 0
64 64 0
45 45 0
45 45 0
0 0 0
64 64 0
45 45 0
0 0 0
45 45 0
45 45 0
45 45 0
0 0 0
45 45 0
45 45 0
45 45 0
0 0 0
0 0 0
64 64 0
45 45 0
45 45 0
79 79 0
0 0 0
45 45 0
0 0 0
91 91 0
64 64 0
45 45 0
79 79 0
64 64 0
79 79 0
45 45 0
64 64 0
45 45 0
64 64 0
64 64 0
45 45 0
0 0 0
0 0 0
45 45 0
64 64 0
45 45 0
0 0 0
0 0 0
45 45 0
102 102 0
0 0 0
79 79 0
45 45 0
91 91 0
112 112 0
0 0 0
79 79 0
64 64 0
0 0 0
45 45 0
64 64 0
64 64 0
64 64 0
79 79 0
91 91 0
45 45 0
64 64 0
0 0 0
45 45 0
79 79 0
91 91 0
45 45 0
45 45 0
64 64 0
91 91 0
45 45 0
45 45 0
91 91 0
0 0 0
79 79 0
64 64 0
64 64 0
45 45 0
64 64 0
64 64 0
79 79 0
112 112 0
112 112 0
64 64 0
102 102 0
121 121 0
64 64 0
45 45 0
79 79 0
121 122 0
79 79 0
45 45 0
79 79 0
0 0 0
91 91 0
91 91 0
102 102 0
91 91 0
112 112 0
79 79 0
64 64 0
79 79 0
66 67 0
112 112 0
91 91 0
64 64 0
91 91 0
102 102 0
121 122 0
66 67 0
112 112 0
121 121 0
91 91 0
102 102 0
112 112 0
91 91 0
79 79 0
102 102 0
0 0 0
129 129 0
112 112 0
121 121 0
64 64 0
91 91 0
91 91 0
102 102 0
64 64 0
112 112 0
45 45 0
91 91 0
112 112 0
79 79 0
112 112 0
64 64 0
91 91 0
79 79 0
121 121 0
91 91 0
103 104 0
112 112 0
129 129 0
64 64 0
102 102 0
45 45 0
45 45 0
14 20 0
32 45 0
0 0 0
4 8 0
28 40 0
25 35 0
0 0 0
25 35 0
20 28 0
20 29 0
0 0 0
14 20 0
25 35 0
20 28 0
14 20 0
0 0 0
20 28 0
35 50 0
0 0 0
0 0 0
28 40 0
0 0 0
14 20 0
15 22 0
28 40 0
29 41 0
20 28 0
15 22 0
0 0 0
15 22 0
35 50 0
0 0 0
15 22 0
0 0 0
14 20 0
28 40 0
14 20 0
20 30 0
0 0 0
14 20 0
20 28 0
14 20 0
25 35 0
4 8 0
14 20 0
0 0 0
0 0 0
20 28 0
25 35 0
0 0 0
25 35 0
20 28 0
25 35 0
28 40 0
14 20 0
0 0 0
20 28 0
20 28 0
14 20 0
15 22 0
20 28 0
0 0 0
20 28 0
14 20 0
15 22 0
25 35 0
14 20 0
14 20 0
14 20 0
28 40 0
14 20 0
14 20 0
20 28 0
28 40 0
20 30 0
20 28 0
15 22 0
28 40 0
14 20 0
28 40 0
14 20 0
25 35 0
15 22 0
14 20 0
0 0 0
20 28 0
15 22 0
20 28 0
32 45 0
14 20 0
20 28 0
28 40 0
14 20 0
14 20 0
14 20 0
20 28 0
14 20 0
14 20 0
32 45 0
0 0 0
20 28 0
14 20 0
20 28 0
14 20 0
25 35 0
15 22 0
14 20 0
0 0 0
45 45 0
64 64 0
64 64 0
80 81 0
91 91 0
81 83 0
102 102 0
129 129 0
80 81 0
79 79 0
64 64 0
102 102 0
91 91 0
102 102 0
91 91 0
79 79 0
102 102 0
64 64 0
102 102 0
102 102 0
64 64 0
91 91 0
112 113 0
91 91 0
91 91 0
79 79 0
79 79 0
91 91 0
91 91 0
91 91 0
66 67 0
92 93 0
91 91 0
102 102 0
64 64 0
64 64 0
0 0 0
79 79 0
64 64 0
79 79 0
79 79 0
45 45 0
91 91 0
91 91 0
64 64 0
102 102 0
91 91 0
112 112 0
91 91 0
45 45 0
91 91 0
79 79 0
79 79 0
45 45 0
91 91 0
79 79 0
112 113 0
102 102 0
79 79 0
45 45 0
79 79 0
45 45 0
64 64 0
79 79 0
0 0 0
79 79 0
91 91 0
79 79 0
102 102 0
45 45 0
0 0 0
64 64 0
102 102 0
64 64 0
102 102 0
45 45 0
64 64 0
102 102 0
64 64 0
64 64 0
64 64 0
64 64 0
64 64 0
66 67 0
0 0 0
47 49 0
64 64 0
64 64 0
79 79 0
64 64 0
79 79 0
64 64 0
91 91 0
0 0 0
79 79 0
0 0 0
64 64 0
14 20 0
64 64 0
0 0 0
45 45 0
79 79 0
45 45 0
79 79 0
91 91 0
79 79 0
0 0 0
64 64 0
45 45 0
45 45 0
12 18 0
79 79 0
64 64 0
0 0 0
45 45 0
45 45 0
45 45 0
45 45 0
45 45 0
64 64 0
64 64 0
45 45 0
45 45 0
0 0 0
45 45 0
45 45 0
0 0 0
0 0 0
0 0 0
45 45 0
64 64 0
64 64 0
45 45 0
45 45 0
0 0 0
0 0 0
0 0 0
45 45 0
0 0 0
64 64 0
0 0 0
64 64 0
45 45 0
0 0 0
45 45 0
79 79 0
45 45 0
45 45 0
45 45 0
64 64 0
0 0 0
0 0 0
79 79 0
45 45 0
0 0 0
45 45 0
45 45 0
45 45 0
64 64 0
0 0 0
0 0 0
64 64 0
91 91 0
64 64 0
0 0 0
0 0 0
45 45 0
79 79 0
45 45 0
64 64 0
45 45 0
45 45 0
45 45 0
45 45 0
0 0 0
64 64 0
0 0 0
0 0 0
45 45 0
66 67 0
14 20 0
0 0 0
45 45 0
0 0 0
64 64 0
91 91 0
64 64 0
64 64 0
64 64 0
45 45 0
45 45 0
79 79 0
79 79 0
91 91 0
64 64 0
45 45 0
14 20 0
79 79 0
45 45 0
64 64 0
0 0 0
45 45 0
64 64 0
45 45 0
64 64 0
0 0 0
79 79 0
79 79 0
64 64 0
45 45 0
80 81 0
102 102 0
64 64 0
45 45 0
45 45 0
64 64 0
79 79 0
79 79 0
102 102 0
91 91 0
64 64 0
79 79 0
64 64 0
64 64 0
14 20 0
91 91 0
102 102 0
45 45 0
64 64 0
91 91 0
122 122 0
112 112 0
102 102 0
64 64 0
0 0 0
64 64 0
121 121 0
64 64 0
64 64 0
79 79 0
45 45 0
102 102 0
102 102 0
45 45 0
79 79 0
80 81 0
121 122 0
112 112 0
91 91 0
102 102 0
79 79 0
112 112 0
79 79 0
112 112 0
64 64 0
121 121 0
102 102 0
91 91 0
112 112 0
79 79 0
91 91 0
91 91 0
79 79 0
91 91 0
102 102 0
102 102 0
102 102 0
112 112 0
91 91 0
79 79 0
121 121 0
91 91 0
91 91 0
79 79 0
79 79 0
112 112 0
121 121 0
45 45 0
79 79 0
112 112 0
91 91 0
79 79 0
102 102 0
121 121 0
48 50 0
91 91 0
102 102 0
112 113 0
112 112 0
79 79 0
112 112 0
121 121 0
64 64 0
0 0 0
15 23 0
0 0 0
14 20 0
28 40 0
4 8 0
25 35 0
20 28 0
14 20 0
14 20 0
25 35 0
14 20 0
0 0 0
14 20 0
14 20 0
14 20 0
25 35 0
20 28 0
20 28 0
4 8 0
25 35 0
14 20 0
0 0 0
25 35 0
28 40 0
14 20 0
0 0 0
35 50 0
20 28 0
14 20 0
25 35 0
20 28 0
20 28 0
20 28 0
28 40 0
20 28 0
0 0 0
14 20 0
14 20 0
0 0 0
20 28 0
14 20 0
20 28 0
0 0 0
14 20 0
20 28 0
25 35 0
14 20 0
4 8 0
20 28 0
20 28 0
20 30 0
20 28 0
0 0 0
25 35 0
25 35 0
0 0 0
25 35 0
25 35 0
25 35 0
0 0 0
25 35 0
14 20 0
25 35 0
32 46 0
0 0 0
28 40 0
21 31 0
14 20 0
25 35 0
14 20 0
20 28 0
14 20 0
25 35 0
14 20 0
14 20 0
32 45 0
28 40 0
20 30 0
14 20 0
20 28 0
20 28 0
14 20 0
20 28 0
25 35 0
14 20 0
14 20 0
20 28 0
14 20 0
14 20 0
14 20 0
0 0 0
20 28 0
28 40 0
14 20 0
25 35 0
20 28 0
25 35 0
14 20 0
20 30 0
20 28 0
14 20 0
20 28 0
28 40 0
25 35 0
28 40 0
103 104 0
102 102 0
91 91 0
91 91 0
92 93 0
79 79 0
102 102 0
64 64 0
102 102 0
79 79 0
45 45 0
112 112 0
91 91 0
64 64 0
64 64 0
137 137 0
112 112 0
91 91 0
112 112 0
129 129 0
45 45 0
79 79 0
45 45 0
102 102 0
121 121 0
102 102 0
102 102 0
79 79 0
64 64 0
79 79 0
91 91 0
64 64 0
102 102 0
79 79 0
129 129 0
64 64 0
112 112 0
79 79 0
79 79 0
112 112 0
91 91 0
102 102 0
0 0 0
64 64 0
64 64 0
91 91 0
79 79 0
64 64 0
79 79 0
79 79 0
91 91 0
45 45 0
91 91 0
91 91 0
91 91 0
102 102 0
91 91 0
64 64 0
91 91 0
64 64 0
64 64 0
64 64 0
79 79 0
129 129 0
112 112 0
79 79 0
112 112 0
45 45 0
64 64 0
64 64 0
45 45 0
79 79 0
64 64 0
79 79 0
102 102 0
64 64 0
121 121 0
64 64 0
45 45 0
79 79 0
64 64 0
102 102 0
64 64 0
0 0 0
137 137 0
112 112 0
64 64 0
91 91 0
79 79 0
45 45 0
45 45 0
0 0 0
64 64 0
45 45 0
64 64 0
0 0 0
91 91 0
45 45 0
64 64 0
64 64 0
64 64 0
45 45 0
47 49 0
64 64 0
45 45 0
45 45 0
91 91 0
48 50 0
45 45 0
45 45 0
45 45 0
79 79 0
79 79 0
45 45 0
80 81 0
0 0 0
0 0 0
45 45 0
0 0 0
45 45 0
64 64 0
64 64 0
64 64 0
45 45 0
79 79 0
64 64 0
0 0 0
45 45 0
64 64 0
79 79 0
79 79 0
0 0 0
0 0 0
64 64 0
45 45 0
45 45 0
0 0 0
64 64 0
45 45 0
64 64 0
64 64 0
64 64 0
79 79 0
64 64 0
45 45 0
80 81 0
45 45 0
0 0 0
45 45 0
64 64 0
45 45 0
45 45 0
0 0 0
45 45 0
45 45 0
0 0 0
45 45 0
45 45 0
45 45 0
0 0 0
64 64 0
45 45 0
45 45 0
0 0 0
45 45 0
64 64 0
45 45 0
45 45 0
79 79 0
0 0 0
45 45 0
45 45 0
79 79 0
64 64 0
64 64 0
79 79 0
64 64 0
91 91 0
0 0 0
48 50 0
45 45 0
64 64 0
64 64 0
45 45 0
0 0 0
45 45 0
45 45 0
79 79 0
45 45 0
45 45 0
0 0 0
79 79 0
91 91 0
45 45 0
79 79 0
79 79 0
91 91 0
112 112 0
0 0 0
79 79 0
79 79 0
0 0 0
79 79 0
0 0 0
91 91 0
0 0 0
91 91 0
64 64 0
64 64 0
45 45 0
0 0 0
45 45 0
79 79 0
91 91 0
0 0 0
45 45 0
79 79 0
102 102 0
45 45 0
45 45 0
91 91 0
45 45 0
64 64 0
64 64 0
45 45 0
64 64 0
91 91 0
45 45 0
121 122 0
64 64 0
79 79 0
64 64 0
102 102 0
112 112 0
64 64 0
79 79 0
64 64 0
112 113 0
79 79 0
79 79 0
64 64 0
91 91 0
112 112 0
102 102 0
79 79 0
79 79 0
129 129 0
45 45 0
48 50 0
79 79 0
112 112 0
121 121 0
64 64 0
91 91 0
102 102 0
112 112 0
92 93 0
79 79 0
102 102 0
121 121 0
79 79 0
121 121 0
80 81 0
79 79 0
103 104 0
79 79 0
121 121 0
102 102 0
121 121 0
91 91 0
102 102 0
92 93 0
121 121 0
102 102 0
79 79 0
79 79 0
91 91 0
112 112 0
91 91 0
91 91 0
91 91 0
45 45 0
112 112 0
112 112 0
112 112 0
91 91 0
112 112 0
112 112 0
79 79 0
64 64 0
64 64 0
45 45 0
91 91 0
129 129 0
50 54 0
14 20 0
0 0 0
25 35 0
20 28 0
14 20 0
35 50 0
14 20 0
14 20 0
14 20 0
4 9 0
20 28 0
14 20 0
14 20 0
20 28 0
20 30 0
32 45 0
0 0 0
20 28 0
20 28 0
14 20 0
25 35 0
25 35 0
25 35 0
25 35 0
20 30 0
0 0 0
4 8 0
38 54 0
0 0 0
15 22 0
0 0 0
14 20 0
25 35 0
20 28 0
25 35 0
0 0 0
0 0 0
20 28 0
14 20 0
20 28 0
14 20 0
14 20 0
0 0 0
0 0 0
14 20 0
25 36 0
0 0 0
25 35 0
25 35 0
25 35 0
25 36 0
0 0 0
14 20 0
14 20 0
20 28 0
20 28 0
15 22 0
0 0 0
0 0 0
28 40 0
0 0 0
20 28 0
14 20 0
14 20 0
14 20 0
14 20 0
14 20 0
20 28 0
0 0 0
32 45 0
25 36 0
20 30 0
25 35 0
14 20 0
28 40 0
25 35 0
25 35 0
20 28 0
25 36 0
14 20 0
0 0 0
20 28 0
25 36 0
20 28 0
0 0 0
25 35 0
20 28 0
25 36 0
20 28 0
0 0 0
14 20 0
28 40 0
0 0 0
14 20 0
25 35 0
14 20 0
4 8 0
20 28 0
14 20 0
0 0 0
25 35 0
20 28 0
20 30 0
14 20 0
14 20 0
92 93 0
79 79 0
45 45 0
91 91 0
79 79 0
64 64 0
121 122 0
104 106 0
91 91 0
0 0 0
112 112 0
91 91 0
121 121 0
91 91 0
112 113 0
129 129 0
79 79 0
91 91 0
102 102 0
79 79 0
102 102 0
92 93 0
102 102 0
112 112 0
91 91 0
66 67 0
112 112 0
91 91 0
102 102 0
45 45 0
92 93 0
112 112 0
91 91 0
91 91 0
45 45 0
64 64 0
79 79 0
64 64 0
79 79 0
64 64 0
0 0 0
91 91 0
121 121 0
64 64 0
112 112 0
129 129 0
81 83 0
79 79 0
79 79 0
79 79 0
91 91 0
79 79 0
79 79 0
102 102 0
112 112 0
92 93 0
79 79 0
45 45 0
66 67 0
45 45 0
79 79 0
79 79 0
64 64 0
66 67 0
102 102 0
79 79 0
91 91 0
64 64 0
45 45 0
64 64 0
102 102 0
0 0 0
102 102 0
79 79 0
66 67 0
112 112 0
64 64 0
64 64 0
64 64 0
45 45 0
79 79 0
64 64 0
79 79 0
79 79 0
64 64 0
64 64 0
79 79 0
45 45 0
91 91 0
45 45 0
79 79 0
45 45 0
79 79 0
0 0 0
45 45 0
45 45 0
64 64 0
45 45 0
45 45 0
102 102 0
45 45 0
64 64 0
91 91 0
64 64 0
0 0 0
64 64 0
64 64 0
0 0 0
64 64 0
80 81 0
79 79 0
0 0 0
45 45 0
45 45 0
0 0 0
64 64 0
45 45 0
79 79 0
45 45 0
64 64 0
45 45 0
0 0 0
0 0 0
45 45 0
0 0 0
0 0 0
0 0 0
45 45 0
64 64 0
64 64 0
45 45 0
45 45 0
0 0 0
0 0 0
64 64 0
64 64 0
45 45 0
79 79 0
0 0 0
64 64 0
0 0 0
0 0 0
45 45 0
79 79 0
0 0 0
64 64 0
0 0 0
79 79 0
0 0 0
0 0 0
79 79 0
45 45 0
0 0 0
64 64 0
45 45 0
45 45 0
45 45 0
0 0 0
0 0 0
64 64 0
91 91 0
66 67 0
45 45 0
0 0 0
64 64 0
79 79 0
64 64 0
45 45 0
45 45 0
0 0 0
0 0 0
45 45 0
0 0 0
45 45 0
64 64 0
0 0 0
48 50 0
66 67 0
0 0 0
45 45 0
45 45 0
0 0 0
64 64 0
79 79 0
79 79 0
79 79 0
45 45 0
45 45 0
0 0 0
79 79 0
79 79 0
102 102 0
64 64 0
45 45 0
45 45 0
64 64 0
64 64 0
64 64 0
0 0 0
45 45 0
64 64 0
79 79 0
0 0 0
0 0 0
45 45 0
45 45 0
91 91 0
79 79 0
91 91 0
79 79 0
79 79 0
64 64 0
45 45 0
91 91 0
79 79 0
64 64 0
112 112 0
102 102 0
45 45 0
91 91 0
64 64 0
92 93 0
0 0 0
91 91 0
102 102 0
64 64 0
64 64 0
112 112 0
102 102 0
137 137 0
45 45 0
64 64 0
0 0 0
112 112 0
112 112 0
64 64 0
64 64 0
64 64 0
79 79 0
91 91 0
112 112 0
45 45 0
80 81 0
91 91 0
112 112 0
112 112 0
91 91 0
79 79 0
64 64 0
64 64 0
112 112 0
79 79 0
91 91 0
102 102 0
102 102 0
91 91 0
112 112 0
45 45 0
102 102 0
79 79 0
79 79 0
79 79 0
112 112 0
102 102 0
112 112 0
102 102 0
79 79 0
64 64 0
121 121 0
121 121 0
91 91 0
79 79 0
79 79 0
144 144 0
92 93 0
45 45 0
102 102 0
92 93 0
91 91 0
91 91 0
121 121 0
91 91 0
66 67 0
121 121 0
112 112 0
102 102 0
80 81 0
64 64 0
79 79 0
79 79 0
45 45 0
121 121 0
91 91 0
64 64 0
102 102 0
14 20 0
25 36 0
20 28 0
14 20 0
20 28 0
0 0 0
14 20 0
25 36 0
4 8 0
14 20 0
20 28 0
15 22 0
25 35 0
20 28 0
14 20 0
25 36 0
28 40 0
14 20 0
0 0 0
25 35 0
28 40 0
20 28 0
14 20 0
32 45 0
14 20 0
20 28 0
20 28 0
14 20 0
20 30 0
0 0 0
25 35 0
25 35 0
0 0 0
0 0 0
0 0 0
0 0 0
28 40 0
0 0 0
20 28 0
0 0 0
0 0 0
20 28 0
14 20 0
14 20 0
4 8 0
20 28 0
20 28 0
20 28 0
20 28 0
14 20 0
20 28 0
20 28 0
0 0 0
25 35 0
20 28 0
25 35 0
20 28 0
20 30 0
20 28 0
20 28 0
29 41 0
25 35 0
28 40 0
25 35 0
20 28 0
0 0 0
20 28 0
14 20 0
20 28 0
14 20 0
14 20 0
14 20 0
32 45 0
25 36 0
14 20 0
14 20 0
25 35 0
0 0 0
28 40 0
14 20 0
14 20 0
14 20 0
20 28 0
14 20 0
14 20 0
20 28 0
0 0 0
0 0 0
35 50 0
0 0 0
25 35 0
20 28 0
0 0 0
20 30 0
25 36 0
20 28 0
20 28 0
14 20 0
28 40 0
25 35 0
25 35 0
20 30 0
21 31 0
45 45 0
79 79 0
80 81 0
79 79 0
102 102 0
122 123 0
102 102 0
102 102 0
91 91 0
102 102 0
47 49 0
121 122 0
64 64 0
91 91 0
102 102 0
129 129 0
0 0 0
102 102 0
79 79 0
112 112 0
64 64 0
79 79 0
112 113 0
91 91 0
79 79 0
79 79 0
64 64 0
92 93 0
112 112 0
112 112 0
112 112 0
102 102 0
91 91 0
79 79 0
91 91 0
102 102 0
121 121 0
79 79 0
79 79 0
79 79 0
64 64 0
102 102 0
79 79 0
80 81 0
102 102 0
79 79 0
79 79 0
102 102 0
79 79 0
102 102 0
112 112 0
102 102 0
79 79 0
112 112 0
64 64 0
79 79 0
64 64 0
102 102 0
102 102 0
137 137 0
91 91 0
91 91 0
64 64 0
91 91 0
64 64 0
64 64 0
91 91 0
79 79 0
121 121 0
91 91 0
91 91 0
121 121 0
64 64 0
45 45 0
79 79 0
64 64 0
102 102 0
79 79 0
45 45 0
137 137 0
129 129 0
45 45 0
91 91 0
91 91 0
45 45 0
45 45 0
79 79 0
64 64 0
64 64 0
79 79 0
91 91 0
91 91 0
91 91 0
45 45 0
79 79 0
91 91 0
79 79 0
45 45 0
102 102 0
79 79 0
91 91 0
64 64 0
64 64 0
45 45 0
45 45 0
45 45 0
102 102 0
102 102 0
79 79 0
92 93 0
45 45 0
45 45 0
45 45 0
0 0 0
45 45 0
64 64 0
79 79 0
79 79 0
79 79 0
64 64 0
45 45 0
45 45 0
64 64 0
64 64 0
64 64 0
79 79 0
0 0 0
79 79 0
45 45 0
0 0 0
45 45 0
91 91 0
0 0 0
64 64 0
64 64 0
79 79 0
64 64 0
64 64 0
64 64 0
80 81 0
45 45 0
64 64 0
45 45 0
64 64 0
102 102 0
45 45 0
45 45 0
45 45 0
0 0 0
0 0 0
45 45 0
45 45 0
0 0 0
79 79 0
0 0 0
64 64 0
64 64 0
0 0 0
64 64 0
0 0 0
45 45 0
0 0 0
64 64 0
45 45 0
45 45 0
0 0 0
64 64 0
64 64 0
45 45 0
64 64 0
79 79 0
0 0 0
45 45 0
45 45 0
45 45 0
45 45 0
64 64 0
45 45 0
91 91 0
64 64 0
14 20 0
45 45 0
64 64 0
79 79 0
91 91 0
0 0 0
0 0 0
45 45 0
45 45 0
45 45 0
45 45 0
45 45 0
64 64 0
91 91 0
91 91 0
64 64 0
64 64 0
79 79 0
121 121 0
112 112 0
45 45 0
64 64 0
79 79 0
0 0 0
91 91 0
64 64 0
102 102 0
0 0 0
79 79 0
79 79 0
79 79 0
45 45 0
45 45 0
64 64 0
64 64 0
91 91 0
64 64 0
79 79 0
79 79 0
91 91 0
79 79 0
91 91 0
45 45 0
45 45 0
79 79 0
64 64 0
79 79 0
79 79 0
91 91 0
66 67 0
121 121 0
91 91 0
121 121 0
64 64 0
112 112 0
103 104 0
47 49 0
91 91 0
45 45 0
112 112 0
79 79 0
64 64 0
64 64 0
112 112 0
102 102 0
112 112 0
79 79 0
91 91 0
79 79 0
79 79 0
45 45 0
91 91 0
121 121 0
121 121 0
102 102 0
92 93 0
102 102 0
112 113 0
112 112 0
79 79 0
112 112 0
102 102 0
102 102 0
129 129 0
102 102 0
79 79 0
92 93 0
102 102 0
144 144 0
102 102 0
112 112 0
102 102 0
112 113 0
102 102 0
121 121 0
45 45 0
121 121 0
79 79 0
91 91 0
91 91 0
79 79 0
112 112 0
45 45 0
144 144 0
112 113 0
91 91 0
102 102 0
102 102 0
121 121 0
102 102 0
45 45 0
64 64 0
102 102 0
91 91 0
102 102 0
91 91 0
103 104 0
91 91 0
14 20 0
25 35 0
4 9 0
14 20 0
35 50 0
20 28 0
14 20 0
15 22 0
14 20 0
14 20 0
14 20 0
14 20 0
25 35 0
32 46 0
14 20 0
0 0 0
25 35 0
20 28 0
20 28 0
20 28 0
25 35 0
28 40 0
25 35 0
25 35 0
14 20 0
20 28 0
32 45 0
0 0 0
20 28 0
0 0 0
25 35 0
20 28 0
20 30 0
20 28 0
0 0 0
0 0 0
0 0 0
0 0 0
14 20 0
25 35 0
20 28 0
14 20 0
0 0 0
14 20 0
20 28 0
25 35 0
14 20 0
25 35 0
25 36 0
0 0 0
0 0 0
14 20 0
20 28 0
20 28 0
15 22 0
0 0 0
14 20 0
20 28 0
0 0 0
25 35 0
14 20 0
0 0 0
20 28 0
14 20 0
20 28 0
20 28 0
4 8 0
25 35 0
5 11 0
25 36 0
20 28 0
25 35 0
20 28 0
25 35 0
20 30 0
14 20 0
20 29 0
0 0 0
0 0 0
28 40 0
14 20 0
14 20 0
14 20 0
14 20 0
25 35 0
25 35 0
0 0 0
20 28 0
25 36 0
4 8 0
20 28 0
14 20 0
14 20 0
4 8 0
20 28 0
14 20 0
0 0 0
20 28 0
20 28 0
25 36 0
0 0 0
48 50 0
66 67 0
66 67 0
91 91 0
91 91 0
0 0 0
45 45 0
102 102 0
129 129 0
79 79 0
91 91 0
79 79 0
112 113 0
102 102 0
102 102 0
121 121 0
121 122 0
79 79 0
103 104 0
80 81 0
79 79 0
102 102 0
121 121 0
121 121 0
64 64 0
102 102 0
112 112 0
79 79 0
122 124 0
91 91 0
91 91 0
79 79 0
103 104 0
79 79 0
45 45 0
91 91 0
79 79 0
121 121 0
45 45 0
45 45 0
64 64 0
91 91 0
102 102 0
79 79 0
112 112 0
144 144 0
80 81 0
64 64 0
91 91 0
64 64 0
112 112 0
0 0 0
91 91 0
129 129 0
112 112 0
91 91 0
64 64 0
45 45 0
79 79 0
91 91 0
64 64 0
112 112 0
64 64 0
64 65 0
79 79 0
103 104 0
64 64 0
79 79 0
79 79 0
112 112 0
45 45 0
79 79 0
79 79 0
64 64 0
64 64 0
102 102 0
79 79 0
45 45 0
91 91 0
102 102 0
45 45 0
79 79 0
64 64 0
102 102 0
0 0 0
64 64 0
79 79 0
91 91 0
64 64 0
79 79 0
64 64 0
92 93 0
45 45 0
64 64 0
45 45 0
45 45 0
45 45 0
45 45 0
121 121 0
45 45 0
64 64 0
79 79 0
91 91 0
45 45 0
64 64 0
79 79 0
45 45 0
79 79 0
91 91 0
45 45 0
79 79 0
79 79 0
45 45 0
45 45 0
64 64 0
64 64 0
64 64 0
45 45 0
64 64 0
64 64 0
45 45 0
45 45 0
45 45 0
45 45 0
45 45 0
45 45 0
45 45 0
47 49 0
91 91 0
64 64 0
64 64 0
0 0 0
45 45 0
64 64 0
45 45 0
79 79 0
91 91 0
0 0 0
45 45 0
45 45 0
0 0 0
45 45 0
91 91 0
0 0 0
45 45 0
0 0 0
45 45 0
0 0 0
45 45 0
45 45 0
45 45 0
0 0 0
64 64 0
45 45 0
45 45 0
45 45 0
0 0 0
0 0 0
45 45 0
102 102 0
66 67 0
45 45 0
0 0 0
79 79 0
79 79 0
64 64 0
64 64 0
45 45 0
0 0 0
0 0 0
45 45 0
0 0 0
45 45 0
64 64 0
45 45 0
45 45 0
80 81 0
0 0 0
45 45 0
45 45 0
0 0 0
64 64 0
64 64 0
91 91 0
79 79 0
45 45 0
45 45 0
0 0 0
79 79 0
91 91 0
103 104 0
79 79 0
45 45 0
45 45 0
45 45 0
79 79 0
45 45 0
45 45 0
45 45 0
64 64 0
91 91 0
45 45 0
45 45 0
45 45 0
79 79 0
91 91 0
79 79 0
91 91 0
79 79 0
91 91 0
45 45 0
64 64 0
102 102 0
64 64 0
64 64 0
102 102 0
102 102 0
64 64 0
79 79 0
64 64 0
102 102 0
0 0 0
79 79 0
129 129 0
64 64 0
64 64 0
102 102 0
112 112 0
121 121 0
91 91 0
45 45 0
0 0 0
91 91 0
112 112 0
79 79 0
80 81 0
102 102 0
79 79 0
91 91 0
121 121 0
0 0 0
80 81 0
102 102 0
121 121 0
112 112 0
64 64 0
79 79 0
64 64 0
45 45 0
129 129 0
64 64 0
64 64 0
91 91 0
102 102 0
79 79 0
79 79 0
102 102 0
92 93 0
64 64 0
91 91 0
91 91 0
112 112 0
112 112 0
121 121 0
79 79 0
79 79 0
91 91 0
121 121 0
121 121 0
79 79 0
91 91 0
91 91 0
121 122 0
91 91 0
45 45 0
91 91 0
103 104 0
79 79 0
79 79 0
121 121 0
45 45 0
67 69 0
102 102 0
112 112 0
102 102 0
64 64 0
91 91 0
91 91 0
79 79 0
45 45 0
129 129 0
79 79 0
79 79 0
102 102 0
45 45 0
79 79 0
103 104 0
102 102 0
129 129 0
80 81 0
20 30 0
14 20 0
14 20 0
0 0 0
14 20 0
20 28 0
15 22 0
20 30 0
14 20 0
14 20 0
14 20 0
25 35 0
14 20 0
0 0 0
25 35 0
28 40 0
14 20 0
20 28 0
28 40 0
32 45 0
4 8 0
20 28 0
0 0 0
15 22 0
20 28 0
25 35 0
14 20 0
0 0 0
0 0 0
0 0 0
25 35 0
14 20 0
20 28 0
0 0 0
0 0 0
14 20 0
20 28 0
0 0 0
0 0 0
0 0 0
14 20 0
20 28 0
32 45 0
14 20 0
20 30 0
20 28 0
20 28 0
14 20 0
28 40 0
14 20 0
14 20 0
20 28 0
25 35 0
20 28 0
32 45 0
20 28 0
20 28 0
28 41 0
20 28 0
0 0 0
20 28 0
14 20 0
25 35 0
14 20 0
0 0 0
14 20 0
32 45 0
15 22 0
20 28 0
25 35 0
28 40 0
14 20 0
20 28 0
20 28 0
14 20 0
15 22 0
25 35 0
14 20 0
0 0 0
0 0 0
0 0 0
14 20 0
28 40 0
0 0 0
14 20 0
32 45 0
20 28 0
4 8 0
28 40 0
14 20 0
20 28 0
25 35 0
20 28 0
20 28 0
25 35 0
14 20 0
25 36 0
20 28 0
0 0 0
15 22 0
14 20 0
137 138 0
112 113 0
79 79 0
47 49 0
92 93 0
66 67 0
91 91 0
91 91 0
112 112 0
102 102 0
45 45 0
80 81 0
64 64 0
79 79 0
91 91 0
45 45 0
137 137 0
64 64 0
92 93 0
102 102 0
79 79 0
79 79 0
112 112 0
121 122 0
64 64 0
79 79 0
80 81 0
91 91 0
112 112 0
103 104 0
91 91 0
64 64 0
91 91 0
121 121 0
91 91 0
91 91 0
102 102 0
64 64 0
64 64 0
91 91 0
91 91 0
103 104 0
64 64 0
79 79 0
112 112 0
121 121 0
80 81 0
64 64 0
64 64 0
91 91 0
64 64 0
91 91 0
102 102 0
45 45 0
0 0 0
102 102 0
64 64 0
64 64 0
102 102 0
91 91 0
121 121 0
112 112 0
91 91 0
129 129 0
79 79 0
45 45 0
91 91 0
79 79 0
91 91 0
112 112 0
45 45 0
121 121 0
144 144 0
64 64 0
91 91 0
45 45 0
45 45 0
45 45 0
102 102 0
64 64 0
64 64 0
79 79 0
91 91 0
102 102 0
64 64 0
45 45 0
91 91 0
91 91 0
79 79 0
45 45 0
112 112 0
79 79 0
112 112 0
64 64 0
64 64 0
79 79 0
0 0 0
64 64 0
91 91 0
91 91 0
79 79 0
102 102 0
79 79 0
45 45 0
64 64 0
0 0 0
45 45 0
45 45 0
79 79 0
45 45 0
64 64 0
79 79 0
64 64 0
45 45 0
64 64 0
45 45 0
79 79 0
45 45 0
45 45 0
79 79 0
0 0 0
64 64 0
0 0 0
91 91 0
45 45 0
91 91 0
79 79 0
79 79 0
79 79 0
64 64 0
45 45 0
66 67 0
0 0 0
64 64 0
64 64 0
79 79 0
102 102 0
64 64 0
45 45 0
45 45 0
0 0 0
91 91 0
45 45 0
0 0 0
79 79 0
45 45 0
64 64 0
0 0 0
0 0 0
0 0 0
45 45 0
45 45 0
0 0 0
91 91 0
0 0 0
79 79 0
45 45 0
0 0 0
64 64 0
45 45 0
45 45 0
0 0 0
64 64 0
45 45 0
45 45 0
0 0 0
64 64 0
64 64 0
45 45 0
45 45 0
79 79 0
0 0 0
0 0 0
45 45 0
45 45 0
64 64 0
64 64 0
45 45 0
64 64 0
79 79 0
12 18 0
45 45 0
91 91 0
64 64 0
102 102 0
45 45 0
64 64 0
45 45 0
102 102 0
0 0 0
45 45 0
64 64 0
91 91 0
112 112 0
64 64 0
45 45 0
79 79 0
91 91 0
102 102 0
112 112 0
45 45 0
79 79 0
64 64 0
64 64 0
91 91 0
91 91 0
91 91 0
0 0 0
91 91 0
79 79 0
79 79 0
0 0 0
45 45 0
64 64 0
45 45 0
91 91 0
79 79 0
45 45 0
91 91 0
121 121 0
91 91 0
79 79 0
45 45 0
45 45 0
91 91 0
79 79 0
79 79 0
45 45 0
91 91 0
79 79 0
112 112 0
144 144 0
102 102 0
64 64 0
91 91 0
79 79 0
45 45 0
91 91 0
102 102 0
91 91 0
79 79 0
45 45 0
64 64 0
102 102 0
102 102 0
102 102 0
79 79 0
0 0 0
102 102 0
79 79 0
64 64 0
91 91 0
137 137 0
121 121 0
91 91 0
130 131 0
112 112 0
112 113 0
79 79 0
45 45 0
121 121 0
112 112 0
102 102 0
102 102 0
91 91 0
91 91 0
91 91 0
121 121 0
137 137 0
91 91 0
121 121 0
91 91 0
91 91 0
121 121 0
79 79 0
64 64 0
45 45 0
91 91 0
102 102 0
103 104 0
91 91 0
64 64 0
130 130 0
112 112 0
112 112 0
112 112 0
64 64 0
121 121 0
91 91 0
67 69 0
66 67 0
112 112 0
79 79 0
64 64 0
102 102 0
79 79 0
79 79 0
64 64 0
12 18 0
0 0 0
0 0 0
14 20 0
0 0 0
14 20 0
15 22 0
20 28 0
0 0 0
14 20 0
20 30 0
14 20 0
35 50 0
0 0 0
14 20 0
20 28 0
28 40 0
14 20 0
25 35 0
25 35 0
25 35 0
28 40 0
15 22 0
20 28 0
32 45 0
20 28 0
14 20 0
0 0 0
14 20 0
25 35 0
14 20 0
15 22 0
20 28 0
14 20 0
4 8 0
0 0 0
14 20 0
14 20 0
32 45 0
28 40 0
0 0 0
0 0 0
25 35 0
14 20 0
14 20 0
25 36 0
15 22 0
20 28 0
25 35 0
0 0 0
25 35 0
25 35 0
20 28 0
0 0 0
14 20 0
14 20 0
14 20 0
25 35 0
14 20 0
0 0 0
20 28 0
14 20 0
20 28 0
20 28 0
14 20 0
20 30 0
15 23 0
20 30 0
14 20 0
25 36 0
0 0 0
25 35 0
20 30 0
14 20 0
20 28 0
4 8 0
0 0 0
25 35 0
14 20 0
0 0 0
14 20 0
14 20 0
25 35 0
25 35 0
0 0 0
20 28 0
20 30 0
15 22 0
14 20 0
20 28 0
15 22 0
0 0 0
20 28 0
14 20 0
0 0 0
25 35 0
20 28 0
15 22 0
0 0 0
14 20 0
48 50 0
79 79 0
79 79 0
47 49 0
47 49 0
113 115 0
121 121 0
79 79 0
91 91 0
80 81 0
121 122 0
112 112 0
102 102 0
129 129 0
81 83 0
92 93 0
91 91 0
91 91 0
112 112 0
121 121 0
102 102 0
91 91 0
121 121 0
79 79 0
91 91 0
130 132 0
64 64 0
102 102 0
112 113 0
79 79 0
79 79 0
79 79 0
79 79 0
129 129 0
103 104 0
64 64 0
0 0 0
121 121 0
102 102 0
102 102 0
102 102 0
91 91 0
92 93 0
91 91 0
112 112 0
64 64 0
112 112 0
64 64 0
79 79 0
137 137 0
112 112 0
91 91 0
45 45 0
64 64 0
92 93 0
79 79 0
79 79 0
137 137 0
64 64 0
79 79 0
102 102 0
102 102 0
64 64 0
79 79 0
91 91 0
91 91 0
45 45 0
91 91 0
79 79 0
102 102 0
121 121 0
79 79 0
79 79 0
91 91 0
64 64 0
91 91 0
64 64 0
79 79 0
79 79 0
91 91 0
64 64 0
45 45 0
79 79 0
91 91 0
64 64 0
112 112 0
45 45 0
91 91 0
0 0 0
91 91 0
64 64 0
64 64 0
0 0 0
103 104 0
91 91 0
64 64 0
79 79 0
121 121 0
91 91 0
79 79 0
79 79 0
64 64 0
64 64 0
91 91 0
79 79 0
79 79 0
79 79 0
0 0 0
45 45 0
64 64 0
64 64 0
79 79 0
64 64 0
64 64 0
79 79 0
64 64 0
45 45 0
79 79 0
45 45 0
45 45 0
45 45 0
64 64 0
64 64 0
91 91 0
64 64 0
79 79 0
0 0 0
45 45 0
79 79 0
64 64 0
79 79 0
64 64 0
64 64 0
45 45 0
45 45 0
0 0 0
64 64 0
79 79 0
0 0 0
79 79 0
45 45 0
45 45 0
64 64 0
0 0 0
64 64 0
64 64 0
0 0 0
45 45 0
64 64 0
0 0 0
0 0 0
0 0 0
0 0 0
45 45 0
64 64 0
113 114 0
0 0 0
45 45 0
91 91 0
45 45 0
79 79 0
45 45 0
64 64 0
0 0 0
0 0 0
45 45 0
0 0 0
45 45 0
45 45 0
45 45 0
0 0 0
79 79 0
45 45 0
45 45 0
45 45 0
45 45 0
0 0 0
91 91 0
79 79 0
79 79 0
64 64 0
64 64 0
0 0 0
45 45 0
102 102 0
66 67 0
112 112 0
45 45 0
0 0 0
91 91 0
79 79 0
45 45 0
45 45 0
45 45 0
79 79 0
45 45 0
91 91 0
45 45 0
45 45 0
79 79 0
79 79 0
64 64 0
79 79 0
102 102 0
79 79 0
79 79 0
91 91 0
79 79 0
80 81 0
64 64 0
91 91 0
112 112 0
91 91 0
64 64 0
102 102 0
91 91 0
64 64 0
64 64 0
121 121 0
92 93 0
64 64 0
112 112 0
112 112 0
112 112 0
102 102 0
64 64 0
0 0 0
80 81 0
129 129 0
91 91 0
79 79 0
102 102 0
79 79 0
64 64 0
102 102 0
45 45 0
91 91 0
102 102 0
121 121 0
102 102 0
91 91 0
91 91 0
79 79 0
64 64 0
121 121 0
79 79 0
64 64 0
121 121 0
121 121 0
64 64 0
91 91 0
79 79 0
92 93 0
64 64 0
91 91 0
102 102 0
121 121 0
91 91 0
129 129 0
79 79 0
79 79 0
79 79 0
102 102 0
102 102 0
79 79 0
91 91 0
102 102 0
91 91 0
91 91 0
0 0 0
91 91 0
103 104 0
79 79 0
45 45 0
129 129 0
64 64 0
45 45 0
112 112 0
130 130 0
121 121 0
64 64 0
91 91 0
102 102 0
79 79 0
64 64 0
112 112 0
91 91 0
92 93 0
102 102 0
102 102 0
64 64 0
103 104 0
79 79 0
137 137 0
64 64 0
112 112 0
64 64 0
45 45 0
79 79 0
47 49 0
79 79 0
64 64 0
14 20 0
14 20 0
0 0 0
0 0 0
15 22 0
14 20 0
25 35 0
14 20 0
20 28 0
14 20 0
14 20 0
20 28 0
20 30 0
25 35 0
20 28 0
25 35 0
14 20 0
4 8 0
20 28 0
20 28 0
20 28 0
25 35 0
0 0 0
4 8 0
20 28 0
14 20 0
25 35 0
0 0 0
0 0 0
14 20 0
20 28 0
0 0 0
0 0 0
14 20 0
14 20 0
25 35 0
32 45 0
14 20 0
14 20 0
25 35 0
14 20 0
25 35 0
25 35 0
20 28 0
25 35 0
20 28 0
32 45 0
32 45 0
25 35 0
25 35 0
25 35 0
28 40 0
20 28 0
14 20 0
20 28 0
14 20 0
20 28 0
0 0 0
0 0 0
28 40 0
20 28 0
15 22 0
0 0 0
32 45 0
20 28 0
28 41 0
0 0 0
14 20 0
15 22 0
20 30 0
25 35 0
0 0 0
0 0 0
14 20 0
14 20 0
25 35 0
14 20 0
20 28 0
14 20 0
20 28 0
15 22 0
0 0 0
20 28 0
14 20 0
25 35 0
28 40 0
0 1 0
20 28 0
14 20 0
25 35 0
14 20 0
14 20 0
0 0 0
14 20 0
14 20 0
0 0 0
14 20 0
50 54 0
121 122 0
80 81 0
47 49 0
45 45 0
91 91 0
91 91 0
45 45 0
0 0 0
79 79 0
0 0 0
121 121 0
64 64 0
102 102 0
79 79 0
91 91 0
79 79 0
91 91 0
80 81 0
64 64 0
79 79 0
80 81 0
79 79 0
91 91 0
91 91 0
129 129 0
121 121 0
102 102 0
64 64 0
102 102 0
91 91 0
64 64 0
112 112 0
137 137 0
91 91 0
79 79 0
80 81 0
103 104 0
121 122 0
112 112 0
64 64 0
79 79 0
79 79 0
91 91 0
112 112 0
102 102 0
64 64 0
0 0 0
102 102 0
0 0 0
64 64 0
102 102 0
79 79 0
138 138 0
80 81 0
79 79 0
112 112 0
45 45 0
79 79 0
112 112 0
79 79 0
151 151 0
79 79 0
64 64 0
112 112 0
112 112 0
80 81 0
91 91 0
64 64 0
45 45 0
102 102 0
79 79 0
79 79 0
45 45 0
91 91 0
137 137 0
91 91 0
91 91 0
91 91 0
91 91 0
102 102 0
121 121 0
48 50 0
102 102 0
80 81 0
91 91 0
91 91 0
91 91 0
102 102 0
64 64 0
79 79 0
112 112 0
91 91 0
79 79 0
112 112 0
79 79 0
64 64 0
64 64 0
45 45 0
79 79 0
45 45 0
79 79 0
45 45 0
112 112 0
91 91 0
91 91 0
0 0 0
64 64 0
64 64 0
91 91 0
45 45 0
64 64 0
64 64 0
45 45 0
102 102 0
64 64 0
64 64 0
92 93 0
79 79 0
112 112 0
0 0 0
79 79 0
45 45 0
64 64 0
64 64 0
79 79 0
79 79 0
121 121 0
91 91 0
79 79 0
64 64 0
45 45 0
0 0 0
45 45 0
91 91 0
0 0 0
45 45 0
102 102 0
64 64 0
45 45 0
64 64 0
64 64 0
64 64 0
64 64 0
64 64 0
45 45 0
45 45 0
79 79 0
79 79 0
45 45 0
45 45 0
102 102 0
45 45 0
45 45 0
45 45 0
0 0 0
91 91 0
45 45 0
79 79 0
64 64 0
0 0 0
79 79 0
45 45 0
45 45 0
45 45 0
64 64 0
45 45 0
45 45 0
0 0 0
64 64 0
79 79 0
64 64 0
45 45 0
79 79 0
45 45 0
45 45 0
79 79 0
64 64 0
64 64 0
45 45 0
45 45 0
47 49 0
91 91 0
47 49 0
64 64 0
91 91 0
91 91 0
91 91 0
45 45 0
91 91 0
45 45 0
112 112 0
45 45 0
45 45 0
64 64 0
102 102 0
102 102 0
64 64 0
64 64 0
45 45 0
112 112 0
121 121 0
79 79 0
79 79 0
91 91 0
91 91 0
64 64 0
102 102 0
121 121 0
64 64 0
79 79 0
91 91 0
64 64 0
64 64 0
64 64 0
45 45 0
64 64 0
66 67 0
79 79 0
79 79 0
45 45 0
103 104 0
102 102 0
64 64 0
79 79 0
64 64 0
48 50 0
64 64 0
121 121 0
48 50 0
79 79 0
91 91 0
112 112 0
102 102 0
129 129 0
64 64 0
102 102 0
91 91 0
91 91 0
91 91 0
45 45 0
102 102 0
64 64 0
79 79 0
91 91 0
79 79 0
103 104 0
91 91 0
91 91 0
64 64 0
79 79 0
79 79 0
64 64 0
112 112 0
121 121 0
137 137 0
102 102 0
121 121 0
102 102 0
121 122 0
64 64 0
79 79 0
129 129 0
79 79 0
102 102 0
102 102 0
137 137 0
79 79 0
79 79 0
129 129 0
129 129 0
103 104 0
102 102 0
91 91 0
91 91 0
112 112 0
64 64 0
66 67 0
0 0 0
79 79 0
91 91 0
79 79 0
91 91 0
67 69 0
112 112 0
79 79 0
102 102 0
92 93 0
112 112 0
91 91 0
91 91 0
112 113 0
45 45 0
102 102 0
45 45 0
130 132 0
79 79 0
64 64 0
64 64 0
0 0 0
47 49 0
66 67 0
64 64 0
103 104 0
50 54 0
20 28 0
14 20 0
20 29 0
0 0 0
20 29 0
20 30 0
14 20 0
25 35 0
4 8 0
25 35 0
20 28 0
20 28 0
14 20 0
20 28 0
20 28 0
28 40 0
0 0 0
4 8 0
20 28 0
35 50 0
0 0 0
14 20 0
14 20 0
20 28 0
32 46 0
0 0 0
25 36 0
0 0 0
0 0 0
0 0 0
20 30 0
14 20 0
20 28 0
32 45 0
14 20 0
0 0 0
25 35 0
14 20 0
14 20 0
25 35 0
0 0 0
20 30 0
28 40 0
0 0 0
25 35 0
28 40 0
25 35 0
0 0 0
14 20 0
20 28 0
0 0 0
20 28 0
20 28 0
0 0 0
20 28 0
0 0 0
25 35 0
20 28 0
14 20 0
14 20 0
15 22 0
20 30 0
0 0 0
15 22 0
14 20 0
20 28 0
20 30 0
14 20 0
25 35 0
0 0 0
14 20 0
25 35 0
0 0 0
14 20 0
14 20 0
20 28 0
25 35 0
20 28 0
14 20 0
14 20 0
25 36 0
20 30 0
4 8 0
14 20 0
4 8 0
14 20 0
20 28 0
0 0 0
14 20 0
20 28 0
25 35 0
4 8 0
14 20 0
14 20 0
14 20 0
45 45 0
47 49 0
45 45 0
80 81 0
64 65 0
79 79 0
79 79 0
79 79 0
103 104 0
112 112 0
79 79 0
121 121 0
64 65 0
79 79 0
102 102 0
112 112 0
79 79 0
79 79 0
64 64 0
102 102 0
112 112 0
64 64 0
102 102 0
64 64 0
91 91 0
91 91 0
45 45 0
91 91 0
79 79 0
64 64 0
121 121 0
103 104 0
64 64 0
91 91 0
121 121 0
91 91 0
112 112 0
102 102 0
79 79 0
91 91 0
129 129 0
91 91 0
129 129 0
64 64 0
79 79 0
102 102 0
122 123 0
91 91 0
64 64 0
64 64 0
80 81 0
91 91 0
64 64 0
102 102 0
102 102 0
45 45 0
112 112 0
102 102 0
79 79 0
92 93 0
79 79 0
91 91 0
64 64 0
48 50 0
103 104 0
112 112 0
129 129 0
64 64 0
102 102 0
45 45 0
102 102 0
91 91 0
91 91 0
91 91 0
64 64 0
91 91 0
79 79 0
64 64 0
79 79 0
91 91 0
91 91 0
91 91 0
91 91 0
91 91 0
45 45 0
79 79 0
45 45 0
79 79 0
79 79 0
103 104 0
64 64 0
91 91 0
79 79 0
112 112 0
91 91 0
79 79 0
91 91 0
64 64 0
91 91 0
79 79 0
91 91 0
79 79 0
64 64 0
64 64 0
64 64 0
64 64 0
64 64 0
64 64 0
45 45 0
64 64 0
79 79 0
45 45 0
79 79 0
64 64 0
64 64 0
45 45 0
45 45 0
79 79 0
79 79 0
91 91 0
91 91 0
45 45 0
0 0 0
64 64 0
64 64 0
64 64 0
79 79 0
79 79 0
64 64 0
14 20 0
64 64 0
45 45 0
47 49 0
79 79 0
0 0 0
91 91 0
0 0 0
45 45 0
64 64 0
64 64 0
64 64 0
79 79 0
0 0 0
64 64 0
64 64 0
45 45 0
64 64 0
64 64 0
79 79 0
0 0 0
45 45 0
64 64 0
45 45 0
45 45 0
79 79 0
79 79 0
64 64 0
45 45 0
45 45 0
0 0 0
0 0 0
79 79 0
0 0 0
45 45 0
64 64 0
0 0 0
45 45 0
79 79 0
0 0 0
45 45 0
64 64 0
0 0 0
45 45 0
64 64 0
79 79 0
64 64 0
45 45 0
64 64 0
0 0 0
79 79 0
91 91 0
92 93 0
102 102 0
0 0 0
45 45 0
79 79 0
91 91 0
45 45 0
45 45 0
64 64 0
102 102 0
79 79 0
45 45 0
45 45 0
45 45 0
79 79 0
91 91 0
64 64 0
91 91 0
79 79 0
91 91 0
64 64 0
64 64 0
112 112 0
47 49 0
64 64 0
121 122 0
121 121 0
64 64 0
91 91 0
91 91 0
112 112 0
45 45 0
91 91 0
121 121 0
103 104 0
45 45 0
129 129 0
121 121 0
102 102 0
91 91 0
64 64 0
80 81 0
79 79 0
137 137 0
64 64 0
91 91 0
91 91 0
64 64 0
64 64 0
64 64 0
45 45 0
91 91 0
112 112 0
129 129 0
121 121 0
79 79 0
102 102 0
64 64 0
64 64 0
121 121 0
91 91 0
91 91 0
91 91 0
112 112 0
79 79 0
45 45 0
112 112 0
66 67 0
45 45 0
122 122 0
79 79 0
91 91 0
91 91 0
129 129 0
64 64 0
64 64 0
112 112 0
112 112 0
112 112 0
64 64 0
79 79 0
91 91 0
112 112 0
64 64 0
0 0 0
112 112 0
112 112 0
91 91 0
79 79 0
112 112 0
47 49 0
64 64 0
102 102 0
103 104 0
112 112 0
64 64 0
102 102 0
112 112 0
80 81 0
92 93 0
103 104 0
91 91 0
121 122 0
91 91 0
93 95 0
64 65 0
103 104 0
79 79 0
144 144 0
79 79 0
91 91 0
45 45 0
64 64 0
64 64 0
80 81 0
64 64 0
45 45 0
67 69 0
45 45 0
64 64 0
45 45 0
66 67 0
12 18 0
47 49 0
48 50 0
14 20 0
14 20 0
14 20 0
28 40 0
20 28 0
25 35 0
14 20 0
25 35 0
25 36 0
25 35 0
0 0 0
14 20 0
28 40 0
4 8 0
25 35 0
0 0 0
0 0 0
28 40 0
4 8 0
32 45 0
0 0 0
14 20 0
20 28 0
14 20 0
20 28 0
0 0 0
14 20 0
0 0 0
20 28 0
14 20 0
0 0 0
14 20 0
25 35 0
28 40 0
14 20 0
32 45 0
20 28 0
14 20 0
14 20 0
28 40 0
32 45 0
20 28 0
25 35 0
25 35 0
29 41 0
20 28 0
14 20 0
25 35 0
25 35 0
14 20 0
0 0 0
20 28 0
20 28 0
20 28 0
25 36 0
14 20 0
32 45 0
20 28 0
25 35 0
0 0 0
20 28 0
7 14 0
25 35 0
14 20 0
0 0 0
0 0 0
14 20 0
0 0 0
20 28 0
0 0 0
20 28 0
14 20 0
25 35 0
14 20 0
0 0 0
20 28 0
14 20 0
25 35 0
20 28 0
20 28 0
14 20 0
20 28 0
20 28 0
20 28 0
0 0 0
14 20 0
0 0 0
14 20 0
14 20 0
0 0 0
15 22 0
32 45 0
20 28 0
12 18 0
12 18 0
92 93 0
45 45 0
64 64 0
91 91 0
112 113 0
80 81 0
66 67 0
79 79 0
66 67 0
93 95 0
102 102 0
0 0 0
91 91 0
64 64 0
45 45 0
91 91 0
45 45 0
129 129 0
79 79 0
102 102 0
91 91 0
79 79 0
91 91 0
66 67 0
102 102 0
121 121 0
130 130 0
91 91 0
91 91 0
91 91 0
121 121 0
79 79 0
64 64 0
112 112 0
92 93 0
79 79 0
102 102 0
64 64 0
0 0 0
112 112 0
91 91 0
121 121 0
102 102 0
91 91 0
129 129 0
91 91 0
91 91 0
91 91 0
92 93 0
64 64 0
121 121 0
103 104 0
102 102 0
45 45 0
64 64 0
112 112 0
102 102 0
102 102 0
79 79 0
45 45 0
64 64 0
121 121 0
14 20 0
64 64 0
91 91 0
144 144 0
91 91 0
112 112 0
79 79 0
102 102 0
121 121 0
102 102 0
79 79 0
113 114 0
45 45 0
121 121 0
91 91 0
91 91 0
102 102 0
45 45 0
79 79 0
112 112 0
92 93 0
91 91 0
112 112 0
112 112 0
64 64 0
79 79 0
64 64 0
45 45 0
64 64 0
91 91 0
12 18 0
102 102 0
102 102 0
113 114 0
0 0 0
64 64 0
79 79 0
102 102 0
45 45 0
79 79 0
79 79 0
91 91 0
91 91 0
64 64 0
45 45 0
79 79 0
121 121 0
91 91 0
45 45 0
64 64 0
64 64 0
79 79 0
45 45 0
91 91 0
91 91 0
112 112 0
79 79 0
102 102 0
64 64 0
45 45 0
0 0 0
79 79 0
79 79 0
0 0 0
102 102 0
45 45 0
79 79 0
45 45 0
45 45 0
79 79 0
64 64 0
64 64 0
64 64 0
64 64 0
102 102 0
91 91 0
64 64 0
64 64 0
45 45 0
79 79 0
79 79 0
45 45 0
102 102 0
79 79 0
91 91 0
45 45 0
0 0 0
79 79 0
91 91 0
45 45 0
64 64 0
45 45 0
0 0 0
79 79 0
45 45 0
91 91 0
79 79 0
0 0 0
66 67 0
45 45 0
45 45 0
64 64 0
64 64 0
64 64 0
64 64 0
45 45 0
64 64 0
91 91 0
64 64 0
0 0 0
64 64 0
45 45 0
64 64 0
79 79 0
64 64 0
64 64 0
45 45 0
79 79 0
64 64 0
64 64 0
64 64 0
64 64 0
102 102 0
79 79 0
102 102 0
64 64 0
91 91 0
45 45 0
112 112 0
48 50 0
45 45 0
112 112 0
91 91 0
102 102 0
91 91 0
64 64 0
0 0 0
121 121 0
121 121 0
64 64 0
112 112 0
102 102 0
79 79 0
79 79 0
92 93 0
121 121 0
64 64 0
102 102 0
64 64 0
64 64 0
64 64 0
91 91 0
91 91 0
45 45 0
45 46 0
79 79 0
91 91 0
79 79 0
102 102 0
112 112 0
48 50 0
102 102 0
64 64 0
79 79 0
45 45 0
102 102 0
0 0 0
121 121 0
64 64 0
91 91 0
129 129 0
112 112 0
79 79 0
121 121 0
79 79 0
64 64 0
102 102 0
64 64 0
64 64 0
91 91 0
79 79 0
92 93 0
80 81 0
112 112 0
79 79 0
79 79 0
79 79 0
79 79 0
91 91 0
79 79 0
112 112 0
121 121 0
129 129 0
91 91 0
102 102 0
130 130 0
102 102 0
91 91 0
45 45 0
144 144 0
91 91 0
102 102 0
102 102 0
121 121 0
79 79 0
64 64 0
137 137 0
92 93 0
91 91 0
102 102 0
45 45 0
45 45 0
102 102 0
79 79 0
64 64 0
64 64 0
91 91 0
102 102 0
64 64 0
79 79 0
103 104 0
79 79 0
112 112 0
103 104 0
91 91 0
79 79 0
91 91 0
112 112 0
80 81 0
91 91 0
64 64 0
104 105 0
64 64 0
45 45 0
47 49 0
0 0 0
0 0 0
92 93 0
0 0 0
45 45 0
18 25 0
49 52 0
0 0 0
15 22 0
0 0 0
20 28 0
20 30 0
0 0 0
20 28 0
0 0 0
20 28 0
14 20 0
14 20 0
14 20 0
20 28 0
20 28 0
20 28 0
14 20 0
4 8 0
28 40 0
25 35 0
20 28 0
20 28 0
14 20 0
25 36 0
14 20 0
0 0 0
20 28 0
14 20 0
14 20 0
1 4 0
14 20 0
15 22 0
28 40 0
20 28 0
4 8 0
0 0 0
20 28 0
14 20 0
14 20 0
14 20 0
25 35 0
4 8 0
14 20 0
28 40 0
0 0 0
25 35 0
14 20 0
14 20 0
14 20 0
0 0 0
20 28 0
14 20 0
0 0 0
20 28 0
0 0 0
25 35 0
32 45 0
0 0 0
14 20 0
4 8 0
14 20 0
0 0 0
25 37 0
14 20 0
20 28 0
20 28 0
1 3 0
14 20 0
20 28 0
25 35 0
14 20 0
0 0 0
14 20 0
14 20 0
14 20 0
29 41 0
0 0 0
14 20 0
25 35 0
15 23 0
0 0 0
4 8 0
14 20 0
15 22 0
20 28 0
0 0 0
0 0 0
25 35 0
25 35 0
15 22 0
14 20 0
0 0 0
25 35 0
12 18 0
0 0 0
45 45 0
0 0 0
64 64 0
0 0 0
0 0 0
18 25 0
49 52 0
45 45 0
92 93 0
79 79 0
92 93 0
91 91 0
91 91 0
45 45 0
64 64 0
45 45 0
91 91 0
45 45 0
102 102 0
79 79 0
64 64 0
64 64 0
91 91 0
79 79 0
112 112 0
45 45 0
121 121 0
64 64 0
64 64 0
79 79 0
79 79 0
79 79 0
102 102 0
64 64 0
102 102 0
102 102 0
102 102 0
144 144 0
79 79 0
80 81 0
91 91 0
112 112 0
79 79 0
64 64 0
64 64 0
103 104 0
91 91 0
112 112 0
121 121 0
79 79 0
91 91 0
112 112 0
102 102 0
0 0 0
92 93 0
102 102 0
45 45 0
79 79 0
47 49 0
102 102 0
112 113 0
91 91 0
91 91 0
91 91 0
102 102 0
129 129 0
79 79 0
102 102 0
91 91 0
79 79 0
102 102 0
64 64 0
91 91 0
79 79 0
102 102 0
137 137 0
64 64 0
112 112 0
45 45 0
112 112 0
45 45 0
91 91 0
91 91 0
64 64 0
66 67 0
102 102 0
64 64 0
112 112 0
112 112 0
79 79 0
91 91 0
64 64 0
112 112 0
91 91 0
79 79 0
80 81 0
79 79 0
64 64 0
64 64 0
64 64 0
64 64 0
64 64 0
79 79 0
102 102 0
91 91 0
91 91 0
64 64 0
64 64 0
64 64 0
64 64 0
79 79 0
112 112 0
79 79 0
91 91 0
45 45 0
45 45 0
45 45 0
79 79 0
64 64 0
64 64 0
79 79 0
0 0 0
80 81 0
45 45 0
45 45 0
91 91 0
66 67 0
64 64 0
64 64 0
79 79 0
45 45 0
64 64 0
79 79 0
64 64 0
79 79 0
45 45 0
64 64 0
79 79 0
45 45 0
64 64 0
64 64 0
103 104 0
45 45 0
0 0 0
64 64 0
79 79 0
64 64 0
64 64 0
45 45 0
79 79 0
45 45 0
64 64 0
64 64 0
0 0 0
0 0 0
91 91 0
45 45 0
45 45 0
45 45 0
0 0 0
64 64 0
64 64 0
45 45 0
45 45 0
45 45 0
0 0 0
45 45 0
91 91 0
79 79 0
64 64 0
45 45 0
64 64 0
0 0 0
112 112 0
80 81 0
91 91 0
64 64 0
0 0 0
91 91 0
91 91 0
64 64 0
64 64 0
45 45 0
91 91 0
79 79 0
79 79 0
64 64 0
45 45 0
92 93 0
64 64 0
79 79 0
79 79 0
91 91 0
79 79 0
91 91 0
79 79 0
64 64 0
92 93 0
66 67 0
66 67 0
112 112 0
121 121 0
64 64 0
91 91 0
91 91 0
121 121 0
64 64 0
112 112 0
112 113 0
91 91 0
79 79 0
137 137 0
112 112 0
91 91 0
91 91 0
79 79 0
66 67 0
121 121 0
121 121 0
45 45 0
91 91 0
112 112 0
45 45 0
0 0 0
64 64 0
45 45 0
102 102 0
91 91 0
144 144 0
102 102 0
79 79 0
64 64 0
64 64 0
79 79 0
121 121 0
79 79 0
112 112 0
91 91 0
91 91 0
80 81 0
64 64 0
103 104 0
66 67 0
45 45 0
102 102 0
102 102 0
102 102 0
91 91 0
129 129 0
112 112 0
79 79 0
137 137 0
91 91 0
129 129 0
91 91 0
64 64 0
102 102 0
112 112 0
64 64 0
45 45 0
121 121 0
112 112 0
102 102 0
64 64 0
121 121 0
12 18 0
0 0 0
121 121 0
121 122 0
112 112 0
45 45 0
112 112 0
92 93 0
91 91 0
66 67 0
137 137 0
80 81 0
66 67 0
137 137 0
102 102 0
92 93 0
121 121 0
91 91 0
92 93 0
92 93 0
91 91 0
102 102 0
45 45 0
79 79 0
47 49 0
64 64 0
49 52 0
91 91 0
64 64 0
0 0 0
0 0 0
66 67 0
47 49 0
47 49 0
45 45 0
79 79 0
79 79 0
45 45 0
0 0 0
45 45 0
64 64 0
12 18 0
0 0 0
0 0 0
14 20 0
28 40 0
14 20 0
20 28 0
25 35 0
0 0 0
14 20 0
20 28 0
0 0 0
20 28 0
4 8 0
25 35 0
0 0 0
25 35 0
20 28 0
20 28 0
14 20 0
1 3 0
14 20 0
20 28 0
0 0 0
14 20 0
25 35 0
20 28 0
20 30 0
20 28 0
25 35 0
28 40 0
0 0 0
20 28 0
25 36 0
20 30 0
35 50 0
20 28 0
28 40 0
29 41 0
14 20 0
14 20 0
25 35 0
14 20 0
0 0 0
14 20 0
20 28 0
14 20 0
15 22 0
25 35 0
28 40 0
28 40 0
14 20 0
20 30 0
14 20 0
15 22 0
4 8 0
20 28 0
20 28 0
14 20 0
14 20 0
14 20 0
20 28 0
14 20 0
14 20 0
14 20 0
14 20 0
14 20 0
14 20 0
20 28 0
20 28 0
25 35 0
20 28 0
25 35 0
14 20 0
14 20 0
20 28 0
28 40 0
0 0 0
0 0 0
20 28 0
0 0 0
14 20 0
20 28 0
0 0 0
15 22 0
25 35 0
0 0 0
14 20 0
20 30 0
15 22 0
0 0 0
0 0 0
19 27 0
0 0 0
12 18 0
49 52 0
0 0 0
18 25 0
13 19 0
47 49 0
45 45 0
45 45 0
0 0 0
64 64 0
64 64 0
79 79 0
45 45 0
79 79 0
45 45 0
0 0 0
129 129 0
121 122 0
45 45 0
102 102 0
79 79 0
91 91 0
45 45 0
112 113 0
80 81 0
80 81 0
112 112 0
64 64 0
91 91 0
112 112 0
129 129 0
102 102 0
80 81 0
129 129 0
112 112 0
112 112 0
112 112 0
80 81 0
64 65 0
79 79 0
129 129 0
102 102 0
64 64 0
92 93 0
45 45 0
64 64 0
102 102 0
91 91 0
91 91 0
64 64 0
137 137 0
0 0 0
79 79 0
91 91 0
129 129 0
112 112 0
80 81 0
112 112 0
112 112 0
79 79 0
79 79 0
0 0 0
121 121 0
91 91 0
79 79 0
102 102 0
92 93 0
91 91 0
79 79 0
91 91 0
91 91 0
79 79 0
80 81 0
112 112 0
79 79 0
91 91 0
0 0 0
102 102 0
91 91 0
91 91 0
80 81 0
79 79 0
102 102 0
112 112 0
64 64 0
79 79 0
102 102 0
102 102 0
64 64 0
79 79 0
48 50 0
102 102 0
79 79 0
64 64 0
45 45 0
103 104 0
79 79 0
102 102 0
112 113 0
45 45 0
91 91 0
91 91 0
45 45 0
45 45 0
137 137 0
45 45 0
91 91 0
121 121 0
64 64 0
45 45 0
64 64 0
91 91 0
79 79 0
64 64 0
102 102 0
79 79 0
79 79 0
64 64 0
91 91 0
79 79 0
0 0 0
45 45 0
91 91 0
64 64 0
102 102 0
64 64 0
79 79 0
79 79 0
64 64 0
64 64 0
79 79 0
64 64 0
48 50 0
45 45 0
91 91 0
64 64 0
64 64 0
79 79 0
91 91 0
79 79 0
45 45 0
91 91 0
45 45 0
0 0 0
64 64 0
91 91 0
64 64 0
45 45 0
0 0 0
45 45 0
91 91 0
45 45 0
91 91 0
45 45 0
79 79 0
79 79 0
0 0 0
102 102 0
0 0 0
79 79 0
64 64 0
0 0 0
64 64 0
64 64 0
64 64 0
79 79 0
45 45 0
64 64 0
64 64 0
79 79 0
45 45 0
64 64 0
45 45 0
45 45 0
64 64 0
0 0 0
64 64 0
79 79 0
64 64 0
45 45 0
91 91 0
45 45 0
91 91 0
0 0 0
91 91 0
64 64 0
91 91 0
64 64 0
112 112 0
64 64 0
102 102 0
91 91 0
91 91 0
79 79 0
102 102 0
79 79 0
121 121 0
102 102 0
79 79 0
64 64 0
79 79 0
91 91 0
121 121 0
64 64 0
121 121 0
79 79 0
102 102 0
66 67 0
102 102 0
112 112 0
64 64 0
112 112 0
79 79 0
79 79 0
79 79 0
112 112 0
102 102 0
64 64 0
79 79 0
91 91 0
79 79 0
102 102 0
112 112 0
129 129 0
91 91 0
64 64 0
45 45 0
91 91 0
64 64 0
91 91 0
45 45 0
121 121 0
79 79 0
79 79 0
121 121 0
121 121 0
66 67 0
121 121 0
64 64 0
64 64 0
112 112 0
79 79 0
45 45 0
112 112 0
112 113 0
64 64 0
93 95 0
91 91 0
64 64 0
102 102 0
64 64 0
66 67 0
45 45 0
121 121 0
102 102 0
121 121 0
79 79 0
102 102 0
112 112 0
112 112 0
80 81 0
79 79 0
121 121 0
91 91 0
129 129 0
91 91 0
129 129 0
79 79 0
79 79 0
91 91 0
121 122 0
91 91 0
79 79 0
0 0 0
45 45 0
79 79 0
91 91 0
64 64 0
66 67 0
66 67 0
102 102 0
79 79 0
79 79 0
102 102 0
91 91 0
80 81 0
121 122 0
112 112 0
79 79 0
45 45 0
45 45 0
79 79 0
112 112 0
47 49 0
47 49 0
0 0 0
12 18 0
47 49 0
45 45 0
0 0 0
47 49 0
0 0 0
0 0 0
12 18 0
45 45 0
0 0 0
12 18 0
0 0 0
0 0 0
14 20 0
14 20 0
25 35 0
0 0 0
25 36 0
20 28 0
25 35 0
14 20 0
15 22 0
14 20 0
28 40 0
0 0 0
0 0 0
25 36 0
20 28 0
25 35 0
20 28 0
20 28 0
4 8 0
20 28 0
20 28 0
14 20 0
20 28 0
0 0 0
14 20 0
15 22 0
20 28 0
20 28 0
14 20 0
14 20 0
20 28 0
14 20 0
20 28 0
14 20 0
0 0 0
20 28 0
20 28 0
25 35 0
14 20 0
28 40 0
14 20 0
25 35 0
14 20 0
14 20 0
14 20 0
20 28 0
0 0 0
20 28 0
20 28 0
14 20 0
28 40 0
14 20 0
0 0 0
20 28 0
14 20 0
0 0 0
20 28 0
20 28 0
25 35 0
0 0 0
14 20 0
14 20 0
0 0 0
20 28 0
14 20 0
14 20 0
14 20 0
14 20 0
4 8 0
25 36 0
0 0 0
20 28 0
20 28 0
15 23 0
0 0 0
14 20 0
25 36 0
14 20 0
20 28 0
0 0 0
14 20 0
15 22 0
25 35 0
20 28 0
0 0 0
14 20 0
28 40 0
20 28 0
0 0 0
12 18 0
12 18 0
0 0 0
64 64 0
18 25 0
67 69 0
45 45 0
45 45 0
0 0 0
12 18 0
45 45 0
0 0 0
45 45 0
0 0 0
112 112 0
64 64 0
67 69 0
64 65 0
102 102 0
79 79 0
64 64 0
64 64 0
12 18 0
0 0 0
102 102 0
91 91 0
79 79 0
79 79 0
79 79 0
91 91 0
45 45 0
91 91 0
91 91 0
91 91 0
129 129 0
45 45 0
91 91 0
121 121 0
91 91 0
112 112 0
102 102 0
91 91 0
102 102 0
91 91 0
121 121 0
102 102 0
0 0 0
112 112 0
102 102 0
80 81 0
64 64 0
92 93 0
103 104 0
112 112 0
79 79 0
112 113 0
91 91 0
129 129 0
64 64 0
102 102 0
112 112 0
91 91 0
91 91 0
91 91 0
102 102 0
79 79 0
79 79 0
0 0 0
112 112 0
112 112 0
121 121 0
91 91 0
129 129 0
103 104 0
91 91 0
91 91 0
80 81 0
64 64 0
91 91 0
112 112 0
113 114 0
91 91 0
79 79 0
79 79 0
102 102 0
91 91 0
112 112 0
79 79 0
121 121 0
112 112 0
79 79 0
64 64 0
79 79 0
79 79 0
112 112 0
79 79 0
64 64 0
64 64 0
79 79 0
92 93 0
79 79 0
91 91 0
64 64 0
64 64 0
64 64 0
91 91 0
79 79 0
91 91 0
79 79 0
91 91 0
64 64 0
64 64 0
0 0 0
79 79 0
64 64 0
64 64 0
79 79 0
45 45 0
80 81 0
0 0 0
64 64 0
121 121 0
66 67 0
112 112 0
79 79 0
79 79 0
45 45 0
64 64 0
79 79 0
64 64 0
91 91 0
48 50 0
79 79 0
80 81 0
64 64 0
64 64 0
64 64 0
112 112 0
45 45 0
0 0 0
79 79 0
79 79 0
64 64 0
79 79 0
79 79 0
64 64 0
0 0 0
79 79 0
79 79 0
45 45 0
45 45 0
45 45 0
45 45 0
102 102 0
64 64 0
0 0 0
79 79 0
45 45 0
0 0 0
45 45 0
79 79 0
0 0 0
91 91 0
45 45 0
79 79 0
79 79 0
0 0 0
45 45 0
64 64 0
91 91 0
80 81 0
102 102 0
0 0 0
79 79 0
79 79 0
79 79 0
64 64 0
79 79 0
45 45 0
79 79 0
79 79 0
121 121 0
0 0 0
45 45 0
80 81 0
91 91 0
45 45 0
91 91 0
91 91 0
64 64 0
102 102 0
79 79 0
64 64 0
91 91 0
79 79 0
79 79 0
102 102 0
121 121 0
64 64 0
64 64 0
102 102 0
112 112 0
91 91 0
112 112 0
137 138 0
64 64 0
79 79 0
129 129 0
102 102 0
112 112 0
79 79 0
64 64 0
80 81 0
129 129 0
129 129 0
45 45 0
102 102 0
91 91 0
45 45 0
0 0 0
64 64 0
64 64 0
102 102 0
121 121 0
112 112 0
91 91 0
91 91 0
91 91 0
79 79 0
102 102 0
129 129 0
64 64 0
112 112 0
102 102 0
45 45 0
102 102 0
47 49 0
103 104 0
45 45 0
64 64 0
91 91 0
112 112 0
102 102 0
121 121 0
121 121 0
91 91 0
102 102 0
129 129 0
79 79 0
129 129 0
64 64 0
102 102 0
112 112 0
79 79 0
0 0 0
91 91 0
129 129 0
91 91 0
79 79 0
121 121 0
112 112 0
0 0 0
79 79 0
130 130 0
112 112 0
91 91 0
102 102 0
103 104 0
112 113 0
64 64 0
79 79 0
121 121 0
104 105 0
91 91 0
129 129 0
91 91 0
80 81 0
112 112 0
64 64 0
79 79 0
91 91 0
91 91 0
79 79 0
64 64 0
79 79 0
0 0 0
102 102 0
91 91 0
66 67 0
45 45 0
45 45 0
66 67 0
92 93 0
64 64 0
0 0 0
79 79 0
64 64 0
91 91 0
66 67 0
64 64 0
45 45 0
12 18 0
0 0 0
45 45 0
12 18 0
45 45 0
0 0 0
0 0 0
0 0 0
0 0 0
0 0 0
0 0 0
20 28 0
0 0 0
0 0 0
1 3 0
0 0 0
0 0 0
14 20 0
20 28 0
14 20 0
20 28 0
14 20 0
20 28 0
0 0 0
25 35 0
20 28 0
20 28 0
25 36 0
29 41 0
25 36 0
14 20 0
20 28 0
20 28 0
14 20 0
20 28 0
14 20 0
32 46 0
20 28 0
25 35 0
28 40 0
1 3 0
25 35 0
14 20 0
14 20 0
0 0 0
14 20 0
14 20 0
25 35 0
25 35 0
15 22 0
14 20 0
20 30 0
20 28 0
0 0 0
14 20 0
15 23 0
25 35 0
14 20 0
28 40 0
20 29 0
5 11 0
14 20 0
14 20 0
0 0 0
0 1 0
20 28 0
0 0 0
14 20 0
20 28 0
14 20 0
14 20 0
14 20 0
25 35 0
14 20 0
25 35 0
25 35 0
20 28 0
14 20 0
0 0 0
25 35 0
14 20 0
0 0 0
20 28 0
14 20 0
20 28 0
20 28 0
0 0 0
14 20 0
20 28 0
25 36 0
20 28 0
14 20 0
0 0 0
28 40 0
20 28 0
4 8 0
25 35 0
0 0 0
0 0 0
0 0 0
0 0 0
12 18 0
45 45 0
45 45 0
45 45 0
0 0 0
47 49 0
47 49 0
47 49 0
45 45 0
12 18 0
0 0 0
82 85 0
0 0 0
45 45 0
64 64 0
64 64 0
80 81 0
64 64 0
92 93 0
91 91 0
64 64 0
91 91 0
92 93 0
137 137 0
102 102 0
64 64 0
92 93 0
129 129 0
80 81 0
91 91 0
47 49 0
64 64 0
45 45 0
79 79 0
91 91 0
64 64 0
102 102 0
79 79 0
64 64 0
79 79 0
91 91 0
91 91 0
79 79 0
103 104 0
79 79 0
91 91 0
91 91 0
45 45 0
64 64 0
112 112 0
79 79 0
137 137 0
129 129 0
112 112 0
102 102 0
80 81 0
112 113 0
91 91 0
91 91 0
151 151 0
45 45 0
102 102 0
79 79 0
112 112 0
64 64 0
112 112 0
64 64 0
79 79 0
91 91 0
79 79 0
92 93 0
102 102 0
112 112 0
91 91 0
79 79 0
45 45 0
102 102 0
112 112 0
45 45 0
64 64 0
91 91 0
91 91 0
121 121 0
144 144 0
45 45 0
121 121 0
79 79 0
64 64 0
45 45 0
165 165 0
79 79 0
102 102 0
112 112 0
79 79 0
102 102 0
64 64 0
64 64 0
79 79 0
102 102 0
91 91 0
64 64 0
102 102 0
64 64 0
79 79 0
79 79 0
45 45 0
64 64 0
129 129 0
79 79 0
64 64 0
64 64 0
91 91 0
79 79 0
79 79 0
64 64 0
64 64 0
45 45 0
79 79 0
79 79 0
91 91 0
45 45 0
91 91 0
64 64 0
79 79 0
91 91 0
64 64 0
64 64 0
79 79 0
66 67 0
45 45 0
112 112 0
64 64 0
45 45 0
0 0 0
79 79 0
91 91 0
112 112 0
79 79 0
64 64 0
102 102 0
64 64 0
0 0 0
0 0 0
64 64 0
64 64 0
79 79 0
79 79 0
91 91 0
45 45 0
45 45 0
91 91 0
64 64 0
45 45 0
45 45 0
79 79 0
92 93 0
64 64 0
102 102 0
45 45 0
91 91 0
64 64 0
64 64 0
79 79 0
64 64 0
45 45 0
91 91 0
45 45 0
79 79 0
64 64 0
79 79 0
0 0 0
79 79 0
45 45 0
45 45 0
64 64 0
64 64 0
79 79 0
64 64 0
64 64 0
0 0 0
91 91 0
47 49 0
91 91 0
64 64 0
102 102 0
64 64 0
91 91 0
0 0 0
112 112 0
64 64 0
102 102 0
102 102 0
91 91 0
91 91 0
102 102 0
91 91 0
129 129 0
91 91 0
79 79 0
45 45 0
79 79 0
79 79 0
121 121 0
64 64 0
112 112 0
79 79 0
112 112 0
66 67 0
112 112 0
91 91 0
91 91 0
112 112 0
79 79 0
79 79 0
91 91 0
112 112 0
102 102 0
79 79 0
91 91 0
91 91 0
64 64 0
79 79 0
138 138 0
102 102 0
102 102 0
64 64 0
45 45 0
112 112 0
91 91 0
64 64 0
79 79 0
112 112 0
102 102 0
91 91 0
129 129 0
91 91 0
112 112 0
79 79 0
79 79 0
121 121 0
45 45 0
91 91 0
91 91 0
79 79 0
92 93 0
80 81 0
91 91 0
92 93 0
102 102 0
64 64 0
64 64 0
45 45 0
102 102 0
129 129 0
79 79 0
64 64 0
91 91 0
102 102 0
121 121 0
121 121 0
79 79 0
45 45 0
102 102 0
79 79 0
112 112 0
102 102 0
121 122 0
79 79 0
64 65 0
45 45 0
64 64 0
79 79 0
45 45 0
64 64 0
79 79 0
79 79 0
45 45 0
64 64 0
80 81 0
129 129 0
80 81 0
79 79 0
91 91 0
79 79 0
79 79 0
91 91 0
91 91 0
45 45 0
64 64 0
91 91 0
91 91 0
66 67 0
103 104 0
0 0 0
12 18 0
18 25 0
45 45 0
0 0 0
45 45 0
12 18 0
12 18 0
0 0 0
0 0 0
0 0 0
12 18 0
12 18 0
0 0 0
12 18 0
12 18 0
18 25 0
0 0 0
14 21 0
25 35 0
28 40 0
14 20 0
20 28 0
0 0 0
25 35 0
4 8 0
4 8 0
14 20 0
0 0 0
0 0 0
14 20 0
14 20 0
14 20 0
14 20 0
25 35 0
14 20 0
20 28 0
14 20 0
14 20 0
14 20 0
25 35 0
14 20 0
14 20 0
0 0 0
20 28 0
20 28 0
20 28 0
0 0 0
25 35 0
20 28 0
20 28 0
14 20 0
20 28 0
14 20 0
20 28 0
14 20 0
14 20 0
25 35 0
14 20 0
0 0 0
14 20 0
14 20 0
14 20 0
28 40 0
4 8 0
20 28 0
0 0 0
14 20 0
14 20 0
25 35 0
20 28 0
25 35 0
0 0 0
14 20 0
0 0 0
0 0 0
20 28 0
0 0 0
25 35 0
25 36 0
5 11 0
20 28 0
25 35 0
0 0 0
20 28 0
20 28 0
14 20 0
1 3 0
25 36 0
14 20 0
20 28 0
14 20 0
0 0 0
25 35 0
25 35 0
20 28 0
0 0 0
0 0 0
20 29 0
25 35 0
14 20 0
0 0 0
18 25 0
0 0 0
12 18 0
18 25 0
0 0 0
12 18 0
12 18 0
0 0 0
12 18 0
12 18 0
0 0 0
0 0 0
47 49 0
45 45 0
45 45 0
79 79 0
13 19 0
0 0 0
64 64 0
45 45 0
67 69 0
80 81 0
66 67 0
66 67 0
79 79 0
0 0 0
45 45 0
112 113 0
45 45 0
45 45 0
64 64 0
79 79 0
102 102 0
91 91 0
64 64 0
112 113 0
79 79 0
79 79 0
79 79 0
79 79 0
64 64 0
79 79 0
102 102 0
79 79 0
112 112 0
91 91 0
91 91 0
79 79 0
80 81 0
112 112 0
129 129 0
79 79 0
112 112 0
102 102 0
129 129 0
121 122 0
64 64 0
79 79 0
79 79 0
64 64 0
64 64 0
91 91 0
64 64 0
80 81 0
79 79 0
121 121 0
144 144 0
79 79 0
121 121 0
91 91 0
112 112 0
66 67 0
64 64 0
102 102 0
102 102 0
91 91 0
102 102 0
45 45 0
102 102 0
112 112 0
112 112 0
112 112 0
64 64 0
129 129 0
102 102 0
64 64 0
91 91 0
79 79 0
79 79 0
91 91 0
0 0 0
79 79 0
91 91 0
102 102 0
45 45 0
79 79 0
79 79 0
64 64 0
79 79 0
91 91 0
45 45 0
137 137 0
79 79 0
64 64 0
64 64 0
45 45 0
64 64 0
64 64 0
91 91 0
79 79 0
79 79 0
91 91 0
79 79 0
0 0 0
91 91 0
129 129 0
66 67 0
79 79 0
102 102 0
102 102 0
79 79 0
45 45 0
79 79 0
79 79 0
102 102 0
64 64 0
79 79 0
91 91 0
64 64 0
64 64 0
64 64 0
121 121 0
45 45 0
0 0 0
64 64 0
64 64 0
64 64 0
79 79 0
79 79 0
45 45 0
0 0 0
64 64 0
79 79 0
45 45 0
91 91 0
79 79 0
64 64 0
91 91 0
79 79 0
45 45 0
64 64 0
0 0 0
79 79 0
64 64 0
112 112 0
66 67 0
79 79 0
91 91 0
45 45 0
79 79 0
45 45 0
45 45 0
64 64 0
91 91 0
45 45 0
91 91 0
0 0 0
79 79 0
64 64 0
91 91 0
64 64 0
79 79 0
45 45 0
64 64 0
79 79 0
121 121 0
0 0 0
45 45 0
64 64 0
91 91 0
45 45 0
91 91 0
79 79 0
64 64 0
102 102 0
64 64 0
64 64 0
103 104 0
79 79 0
79 79 0
91 91 0
112 112 0
79 79 0
79 79 0
112 112 0
102 102 0
91 91 0
112 112 0
130 130 0
64 64 0
79 79 0
121 121 0
102 102 0
102 102 0
79 79 0
64 64 0
80 81 0
121 121 0
129 129 0
64 64 0
102 102 0
102 102 0
45 45 0
0 0 0
64 64 0
64 64 0
112 112 0
121 121 0
91 91 0
64 64 0
91 91 0
64 64 0
102 102 0
102 102 0
137 137 0
0 0 0
112 112 0
91 91 0
64 64 0
91 91 0
79 79 0
103 104 0
45 45 0
64 64 0
112 112 0
91 91 0
112 112 0
79 79 0
121 121 0
129 129 0
79 79 0
137 137 0
91 91 0
121 122 0
91 91 0
102 102 0
91 91 0
121 121 0
45 45 0
79 79 0
121 121 0
91 91 0
91 91 0
79 79 0
137 137 0
80 81 0
45 45 0
129 129 0
122 124 0
79 79 0
121 121 0
103 104 0
104 105 0
102 102 0
45 45 0
112 112 0
102 102 0
91 91 0
92 93 0
137 137 0
47 49 0
129 129 0
79 79 0
79 79 0
112 112 0
79 79 0
64 64 0
102 102 0
64 64 0
91 91 0
79 79 0
91 91 0
80 81 0
64 64 0
0 0 0
66 67 0
112 113 0
45 46 0
79 79 0
80 81 0
79 79 0
0 0 0
66 67 0
102 102 0
64 64 0
102 102 0
79 79 0
12 18 0
0 0 0
64 64 0
0 0 0
47 49 0
45 45 0
12 18 0
12 18 0
12 18 0
0 0 0
0 0 0
12 18 0
18 25 0
0 0 0
12 18 0
0 0 0
0 0 0
12 18 0
18 25 0
0 0 0
18 25 0
20 28 0
14 20 0
14 20 0
0 0 0
20 28 0
14 20 0
25 36 0
28 40 0
21 32 0
20 28 0
20 28 0
15 22 0
14 20 0
20 28 0
14 20 0
25 35 0
25 35 0
25 35 0
14 20 0
0 0 0
20 28 0
0 0 0
20 28 0
0 0 0
20 28 0
28 40 0
20 28 0
14 20 0
14 20 0
0 0 0
0 0 0
20 28 0
25 35 0
15 23 0
25 35 0
28 40 0
29 41 0
14 20 0
20 30 0
14 20 0
0 0 0
14 20 0
0 0 0
20 28 0
14 20 0
0 0 0
25 36 0
0 0 0
0 0 0
0 0 0
20 28 0
14 20 0
25 36 0
14 20 0
14 20 0
14 20 0
14 20 0
25 35 0
14 20 0
15 22 0
25 36 0
0 0 0
20 28 0
0 0 0
15 22 0
0 0 0
14 20 0
14 20 0
20 28 0
0 0 0
28 40 0
20 28 0
0 0 0
20 28 0
25 35 0
25 35 0
15 22 0
14 20 0
25 35 0
20 28 0
0 0 0
0 0 0
12 18 0
0 0 0
0 0 0
0 0 0
12 18 0
0 0 0
0 0 0
12 18 0
45 45 0
12 18 0
45 45 0
47 49 0
0 0 0
64 64 0
45 45 0
0 0 0
12 18 0
64 64 0
0 0 0
68 72 0
47 49 0
80 81 0
0 0 0
64 64 0
47 49 0
91 91 0
93 95 0
0 0 0
92 93 0
91 91 0
121 121 0
91 91 0
92 93 0
91 91 0
66 67 0
64 64 0
66 67 0
129 129 0
79 79 0
91 91 0
121 121 0
79 79 0
92 93 0
91 91 0
79 79 0
112 112 0
121 121 0
79 79 0
91 91 0
79 79 0
102 102 0
112 113 0
121 121 0
66 67 0
64 64 0
66 67 0
79 79 0
64 64 0
92 93 0
79 79 0
64 64 0
91 91 0
91 91 0
121 121 0
80 81 0
66 67 0
112 112 0
45 45 0
102 102 0
129 129 0
129 129 0
92 93 0
102 102 0
102 102 0
91 91 0
45 45 0
91 91 0
102 102 0
91 91 0
112 112 0
121 121 0
91 91 0
79 79 0
102 102 0
79 79 0
64 64 0
91 91 0
79 79 0
112 112 0
48 50 0
91 91 0
64 64 0
112 113 0
112 112 0
91 91 0
64 64 0
102 102 0
79 79 0
64 64 0
121 121 0
64 64 0
64 64 0
79 79 0
102 102 0
64 64 0
79 79 0
64 64 0
102 102 0
45 45 0
45 45 0
91 91 0
91 91 0
102 102 0
64 64 0
79 79 0
102 102 0
64 64 0
79 79 0
64 64 0
64 64 0
112 112 0
79 79 0
102 102 0
0 0 0
102 102 0
91 91 0
0 0 0
45 45 0
79 79 0
64 64 0
102 102 0
102 102 0
64 64 0
64 64 0
64 64 0
102 102 0
79 79 0
47 49 0
79 79 0
45 45 0
79 79 0
64 64 0
64 64 0
79 79 0
79 79 0
45 45 0
64 64 0
64 64 0
91 91 0
64 64 0
0 0 0
91 91 0
121 121 0
79 79 0
45 45 0
64 64 0
79 79 0
79 79 0
45 45 0
79 79 0
79 79 0
64 64 0
102 102 0
64 64 0
102 102 0
64 64 0
64 64 0
112 112 0
79 79 0
64 64 0
91 91 0
64 64 0
79 79 0
79 79 0
64 64 0
64 64 0
64 64 0
45 45 0
45 45 0
79 79 0
45 45 0
79 79 0
0 0 0
64 64 0
0 0 0
91 91 0
45 45 0
64 64 0
45 45 0
102 102 0
64 64 0
79 79 0
45 45 0
112 112 0
79 79 0
112 112 0
102 102 0
79 79 0
102 102 0
91 91 0
91 91 0
129 129 0
91 91 0
79 79 0
64 64 0
79 79 0
79 79 0
112 112 0
79 79 0
121 121 0
79 79 0
129 129 0
91 91 0
102 102 0
91 91 0
79 79 0
121 121 0
79 79 0
80 81 0
91 91 0
102 102 0
112 112 0
79 79 0
79 79 0
91 91 0
79 79 0
91 91 0
145 146 0
79 79 0
121 121 0
79 79 0
45 45 0
102 102 0
102 102 0
79 79 0
91 91 0
102 102 0
112 112 0
112 112 0
102 102 0
91 91 0
102 102 0
79 79 0
79 79 0
102 102 0
19 27 0
91 91 0
91 91 0
113 114 0
47 49 0
93 95 0
91 91 0
121 121 0
64 64 0
79 79 0
0 0 0
79 79 0
102 102 0
91 91 0
121 121 0
79 79 0
91 91 0
91 91 0
112 112 0
112 112 0
64 64 0
79 79 0
102 102 0
79 79 0
79 79 0
144 144 0
112 113 0
64 64 0
64 64 0
79 79 0
79 79 0
64 64 0
79 79 0
64 64 0
102 102 0
64 64 0
64 64 0
91 91 0
91 91 0
49 52 0
102 102 0
79 79 0
91 91 0
64 64 0
79 79 0
45 45 0
79 79 0
12 18 0
91 91 0
64 64 0
12 18 0
45 46 0
0 0 0
22 31 0
0 0 0
45 45 0
12 18 0
49 52 0
0 0 0
0 0 0
0 0 0
3 7 0
12 18 0
18 25 0
0 0 0
12 18 0
13 19 0
22 31 0
0 0 0
0 0 0
0 0 0
12 18 0
12 18 0
12 18 0
0 0 0
14 20 0
0 0 0
0 0 0
14 20 0
4 8 0
25 36 0
0 0 0
14 20 0
25 35 0
14 20 0
20 30 0
20 28 0
20 30 0
25 35 0
25 35 0
15 22 0
14 20 0
0 0 0
0 0 0
0 0 0
14 20 0
32 46 0
14 20 0
1 3 0
25 35 0
14 20 0
20 28 0
0 0 0
21 31 0
14 20 0
0 1 0
20 28 0
20 28 0
14 20 0
14 20 0
14 20 0
20 28 0
14 20 0
20 28 0
4 8 0
14 20 0
14 20 0
20 28 0
28 40 0
20 28 0
0 0 0
15 22 0
0 0 0
14 20 0
20 28 0
14 20 0
14 20 0
14 20 0
15 22 0
20 28 0
5 11 0
20 28 0
0 0 0
20 28 0
14 20 0
20 28 0
0 0 0
14 20 0
20 30 0
20 28 0
20 28 0
14 20 0
14 20 0
28 40 0
0 0 0
0 0 0
0 0 0
14 20 0
25 35 0
14 20 0
14 20 0
5 11 0
0 0 0
0 0 0
3 7 0
12 18 0
0 0 0
0 0 0
12 18 0
3 7 0
12 18 0
18 25 0
18 25 0
0 0 0
0 0 0
45 45 0
0 0 0
0 0 0
18 25 0
0 0 0
45 45 0
0 0 0
45 45 0
12 18 0
45 45 0
66 67 0
45 45 0
79 79 0
64 64 0
103 104 0
67 69 0
45 45 0
45 45 0
66 67 0
79 79 0
66 67 0
45 45 0
64 64 0
102 102 0
47 49 0
91 91 0
79 79 0
129 129 0
79 79 0
64 64 0
79 79 0
121 121 0
91 91 0
64 64 0
79 79 0
112 113 0
112 112 0
91 91 0
79 79 0
64 64 0
64 64 0
45 45 0
102 102 0
79 79 0
64 64 0
112 112 0
112 113 0
129 129 0
45 45 0
91 91 0
113 115 0
64 64 0
64 64 0
112 112 0
79 79 0
91 91 0
129 129 0
66 67 0
103 104 0
121 121 0
129 129 0
102 102 0
79 79 0
137 137 0
129 129 0
79 79 0
79 79 0
91 91 0
79 79 0
91 91 0
66 67 0
64 64 0
79 79 0
91 91 0
64 64 0
91 91 0
102 102 0
79 79 0
64 64 0
91 91 0
80 81 0
137 137 0
64 64 0
64 64 0
79 79 0
64 64 0
45 45 0
91 91 0
79 79 0
45 45 0
91 91 0
91 91 0
64 64 0
91 91 0
121 121 0
112 112 0
64 64 0
112 112 0
80 81 0
91 91 0
79 79 0
79 79 0
91 91 0
102 102 0
91 91 0
112 112 0
102 102 0
79 79 0
79 79 0
64 64 0
102 102 0
102 102 0
0 0 0
79 79 0
79 79 0
79 79 0
45 45 0
64 64 0
64 64 0
0 0 0
64 64 0
79 79 0
48 50 0
102 102 0
102 102 0
64 64 0
45 45 0
64 64 0
64 64 0
64 64 0
45 45 0
91 91 0
91 91 0
91 91 0
112 113 0
45 45 0
91 91 0
45 45 0
45 45 0
64 64 0
79 79 0
79 79 0
79 79 0
102 102 0
45 45 0
64 64 0
45 45 0
79 79 0
102 102 0
79 79 0
45 45 0
45 45 0
79 79 0
79 79 0
102 102 0
80 81 0
45 45 0
45 45 0
0 0 0
79 79 0
91 91 0
79 79 0
91 91 0
45 45 0
64 64 0
64 64 0
91 91 0
79 79 0
64 64 0
91 91 0
112 112 0
79 79 0
64 64 0
112 112 0
112 112 0
102 102 0
64 64 0
151 151 0
92 93 0
45 45 0
91 91 0
121 121 0
112 112 0
79 79 0
79 79 0
64 64 0
121 121 0
129 129 0
79 79 0
91 91 0
112 112 0
64 64 0
0 0 0
64 64 0
79 79 0
102 102 0
79 79 0
121 121 0
79 79 0
79 79 0
91 91 0
79 79 0
91 91 0
112 112 0
102 102 0
79 79 0
121 121 0
112 112 0
0 0 0
121 121 0
47 49 0
112 112 0
64 64 0
79 79 0
121 121 0
112 112 0
102 102 0
102 102 0
112 112 0
91 91 0
79 79 0
129 129 0
91 91 0
129 129 0
102 102 0
102 102 0
64 64 0
129 129 0
45 45 0
79 79 0
121 121 0
102 102 0
91 91 0
80 81 0
137 137 0
66 67 0
64 64 0
129 129 0
129 129 0
79 79 0
121 121 0
91 91 0
103 104 0
91 91 0
45 45 0
121 121 0
91 91 0
112 112 0
102 102 0
121 121 0
64 64 0
80 81 0
66 67 0
91 91 0
121 122 0
91 91 0
91 91 0
112 112 0
79 79 0
64 64 0
79 79 0
102 102 0
64 64 0
79 79 0
45 45 0
79 79 0
104 105 0
64 64 0
66 67 0
91 91 0
0 0 0
45 45 0
80 81 0
91 91 0
102 102 0
64 64 0
102 102 0
79 79 0
45 45 0
64 64 0
45 45 0
64 64 0
45 45 0
66 67 0
0 0 0
49 52 0
64 64 0
0 0 0
12 18 0
0 0 0
12 18 0
0 0 0
47 49 0
0 0 0
0 0 0
0 0 0
0 0 0
0 0 0
0 0 0
0 0 0
18 25 0
0 0 0
0 0 0
0 0 0
12 18 0
0 0 0
1 2 0
0 0 0
0 0 0
0 0 0
12 18 0
15 23 0
14 20 0
14 20 0
15 22 0
14 20 0
0 0 0
14 20 0
20 28 0
25 35 0
14 20 0
14 20 0
25 35 0
14 20 0
20 28 0
15 22 0
14 20 0
28 41 0
0 0 0
15 22 0
14 20 0
32 45 0
29 41 0
20 28 0
21 31 0
20 30 0
20 28 0
14 20 0
20 30 0
0 0 0
0 0 0
0 0 0
14 20 0
0 0 0
25 35 0
15 22 0
20 28 0
0 0 0
14 20 0
0 0 0
20 28 0
25 35 0
14 20 0
14 20 0
14 20 0
25 35 0
15 22 0
0 0 0
25 37 0
14 20 0
20 28 0
20 28 0
14 20 0
0 0 0
0 0 0
14 20 0
14 20 0
0 0 0
20 28 0
25 35 0
14 20 0
20 28 0
20 29 0
14 20 0
20 30 0
14 20 0
20 28 0
28 40 0
14 20 0
0 0 0
14 20 0
20 30 0
15 22 0
15 22 0
0 0 0
0 0 0
4 8 0
0 0 0
12 18 0
0 0 0
18 25 0
12 18 0
12 18 0
0 0 0
0 0 0
18 25 0
0 0 0
0 0 0
0 0 0
0 0 0
0 0 0
0 0 0
0 0 0
12 18 0
0 0 0
66 67 0
12 18 0
0 0 0
64 64 0
45 45 0
45 45 0
45 45 0
45 45 0
92 93 0
45 45 0
47 49 0
47 49 0
79 79 0
80 81 0
64 64 0
47 49 0
92 93 0
64 64 0
91 91 0
79 79 0
102 102 0
102 102 0
64 64 0
45 45 0
102 102 0
102 102 0
79 79 0
91 91 0
102 102 0
112 112 0
112 113 0
91 91 0
66 67 0
64 64 0
103 104 0
79 79 0
129 129 0
102 102 0
79 79 0
47 49 0
0 0 0
91 91 0
91 91 0
112 112 0
45 45 0
45 45 0
112 112 0
79 79 0
64 64 0
121 121 0
102 102 0
102 102 0
64 64 0
121 121 0
66 67 0
121 121 0
137 137 0
45 45 0
79 79 0
121 121 0
45 45 0
130 130 0
112 113 0
79 79 0
103 104 0
103 104 0
45 45 0
91 91 0
91 91 0
121 121 0
79 79 0
79 79 0
102 102 0
79 79 0
102 102 0
102 102 0
79 79 0
91 91 0
91 91 0
102 102 0
129 129 0
79 79 0
79 79 0
113 114 0
103 104 0
64 64 0
102 102 0
91 91 0
45 45 0
102 102 0
64 64 0
64 64 0
102 102 0
102 102 0
0 0 0
102 102 0
91 91 0
129 129 0
66 67 0
45 45 0
64 64 0
79 79 0
64 64 0
64 64 0
79 79 0
79 79 0
91 91 0
79 79 0
79 79 0
102 102 0
79 79 0
79 79 0
112 112 0
102 102 0
79 79 0
45 45 0
79 79 0
102 102 0
79 79 0
79 79 0
102 102 0
79 79 0
64 64 0
79 79 0
79 79 0
112 112 0
79 79 0
64 64 0
64 64 0
79 79 0
79 79 0
48 50 0
79 79 0
91 91 0
45 45 0
45 45 0
45 45 0
14 20 0
0 0 0
48 50 0
79 79 0
0 0 0
102 102 0
45 45 0
79 79 0
91 91 0
79 79 0
102 102 0
79 79 0
102 102 0
64 64 0
64 64 0
102 102 0
91 91 0
79 79 0
91 91 0
45 45 0
79 79 0
79 79 0
64 64 0
45 45 0
45 45 0
45 45 0
45 45 0
79 79 0
45 45 0
64 64 0
45 45 0
66 67 0
45 45 0
79 79 0
64 64 0
79 79 0
45 45 0
91 91 0
45 45 0
64 64 0
64 64 0
121 121 0
64 64 0
112 112 0
122 122 0
45 45 0
102 102 0
91 91 0
112 112 0
102 102 0
79 79 0
91 91 0
64 64 0
91 91 0
79 79 0
121 121 0
79 79 0
129 129 0
112 112 0
102 102 0
92 93 0
92 93 0
64 64 0
112 112 0
79 79 0
91 91 0
45 45 0
112 112 0
91 91 0
112 112 0
79 79 0
64 64 0
102 102 0
91 91 0
91 91 0
137 137 0
121 121 0
112 112 0
64 64 0
129 129 0
79 79 0
91 91 0
79 79 0
121 121 0
91 91 0
64 64 0
102 102 0
102 102 0
79 79 0
112 112 0
79 79 0
91 91 0
79 79 0
79 79 0
64 64 0
91 91 0
80 81 0
92 93 0
103 104 0
102 102 0
64 64 0
64 64 0
45 45 0
79 79 0
91 91 0
91 91 0
112 112 0
91 91 0
112 112 0
91 91 0
121 121 0
79 79 0
64 64 0
91 91 0
64 64 0
91 91 0
91 91 0
165 165 0
91 91 0
0 0 0
102 102 0
79 79 0
64 64 0
0 0 0
79 79 0
64 64 0
45 45 0
67 69 0
79 79 0
91 91 0
92 93 0
47 49 0
102 102 0
64 64 0
66 67 0
91 91 0
45 45 0
49 52 0
66 67 0
45 45 0
64 64 0
45 45 0
49 52 0
3 7 0
12 18 0
0 0 0
0 0 0
0 0 0
47 49 0
18 25 0
0 0 0
12 18 0
0 0 0
0 0 0
18 25 0
12 18 0
12 18 0
18 26 0
18 25 0
12 18 0
0 0 0
0 0 0
0 0 0
0 0 0
0 0 0
0 0 0
0 0 0
13 19 0
0 0 0
0 0 0
14 20 0
0 0 0
14 20 0
14 20 0
0 0 0
20 28 0
14 20 0
14 20 0
14 20 0
0 0 0
20 28 0
14 20 0
14 20 0
20 29 0
20 28 0
38 54 0
25 36 0
14 20 0
20 29 0
32 45 0
0 0 0
4 8 0
25 36 0
0 0 0
0 0 0
20 29 0
14 20 0
20 28 0
0 0 0
20 28 0
25 35 0
28 40 0
20 28 0
15 22 0
0 0 0
20 28 0
14 20 0
28 40 0
0 0 0
0 0 0
5 11 0
0 0 0
15 23 0
20 28 0
20 30 0
0 0 0
14 20 0
29 41 0
5 11 0
20 28 0
14 20 0
0 0 0
20 28 0
25 35 0
0 0 0
14 20 0
20 28 0
20 30 0
0 0 0
0 0 0
14 20 0
28 40 0
0 0 0
0 0 0
0 0 0
20 28 0
20 28 0
20 28 0
20 28 0
14 20 0
0 0 0
0 0 0
0 0 0
3 7 0
12 18 0
0 0 0
0 0 0
0 0 0
0 0 0
18 25 0
12 18 0
0 0 0
12 18 0
0 0 0
0 0 0
12 18 0
0 0 0
0 0 0
0 0 0
12 18 0
12 18 0
0 0 0
0 0 0
0 0 0
12 18 0
0 0 0
22 31 0
0 0 0
12 18 0
45 45 0
0 0 0
45 45 0
45 45 0
64 64 0
79 79 0
79 79 0
91 91 0
45 45 0
102 102 0
64 64 0
64 64 0
45 45 0
102 102 0
91 91 0
79 79 0
64 64 0
45 45 0
0 0 0
79 79 0
64 64 0
91 91 0
102 102 0
45 45 0
102 102 0
45 45 0
102 102 0
79 79 0
102 102 0
64 64 0
103 104 0
103 104 0
66 67 0
121 121 0
79 79 0
94 96 0
102 102 0
121 121 0
64 64 0
121 121 0
103 104 0
102 102 0
79 79 0
91 91 0
91 91 0
79 79 0
102 102 0
79 79 0
91 91 0
91 91 0
91 91 0
91 91 0
129 129 0
64 64 0
79 79 0
79 79 0
112 112 0
64 64 0
102 102 0
102 102 0
79 79 0
91 91 0
80 81 0
102 102 0
45 45 0
91 91 0
102 102 0
64 64 0
64 64 0
102 102 0
130 130 0
79 79 0
102 102 0
91 91 0
80 81 0
64 64 0
64 64 0
102 102 0
91 91 0
91 91 0
121 121 0
102 102 0
91 91 0
0 0 0
91 91 0
121 121 0
79 79 0
64 64 0
64 64 0
91 91 0
91 91 0
91 91 0
64 64 0
79 79 0
0 0 0
79 79 0
91 91 0
64 64 0
121 121 0
112 112 0
91 91 0
79 79 0
79 79 0
91 91 0
79 79 0
45 45 0
112 112 0
91 91 0
121 121 0
92 93 0
45 45 0
91 91 0
45 45 0
79 79 0
0 0 0
121 121 0
112 112 0
91 91 0
64 64 0
45 45 0
91 91 0
64 64 0
91 91 0
64 64 0
45 45 0
45 45 0
64 64 0
0 0 0
45 45 0
79 79 0
102 102 0
45 45 0
45 45 0
64 64 0
79 79 0
45 45 0
102 102 0
64 64 0
64 64 0
64 64 0
80 81 0
102 102 0
91 91 0
64 64 0
45 45 0
102 102 0
79 79 0
64 64 0
91 91 0
102 102 0
112 112 0
102 102 0
91 91 0
79 79 0
79 79 0
91 91 0
102 102 0
102 102 0
102 102 0
45 45 0
64 64 0
112 112 0
102 102 0
64 64 0
91 91 0
112 112 0
45 45 0
12 18 0
64 64 0
64 64 0
102 102 0
91 91 0
102 102 0
79 79 0
79 79 0
102 102 0
91 91 0
64 64 0
91 91 0
91 91 0
79 79 0
112 112 0
112 112 0
0 0 0
121 121 0
45 45 0
112 112 0
64 64 0
64 64 0
121 121 0
112 112 0
91 91 0
102 102 0
91 91 0
91 91 0
79 79 0
137 137 0
79 79 0
102 102 0
112 112 0
91 91 0
45 45 0
102 102 0
64 64 0
79 79 0
102 102 0
121 121 0
102 102 0
64 64 0
121 121 0
79 79 0
64 64 0
112 112 0
121 121 0
102 102 0
130 130 0
79 79 0
121 121 0
103 104 0
79 79 0
79 79 0
112 112 0
112 112 0
91 91 0
112 112 0
112 113 0
66 67 0
102 102 0
79 79 0
103 104 0
112 113 0
79 79 0
91 91 0
121 121 0
79 79 0
66 67 0
91 91 0
79 79 0
79 79 0
91 91 0
91 91 0
64 64 0
102 102 0
64 64 0
92 93 0
122 122 0
79 79 0
79 79 0
18 25 0
91 91 0
80 81 0
102 102 0
49 52 0
91 91 0
102 102 0
80 81 0
64 64 0
64 64 0
45 45 0
80 81 0
94 96 0
45 45 0
91 91 0
64 64 0
79 79 0
64 64 0
91 91 0
47 49 0
79 79 0
45 45 0
45 45 0
91 91 0
0 0 0
0 0 0
0 0 0
18 25 0
45 45 0
45 45 0
12 18 0
0 0 0
0 0 0
0 0 0
12 18 0
0 0 0
0 0 0
0 0 0
0 0 0
3 7 0
0 0 0
0 0 0
0 0 0
0 0 0
0 0 0
0 0 0
0 0 0
0 0 0
0 0 0
0 0 0
1 2 0
0 0 0
12 18 0
14 21 0
0 0 0
0 0 0
14 20 0
20 28 0
15 22 0
20 28 0
0 0 0
0 0 0
20 28 0
14 20 0
14 20 0
14 20 0
20 28 0
14 20 0
14 20 0
20 30 0
14 20 0
0 0 0
20 28 0
20 28 0
0 0 0
20 28 0
20 28 0
0 0 0
25 35 0
20 28 0
14 20 0
14 20 0
14 20 0
20 30 0
20 28 0
0 0 0
20 28 0
20 28 0
14 20 0
0 0 0
28 40 0
15 22 0
14 20 0
14 20 0
0 0 0
25 35 0
0 0 0
20 28 0
15 22 0
20 28 0
14 20 0
20 28 0
20 28 0
15 23 0
20 28 0
20 28 0
25 35 0
14 20 0
0 0 0
4 8 0
14 20 0
15 22 0
0 0 0
14 20 0
14 20 0
1 3 0
20 30 0
1 3 0
20 28 0
20 28 0
25 35 0
14 20 0
14 20 0
0 0 0
0 0 0
0 0 0
0 0 0
0 0 0
0 0 0
0 0 0
0 0 0
0 0 0
0 0 0
3 7 0
0 0 0
0 0 0
0 0 0
0 0 0
3 7 0
0 0 0
0 0 0
0 0 0
0 0 0
12 18 0
12 18 0
0 0 0
45 45 0
49 52 0
12 18 0
0 0 0
45 46 0
64 64 0
64 64 0
64 64 0
45 45 0
45 45 0
45 45 0
47 49 0
45 45 0
79 79 0
64 64 0
80 81 0
45 45 0
66 67 0
102 102 0
64 64 0
45 45 0
45 45 0
102 102 0
79 79 0
45 45 0
102 102 0
79 79 0
112 113 0
121 122 0
79 79 0
91 91 0
102 102 0
137 138 0
66 67 0
92 93 0
102 102 0
80 81 0
112 112 0
102 102 0
91 91 0
64 64 0
91 91 0
66 67 0
102 102 0
92 93 0
79 79 0
112 112 0
121 121 0
102 102 0
64 64 0
64 64 0
91 91 0
129 129 0
144 144 0
102 102 0
91 91 0
64 64 0
112 112 0
112 112 0
80 81 0
91 91 0
112 112 0
91 91 0
45 45 0
47 49 0
91 91 0
91 91 0
102 102 0
112 112 0
112 112 0
102 102 0
79 79 0
121 121 0
64 64 0
64 64 0
79 79 0
103 104 0
91 91 0
91 91 0
112 112 0
102 102 0
103 104 0
121 121 0
45 45 0
121 121 0
121 121 0
112 112 0
102 102 0
91 91 0
45 45 0
91 91 0
112 112 0
80 81 0
0 0 0
79 79 0
102 102 0
79 79 0
64 64 0
102 102 0
79 79 0
66 67 0
92 93 0
91 91 0
45 45 0
102 102 0
64 64 0
91 91 0
64 64 0
64 64 0
0 0 0
79 79 0
91 91 0
45 45 0
112 112 0
102 102 0
91 91 0
102 102 0
112 112 0
79 79 0
79 79 0
64 64 0
45 45 0
121 121 0
79 79 0
79 79 0
112 112 0
79 79 0
112 112 0
45 45 0
112 112 0
45 45 0
79 79 0
45 45 0
45 45 0
91 91 0
64 64 0
79 79 0
47 49 0
137 137 0
91 91 0
79 79 0
79 79 0
91 91 0
45 45 0
79 79 0
112 112 0
79 79 0
102 102 0
79 79 0
102 102 0
64 64 0
64 64 0
102 102 0
102 102 0
91 91 0
102 102 0
64 64 0
79 79 0
91 91 0
64 64 0
64 64 0
0 0 0
45 45 0
45 45 0
79 79 0
45 45 0
64 64 0
45 45 0
66 67 0
45 45 0
64 64 0
45 45 0
79 79 0
64 64 0
79 79 0
64 64 0
64 64 0
112 112 0
102 102 0
112 112 0
112 112 0
121 121 0
79 79 0
102 102 0
112 112 0
102 102 0
102 102 0
102 102 0
79 79 0
79 79 0
79 79 0
91 91 0
121 121 0
91 91 0
121 121 0
137 137 0
102 102 0
79 79 0
102 102 0
79 79 0
112 112 0
102 102 0
102 102 0
45 45 0
129 129 0
91 91 0
102 102 0
79 79 0
79 79 0
102 102 0
79 79 0
102 102 0
102 102 0
129 129 0
79 79 0
91 91 0
129 129 0
79 79 0
79 79 0
102 102 0
112 112 0
91 91 0
79 79 0
91 91 0
79 79 0
112 112 0
79 79 0
79 79 0
112 112 0
64 64 0
102 102 0
79 79 0
112 112 0
12 18 0
91 91 0
112 113 0
91 91 0
79 79 0
80 81 0
64 64 0
91 91 0
91 91 0
102 102 0
45 45 0
112 112 0
91 91 0
79 79 0
121 121 0
91 91 0
80 81 0
79 79 0
64 64 0
103 104 0
129 129 0
144 144 0
112 112 0
91 91 0
102 102 0
45 45 0
64 64 0
79 79 0
0 0 0
64 64 0
79 79 0
64 64 0
66 67 0
104 105 0
66 67 0
64 64 0
64 64 0
66 67 0
45 45 0
64 64 0
47 49 0
80 81 0
0 0 0
79 79 0
49 52 0
47 49 0
0 0 0
12 18 0
3 7 0
3 7 0
0 0 0
12 18 0
12 18 0
0 0 0
12 18 0
0 0 0
12 18 0
12 18 0
0 0 0
0 0 0
0 0 0
18 25 0
12 18 0
0 0 0
0 0 0
0 0 0
0 0 0
1 2 0
12 18 0
3 7 0
3 7 0
0 0 0
12 18 0
13 19 0
0 1 0
18 25 0
0 0 0
1 4 0
0 0 0
14 20 0
0 0 0
4 8 0
20 28 0
20 30 0
25 35 0
20 28 0
25 35 0
0 0 0
0 0 0
14 20 0
14 20 0
4 8 0
28 40 0
0 0 0
0 0 0
20 28 0
0 0 0
15 22 0
14 20 0
14 20 0
32 46 0
4 8 0
0 0 0
25 35 0
14 20 0
0 0 0
5 11 0
20 28 0
4 8 0
0 0 0
14 20 0
20 30 0
14 20 0
5 11 0
14 20 0
14 20 0
20 28 0
15 23 0
20 30 0
14 20 0
0 0 0
14 20 0
25 35 0
14 20 0
20 28 0
14 20 0
20 30 0
20 28 0
0 0 0
25 35 0
14 20 0
14 20 0
0 0 0
14 20 0
0 0 0
20 28 0
14 20 0
14 20 0
0 0 0
14 20 0
20 30 0
14 20 0
12 18 0
12 18 0
0 0 0
0 0 0
0 0 0
0 0 0
0 0 0
0 0 0
0 0 0
12 18 0
0 0 0
18 25 0
12 18 0
0 0 0
0 0 0
0 0 0
0 0 0
0 0 0
3 7 0
3 7 0
0 0 0
0 0 0
0 0 0
0 0 0
0 0 0
0 0 0
12 18 0
12 18 0
45 45 0
45 45 0
12 18 0
12 18 0
45 45 0
47 49 0
47 49 0
45 45 0
45 45 0
45 45 0
45 45 0
45 45 0
0 0 0
64 64 0
45 45 0
79 79 0
3 7 0
64 64 0
79 79 0
144 144 0
80 81 0
45 45 0
64 64 0
79 79 0
112 112 0
112 113 0
45 45 0
121 121 0
121 121 0
91 91 0
80 81 0
121 121 0
80 81 0
91 91 0
91 91 0
79 79 0
112 112 0
102 102 0
66 67 0
45 45 0
129 129 0
129 129 0
64 64 0
64 64 0
80 81 0
64 64 0
121 121 0
80 81 0
121 121 0
112 113 0
102 102 0
102 102 0
79 79 0
79 79 0
64 64 0
91 91 0
79 79 0
64 64 0
79 79 0
66 67 0
64 64 0
91 91 0
79 79 0
79 79 0
112 112 0
64 64 0
112 112 0
112 112 0
102 102 0
112 112 0
151 151 0
102 102 0
79 79 0
0 0 0
64 64 0
79 79 0
79 79 0
48 50 0
91 91 0
102 102 0
112 112 0
79 79 0
102 102 0
91 91 0
66 67 0
91 91 0
102 102 0
92 93 0
91 91 0
102 102 0
91 91 0
129 129 0
91 91 0
45 45 0
121 121 0
102 102 0
102 102 0
79 79 0
45 45 0
112 112 0
64 64 0
79 79 0
45 45 0
102 102 0
92 93 0
91 91 0
79 79 0
64 64 0
121 121 0
79 79 0
91 91 0
64 64 0
91 91 0
45 45 0
45 45 0
45 45 0
79 79 0
102 102 0
91 91 0
79 79 0
79 79 0
79 79 0
64 64 0
64 64 0
102 102 0
45 45 0
91 91 0
45 45 0
64 64 0
79 79 0
47 49 0
91 91 0
79 79 0
91 91 0
102 102 0
91 91 0
45 45 0
64 64 0
64 64 0
79 79 0
64 64 0
64 64 0
91 91 0
79 79 0
121 121 0
102 102 0
102 102 0
45 45 0
80 81 0
102 102 0
91 91 0
66 67 0
102 102 0
91 91 0
47 49 0
0 0 0
45 45 0
64 64 0
112 112 0
64 64 0
79 79 0
91 91 0
91 91 0
91 91 0
79 79 0
45 45 0
79 79 0
91 91 0
64 64 0
102 102 0
112 112 0
91 91 0
102 102 0
64 64 0
102 102 0
64 64 0
64 64 0
102 102 0
91 91 0
79 79 0
102 102 0
79 79 0
91 91 0
79 79 0
129 129 0
64 64 0
91 91 0
112 112 0
79 79 0
45 45 0
79 79 0
64 64 0
64 64 0
112 112 0
112 112 0
91 91 0
64 64 0
91 91 0
79 79 0
91 91 0
121 121 0
102 102 0
121 121 0
112 112 0
79 79 0
102 102 0
91 91 0
79 79 0
64 64 0
91 91 0
79 79 0
121 121 0
112 112 0
112 112 0
64 64 0
102 102 0
79 79 0
121 121 0
112 112 0
102 102 0
79 79 0
121 121 0
102 102 0
91 91 0
112 112 0
121 121 0
102 102 0
80 81 0
91 91 0
79 79 0
66 67 0
102 102 0
79 79 0
91 91 0
121 121 0
64 64 0
64 64 0
91 91 0
91 91 0
66 67 0
129 129 0
80 81 0
47 49 0
79 79 0
102 102 0
112 112 0
79 79 0
64 64 0
91 91 0
67 69 0
102 102 0
45 45 0
102 102 0
102 102 0
102 102 0
45 45 0
121 122 0
79 79 0
91 91 0
91 91 0
64 64 0
64 64 0
80 81 0
64 64 0
45 45 0
79 79 0
64 64 0
0 0 0
64 64 0
64 64 0
49 52 0
79 79 0
79 79 0
0 0 0
64 64 0
67 69 0
64 64 0
18 25 0
0 0 0
12 18 0
0 0 0
18 26 0
12 18 0
0 0 0
0 0 0
18 25 0
18 25 0
12 18 0
3 7 0
13 21 0
0 0 0
0 0 0
0 0 0
0 0 0
3 7 0
12 18 0
3 7 0
12 18 0
12 18 0
0 0 0
0 0 0
12 18 0
0 0 0
12 18 0
18 25 0
0 0 0
0 0 0
1 2 0
14 20 0
15 22 0
14 20 0
14 20 0
1 3 0
20 28 0
0 0 0
20 28 0
25 35 0
0 0 0
20 28 0
14 20 0
20 28 0
15 22 0
0 0 0
25 35 0
14 20 0
14 20 0
4 8 0
20 28 0
4 8 0
14 20 0
20 28 0
14 20 0
20 28 0
0 0 0
14 20 0
20 28 0
0 0 0
14 20 0
14 20 0
25 35 0
14 20 0
4 8 0
14 20 0
14 20 0
15 22 0
20 30 0
14 20 0
20 29 0
14 20 0
20 28 0
0 0 0
0 0 0
14 20 0
0 0 0
14 20 0
14 20 0
0 0 0
14 20 0
0 0 0
4 8 0
15 23 0
14 20 0
0 0 0
14 20 0
28 40 0
20 30 0
14 20 0
4 8 0
15 22 0
20 30 0
0 0 0
12 18 0
0 0 0
0 0 0
12 18 0
0 0 0
12 18 0
0 0 0
0 0 0
12 18 0
0 0 0
0 0 0
0 0 0
12 18 0
0 0 0
12 18 0
0 0 0
18 25 0
13 19 0
12 18 0
0 0 0
12 18 0
12 18 0
0 0 0
0 0 0
0 0 0
12 18 0
0 0 0
12 18 0
47 49 0
0 0 0
45 45 0
64 64 0
0 0 0
79 79 0
45 45 0
12 18 0
12 18 0
0 0 0
0 0 0
80 81 0
49 52 0
91 91 0
0 0 0
91 91 0
91 91 0
45 45 0
64 64 0
64 64 0
80 81 0
79 79 0
45 45 0
79 79 0
64 64 0
64 64 0
47 49 0
0 0 0
92 93 0
91 91 0
102 102 0
91 91 0
102 102 0
91 91 0
79 79 0
79 79 0
45 45 0
91 91 0
79 79 0
79 79 0
79 79 0
103 104 0
102 102 0
64 64 0
112 112 0
103 104 0
79 79 0
91 91 0
64 64 0
102 102 0
91 91 0
102 102 0
79 79 0
91 91 0
112 112 0
102 102 0
112 112 0
92 93 0
102 102 0
121 121 0
102 102 0
91 91 0
91 91 0
112 112 0
64 64 0
137 137 0
91 91 0
64 64 0
64 64 0
102 102 0
112 112 0
102 102 0
64 64 0
112 112 0
102 102 0
80 81 0
91 91 0
112 112 0
79 79 0
121 121 0
91 91 0
79 79 0
129 129 0
121 121 0
121 121 0
102 102 0
79 79 0
112 112 0
79 79 0
112 112 0
92 93 0
137 137 0
102 102 0
91 91 0
67 69 0
45 45 0
80 81 0
112 112 0
64 64 0
91 91 0
112 112 0
137 137 0
92 93 0
91 91 0
91 91 0
112 112 0
45 45 0
64 64 0
79 79 0
102 102 0
91 91 0
0 0 0
64 64 0
45 45 0
79 79 0
64 64 0
102 102 0
64 64 0
102 102 0
79 79 0
64 64 0
79 79 0
112 112 0
92 93 0
64 64 0
91 91 0
113 114 0
79 79 0
64 64 0
102 102 0
102 102 0
79 79 0
79 79 0
91 91 0
79 79 0
91 91 0
64 64 0
79 79 0
45 45 0
45 45 0
45 45 0
64 64 0
79 79 0
112 112 0
91 91 0
102 102 0
102 102 0
91 91 0
64 64 0
64 64 0
102 102 0
102 102 0
112 112 0
102 102 0
64 64 0
64 64 0
79 79 0
45 45 0
64 64 0
0 0 0
79 79 0
45 45 0
79 79 0
0 0 0
64 64 0
45 45 0
66 67 0
64 64 0
64 64 0
64 64 0
91 91 0
64 64 0
91 91 0
102 102 0
64 64 0
112 112 0
121 121 0
112 112 0
91 91 0
137 137 0
79 79 0
121 121 0
112 112 0
112 112 0
102 102 0
102 102 0
45 45 0
79 79 0
91 91 0
79 79 0
112 112 0
102 102 0
102 102 0
137 137 0
91 91 0
79 79 0
102 102 0
91 91 0
112 112 0
121 121 0
91 91 0
45 45 0
112 112 0
102 102 0
102 102 0
121 121 0
91 91 0
102 102 0
91 91 0
112 112 0
91 91 0
92 93 0
91 91 0
91 91 0
121 121 0
79 79 0
102 102 0
121 121 0
102 102 0
91 91 0
92 93 0
64 64 0
91 91 0
121 121 0
64 64 0
102 102 0
112 112 0
79 79 0
45 45 0
121 121 0
80 81 0
91 91 0
79 79 0
91 91 0
79 79 0
80 81 0
64 64 0
79 79 0
91 91 0
64 64 0
102 102 0
45 45 0
102 102 0
79 79 0
112 113 0
91 91 0
103 104 0
91 91 0
45 45 0
112 113 0
91 91 0
144 144 0
91 91 0
102 102 0
121 121 0
45 45 0
79 79 0
80 81 0
45 45 0
45 45 0
91 91 0
64 64 0
12 18 0
103 104 0
45 45 0
45 45 0
47 49 0
45 45 0
79 79 0
0 0 0
47 49 0
47 49 0
47 49 0
64 64 0
47 49 0
12 18 0
0 0 0
0 0 0
0 0 0
3 7 0
22 31 0
18 25 0
0 0 0
12 18 0
0 0 0
1 2 0
12 18 0
0 0 0
0 0 0
0 0 0
18 25 0
18 25 0
13 19 0
0 0 0
0 0 0
0 0 0
0 0 0
12 18 0
0 0 0
0 0 0
0 0 0
0 0 0
12 18 0
0 0 0
3 7 0
12 18 0
0 0 0
3 7 0
0 0 0
0 0 0
3 7 0
0 0 0
14 20 0
20 28 0
15 22 0
20 28 0
14 20 0
20 30 0
14 20 0
14 20 0
0 0 0
20 28 0
0 0 0
15 22 0
4 8 0
14 20 0
4 8 0
14 20 0
20 28 0
14 20 0
0 0 0
28 40 0
14 20 0
0 0 0
15 22 0
0 0 0
15 23 0
15 22 0
20 28 0
0 0 0
14 20 0
14 20 0
20 28 0
15 22 0
1 3 0
14 20 0
14 20 0
14 20 0
14 20 0
14 20 0
25 35 0
14 20 0
15 22 0
14 20 0
0 0 0
0 0 0
14 20 0
14 20 0
4 8 0
0 0 0
14 20 0
14 20 0
14 20 0
0 0 0
4 8 0
15 22 0
0 0 0
15 22 0
14 20 0
0 0 0
14 20 0
0 0 0
0 0 0
0 0 0
0 0 0
0 0 0
0 0 0
12 18 0
0 0 0
0 0 0
0 0 0
0 0 0
0 0 0
12 18 0
12 18 0
0 0 0
0 0 0
0 0 0
0 0 0
0 0 0
12 18 0
0 0 0
0 0 0
0 0 0
0 0 0
0 0 0
0 0 0
0 0 0
12 18 0
18 25 0
0 0 0
64 64 0
0 0 0
0 0 0
0 0 0
45 45 0
0 0 0
12 18 0
45 45 0
45 45 0
92 93 0
45 45 0
113 115 0
102 102 0
66 67 0
102 102 0
64 64 0
64 64 0
47 49 0
80 81 0
91 91 0
121 121 0
66 67 0
121 121 0
45 45 0
45 45 0
121 121 0
92 93 0
91 91 0
79 79 0
91 91 0
64 64 0
91 91 0
121 121 0
80 81 0
79 79 0
113 114 0
144 144 0
91 91 0
103 104 0
91 91 0
64 64 0
79 79 0
112 112 0
64 64 0
64 64 0
66 67 0
64 64 0
102 102 0
64 64 0
91 91 0
121 121 0
102 102 0
121 121 0
129 129 0
64 64 0
102 102 0
80 81 0
45 45 0
121 121 0
112 112 0
79 79 0
64 64 0
129 129 0
102 102 0
102 102 0
91 91 0
121 121 0
64 64 0
79 79 0
112 112 0
102 102 0
121 121 0
112 112 0
112 112 0
129 129 0
91 91 0
79 79 0
112 112 0
91 91 0
91 91 0
112 112 0
91 91 0
102 102 0
91 91 0
45 45 0
79 79 0
102 102 0
91 91 0
79 79 0
91 91 0
45 45 0
121 121 0
92 93 0
102 102 0
91 91 0
102 102 0
0 0 0
80 81 0
64 64 0
102 102 0
64 64 0
102 102 0
79 79 0
112 112 0
112 112 0
79 79 0
129 129 0
79 79 0
102 102 0
79 79 0
45 45 0
102 102 0
45 45 0
91 91 0
45 45 0
102 102 0
102 102 0
91 91 0
79 79 0
45 45 0
64 64 0
91 91 0
113 114 0
121 121 0
45 45 0
121 121 0
79 79 0
121 121 0
45 45 0
64 64 0
79 79 0
91 91 0
91 91 0
45 45 0
79 79 0
91 91 0
91 91 0
79 79 0
0 0 0
47 49 0
91 91 0
64 64 0
79 79 0
91 91 0
91 91 0
91 91 0
64 64 0
45 45 0
102 102 0
64 64 0
64 64 0
102 102 0
91 91 0
79 79 0
91 91 0
91 91 0
64 64 0
64 64 0
79 79 0
102 102 0
91 91 0
45 45 0
102 102 0
45 45 0
102 102 0
66 67 0
112 112 0
45 45 0
112 112 0
102 102 0
102 102 0
0 0 0
64 64 0
64 64 0
79 79 0
102 102 0
112 112 0
79 79 0
64 64 0
91 91 0
66 67 0
91 91 0
91 91 0
91 91 0
121 121 0
129 129 0
79 79 0
48 50 0
91 91 0
64 64 0
102 102 0
64 64 0
64 64 0
102 102 0
102 102 0
91 91 0
92 93 0
64 64 0
79 79 0
102 102 0
138 140 0
80 81 0
91 91 0
64 65 0
121 121 0
92 93 0
102 102 0
112 112 0
129 129 0
112 112 0
91 91 0
79 79 0
91 91 0
92 93 0
102 102 0
91 91 0
91 91 0
103 104 0
79 79 0
102 102 0
79 79 0
64 64 0
64 64 0
91 91 0
121 121 0
64 64 0
91 91 0
79 79 0
102 102 0
102 102 0
45 45 0
79 79 0
79 79 0
45 45 0
102 102 0
121 121 0
112 112 0
80 81 0
64 64 0
79 79 0
112 112 0
102 102 0
112 113 0
80 81 0
129 129 0
102 102 0
112 113 0
64 64 0
91 91 0
45 45 0
79 79 0
91 91 0
49 52 0
79 79 0
64 64 0
91 91 0
64 64 0
103 104 0
102 102 0
91 91 0
0 0 0
80 81 0
47 49 0
80 81 0
64 64 0
64 64 0
103 104 0
45 45 0
64 64 0
64 64 0
64 64 0
45 45 0
45 45 0
47 49 0
47 49 0
12 18 0
45 45 0
0 0 0
45 45 0
0 0 0
0 0 0
12 18 0
0 0 0
0 0 0
0 0 0
18 25 0
22 31 0
12 18 0
12 18 0
18 25 0
0 0 0
0 0 0
0 0 0
0 0 0
0 0 0
0 0 0
12 18 0
0 0 0
12 18 0
1 2 0
3 7 0
0 0 0
0 0 0
0 0 0
0 0 0
12 18 0
3 7 0
3 7 0
0 0 0
0 0 0
0 0 0
3 7 0
3 7 0
0 0 0
4 8 0
20 28 0
0 0 0
0 0 0
0 1 0
14 20 0
0 0 0
25 35 0
4 8 0
14 20 0
20 30 0
20 30 0
0 0 0
14 20 0
0 0 0
20 28 0
20 28 0
14 20 0
0 0 0
20 29 0
20 28 0
15 22 0
20 30 0
14 20 0
0 0 0
20 28 0
14 20 0
14 20 0
0 0 0
15 22 0
20 30 0
14 20 0
20 28 0
20 28 0
15 22 0
0 0 0
20 28 0
25 35 0
14 20 0
0 1 0
14 20 0
20 28 0
0 0 0
20 28 0
0 0 0
0 0 0
14 20 0
0 0 0
4 8 0
15 22 0
0 0 0
5 11 0
0 0 0
4 8 0
0 0 0
0 0 0
0 0 0
12 18 0
0 0 0
13 19 0
0 0 0
0 0 0
0 0 0
0 0 0
12 18 0
0 0 0
0 0 0
12 18 0
0 0 0
0 0 0
12 18 0
0 0 0
0 0 0
12 18 0
12 18 0
18 25 0
0 0 0
0 0 0
0 0 0
22 32 0
12 18 0
0 0 0
0 0 0
0 0 0
3 7 0
0 0 0
0 0 0
45 45 0
0 0 0
49 52 0
12 18 0
0 0 0
47 49 0
0 0 0
45 45 0
0 0 0
92 93 0
12 18 0
45 45 0
80 81 0
47 49 0
64 64 0
64 64 0
64 64 0
66 67 0
80 81 0
64 64 0
12 18 0
64 64 0
91 91 0
79 79 0
79 79 0
91 91 0
45 45 0
91 91 0
47 49 0
45 45 0
45 45 0
102 102 0
102 102 0
129 129 0
91 91 0
91 91 0
145 145 0
64 64 0
113 115 0
129 129 0
79 79 0
64 64 0
64 64 0
0 0 0
91 91 0
112 112 0
112 112 0
79 79 0
112 113 0
121 121 0
64 64 0
91 91 0
102 102 0
64 64 0
137 137 0
91 91 0
79 79 0
129 129 0
91 91 0
102 102 0
91 91 0
144 144 0
102 102 0
121 121 0
102 102 0
102 102 0
91 91 0
91 91 0
102 102 0
102 102 0
79 79 0
64 64 0
45 45 0
66 67 0
64 64 0
64 64 0
79 79 0
102 102 0
102 102 0
64 64 0
91 91 0
64 64 0
91 91 0
79 79 0
91 91 0
79 79 0
91 91 0
79 79 0
112 112 0
112 112 0
122 122 0
112 112 0
91 91 0
91 91 0
112 112 0
102 102 0
91 91 0
79 79 0
64 64 0
80 81 0
91 91 0
79 79 0
91 91 0
79 79 0
121 121 0
102 102 0
91 91 0
112 112 0
45 45 0
64 64 0
91 91 0
91 91 0
79 79 0
64 64 0
91 91 0
79 79 0
102 102 0
64 64 0
45 45 0
79 79 0
79 79 0
45 45 0
79 79 0
45 45 0
137 138 0
79 79 0
79 79 0
64 64 0
64 64 0
64 64 0
91 91 0
79 79 0
64 64 0
91 91 0
64 64 0
91 91 0
79 79 0
79 79 0
45 45 0
64 64 0
79 79 0
102 102 0
91 91 0
112 112 0
91 91 0
91 91 0
64 64 0
64 64 0
102 102 0
102 102 0
112 112 0
102 102 0
79 79 0
79 79 0
79 79 0
45 45 0
64 64 0
45 45 0
64 64 0
45 45 0
91 91 0
45 45 0
79 79 0
64 64 0
45 45 0
45 45 0
79 79 0
64 64 0
91 91 0
64 64 0
102 102 0
79 79 0
64 64 0
112 112 0
129 129 0
91 91 0
79 79 0
121 121 0
102 102 0
121 121 0
91 91 0
112 112 0
102 102 0
91 91 0
64 64 0
91 91 0
79 79 0
102 102 0
102 102 0
121 121 0
79 79 0
151 151 0
79 79 0
79 79 0
102 102 0
91 91 0
129 129 0
121 122 0
79 79 0
64 64 0
112 112 0
79 79 0
112 112 0
112 112 0
129 129 0
79 79 0
91 91 0
112 112 0
91 91 0
103 104 0
79 79 0
103 104 0
102 102 0
102 102 0
79 79 0
137 137 0
91 91 0
45 45 0
91 91 0
79 79 0
112 113 0
102 102 0
79 79 0
79 79 0
64 64 0
79 79 0
79 79 0
130 130 0
47 49 0
121 122 0
64 64 0
91 91 0
64 64 0
92 93 0
45 45 0
91 91 0
79 79 0
64 64 0
64 64 0
79 79 0
103 104 0
64 64 0
121 122 0
121 121 0
92 93 0
91 91 0
64 64 0
91 91 0
103 104 0
121 121 0
79 79 0
45 45 0
64 64 0
45 45 0
64 64 0
64 64 0
45 45 0
45 45 0
79 79 0
0 0 0
92 93 0
79 79 0
45 45 0
45 45 0
47 49 0
0 0 0
0 0 0
45 45 0
47 49 0
12 18 0
64 64 0
18 25 0
12 18 0
12 18 0
49 53 0
0 0 0
18 26 0
12 18 0
18 25 0
12 18 0
18 25 0
0 0 0
3 7 0
12 18 0
0 0 0
12 18 0
0 0 0
18 25 0
12 18 0
0 0 0
0 0 0
0 0 0
3 7 0
12 18 0
0 0 0
13 19 0
0 0 0
3 7 0
0 0 0
0 0 0
12 18 0
13 19 0
12 18 0
0 0 0
0 0 0
0 0 0
0 0 0
12 18 0
3 7 0
0 0 0
0 0 0
0 0 0
0 0 0
0 0 0
0 0 0
25 35 0
0 0 0
14 20 0
0 0 0
15 22 0
14 20 0
14 20 0
25 35 0
1 3 0
20 30 0
0 0 0
28 40 0
14 20 0
15 22 0
0 0 0
0 0 0
14 20 0
15 22 0
15 22 0
14 20 0
14 20 0
14 20 0
25 35 0
20 29 0
14 20 0
14 20 0
4 8 0
0 0 0
20 30 0
20 30 0
14 20 0
15 23 0
15 22 0
0 0 0
14 20 0
14 20 0
0 0 0
14 20 0
0 0 0
14 20 0
4 8 0
0 0 0
15 22 0
14 20 0
14 20 0
0 0 0
20 28 0
4 8 0
14 20 0
0 0 0
0 0 0
0 0 0
3 7 0
0 0 0
0 0 0
0 0 0
0 0 0
0 0 0
0 0 0
12 18 0
0 0 0
0 0 0
12 18 0
0 0 0
12 18 0
0 0 0
1 2 0
12 18 0
0 0 0
0 0 0
0 0 0
12 18 0
0 0 0
0 0 0
12 18 0
12 18 0
13 19 0
12 18 0
3 7 0
0 0 0
0 0 0
0 0 0
3 7 0
0 0 0
0 0 0
12 18 0
0 0 0
45 45 0
3 7 0
0 0 0
45 45 0
45 45 0
64 64 0
64 64 0
80 81 0
0 0 0
45 45 0
80 81 0
45 46 0
79 79 0
79 79 0
79 79 0
80 81 0
45 45 0
0 0 0
0 0 0
79 79 0
12 18 0
91 91 0
91 91 0
129 129 0
79 79 0
92 93 0
79 79 0
45 45 0
79 79 0
129 129 0
91 91 0
121 121 0
91 91 0
79 79 0
91 91 0
92 93 0
129 129 0
91 91 0
102 102 0
91 91 0
91 91 0
137 137 0
79 79 0
102 102 0
112 112 0
47 49 0
112 112 0
91 91 0
91 91 0
112 112 0
79 79 0
93 95 0
91 91 0
79 79 0
91 91 0
92 93 0
103 104 0
129 129 0
92 93 0
91 91 0
129 129 0
102 102 0
91 91 0
121 121 0
112 112 0
45 45 0
102 102 0
102 102 0
102 102 0
79 79 0
102 102 0
102 102 0
79 79 0
64 64 0
121 121 0
79 79 0
102 102 0
112 112 0
79 79 0
112 112 0
102 102 0
112 112 0
91 91 0
121 121 0
112 113 0
112 112 0
79 79 0
79 79 0
64 64 0
112 112 0
121 121 0
91 91 0
102 102 0
121 121 0
91 91 0
112 112 0
47 49 0
129 129 0
112 112 0
64 64 0
79 79 0
79 79 0
102 102 0
102 102 0
45 45 0
102 102 0
64 64 0
45 45 0
112 112 0
102 102 0
137 137 0
121 121 0
102 102 0
79 79 0
64 64 0
91 91 0
0 0 0
103 104 0
91 91 0
0 0 0
45 45 0
64 64 0
91 91 0
102 102 0
64 64 0
91 91 0
45 45 0
64 64 0
91 91 0
91 91 0
91 91 0
64 64 0
91 91 0
45 45 0
79 79 0
112 112 0
64 64 0
79 79 0
103 104 0
0 0 0
79 79 0
79 79 0
64 64 0
112 112 0
79 79 0
91 91 0
45 45 0
64 64 0
45 45 0
91 91 0
112 112 0
79 79 0
102 102 0
121 121 0
79 79 0
91 91 0
64 64 0
64 64 0
102 102 0
45 45 0
64 64 0
91 91 0
112 112 0
0 0 0
112 112 0
45 45 0
79 79 0
45 45 0
130 130 0
79 79 0
91 91 0
79 79 0
91 91 0
79 79 0
102 102 0
91 91 0
91 91 0
79 79 0
112 112 0
45 45 0
79 79 0
103 104 0
91 91 0
102 102 0
121 121 0
79 79 0
92 93 0
12 18 0
91 91 0
112 112 0
64 64 0
112 112 0
121 121 0
130 131 0
66 67 0
79 79 0
102 102 0
64 64 0
64 64 0
45 45 0
45 45 0
91 91 0
102 102 0
121 121 0
64 64 0
112 112 0
79 79 0
103 104 0
102 102 0
102 102 0
79 79 0
64 64 0
129 129 0
129 129 0
112 112 0
79 79 0
102 102 0
129 129 0
129 129 0
79 79 0
79 79 0
103 104 0
64 64 0
64 64 0
102 102 0
112 112 0
112 112 0
79 79 0
102 102 0
80 81 0
79 79 0
102 102 0
91 91 0
79 79 0
91 91 0
64 64 0
112 112 0
91 91 0
64 64 0
79 79 0
79 79 0
112 112 0
64 64 0
45 45 0
79 79 0
91 91 0
91 91 0
92 93 0
79 79 0
64 64 0
47 49 0
91 91 0
45 45 0
91 91 0
112 112 0
112 112 0
64 64 0
91 91 0
64 64 0
0 0 0
45 46 0
79 79 0
91 91 0
45 45 0
45 45 0
45 45 0
45 45 0
0 0 0
0 0 0
12 18 0
66 67 0
18 25 0
45 45 0
1 2 0
0 0 0
0 0 0
0 0 0
0 0 0
12 18 0
0 0 0
0 0 0
12 18 0
0 0 0
0 0 0
0 0 0
0 0 0
0 0 0
12 18 0
0 0 0
3 7 0
0 0 0
0 0 0
0 0 0
0 0 0
3 7 0
13 19 0
0 0 0
13 19 0
1 2 0
0 0 0
12 18 0
0 0 0
12 18 0
0 0 0
3 7 0
0 0 0
0 0 0
0 0 0
0 0 0
0 0 0
0 0 0
0 0 0
1 2 0
0 0 0
14 20 0
0 0 0
0 0 0
20 28 0
0 0 0
14 20 0
0 0 0
0 0 0
16 24 0
14 20 0
14 20 0
15 22 0
0 0 0
14 20 0
4 8 0
0 0 0
14 20 0
0 0 0
1 3 0
20 28 0
14 20 0
0 0 0
14 20 0
14 20 0
15 22 0
14 20 0
0 0 0
14 20 0
14 20 0
0 0 0
0 0 0
0 0 0
0 0 0
1 3 0
0 0 0
20 28 0
15 22 0
20 28 0
4 8 0
15 22 0
4 8 0
0 0 0
0 0 0
0 0 0
0 0 0
0 1 0
0 0 0
0 0 0
0 0 0
0 0 0
0 0 0
0 0 0
0 0 0
0 0 0
0 0 0
0 0 0
12 18 0
0 0 0
0 0 0
0 0 0
0 0 0
0 0 0
0 0 0
0 0 0
0 0 0
0 0 0
0 0 0
0 0 0
5 10 0
0 0 0
12 18 0
1 2 0
0 0 0
0 0 0
12 18 0
12 18 0
0 0 0
12 18 0
13 19 0
0 0 0
0 0 0
12 18 0
12 18 0
0 0 0
12 18 0
0 0 0
0 0 0
0 0 0
45 45 0
0 0 0
0 0 0
3 7 0
45 45 0
19 27 0
79 79 0
64 64 0
80 81 0
64 64 0
64 64 0
91 91 0
102 102 0
91 91 0
92 93 0
66 67 0
47 49 0
102 102 0
64 64 0
92 93 0
93 95 0
12 18 0
45 46 0
64 64 0
79 79 0
79 79 0
64 64 0
92 93 0
112 112 0
79 79 0
92 93 0
12 18 0
102 102 0
45 45 0
91 91 0
79 79 0
91 91 0
64 64 0
79 79 0
79 79 0
112 112 0
79 79 0
102 102 0
79 79 0
91 91 0
45 45 0
47 49 0
91 91 0
64 64 0
121 121 0
121 122 0
102 102 0
0 0 0
102 102 0
102 102 0
91 91 0
102 102 0
130 130 0
129 129 0
91 91 0
102 102 0
102 102 0
91 91 0
129 129 0
64 64 0
102 102 0
45 45 0
64 64 0
64 64 0
79 79 0
137 137 0
79 79 0
102 102 0
45 45 0
79 79 0
91 91 0
112 112 0
0 0 0
79 79 0
129 129 0
102 102 0
45 45 0
79 79 0
79 79 0
91 91 0
64 64 0
91 91 0
121 121 0
91 91 0
112 112 0
103 104 0
45 45 0
64 64 0
45 45 0
79 79 0
79 79 0
129 129 0
64 64 0
91 91 0
102 102 0
112 112 0
64 64 0
64 64 0
79 79 0
64 64 0
80 81 0
79 79 0
79 79 0
137 137 0
112 112 0
129 129 0
102 102 0
45 45 0
121 121 0
45 45 0
79 79 0
64 64 0
91 91 0
91 91 0
79 79 0
91 91 0
79 79 0
64 64 0
79 79 0
121 121 0
91 91 0
79 79 0
91 91 0
79 79 0
102 102 0
112 112 0
91 91 0
45 45 0
64 64 0
64 64 0
64 64 0
79 79 0
112 112 0
102 102 0
121 121 0
91 91 0
92 93 0
64 64 0
102 102 0
91 91 0
102 102 0
121 121 0
102 102 0
64 64 0
79 79 0
79 79 0
45 45 0
64 64 0
45 45 0
64 64 0
45 45 0
91 91 0
45 45 0
79 79 0
64 64 0
45 45 0
45 45 0
79 79 0
66 67 0
91 91 0
45 45 0
112 112 0
80 81 0
45 45 0
102 102 0
121 121 0
91 91 0
112 112 0
102 102 0
112 112 0
112 112 0
79 79 0
129 129 0
91 91 0
112 112 0
45 45 0
102 102 0
112 112 0
91 91 0
102 102 0
121 121 0
79 79 0
144 144 0
45 45 0
102 102 0
91 91 0
102 102 0
129 129 0
103 104 0
64 64 0
91 91 0
91 91 0
102 102 0
91 91 0
80 81 0
129 129 0
102 102 0
79 79 0
112 112 0
112 113 0
102 102 0
79 79 0
129 129 0
91 91 0
79 79 0
112 112 0
102 102 0
102 102 0
113 114 0
91 91 0
66 67 0
112 112 0
102 102 0
79 79 0
91 91 0
64 64 0
64 64 0
121 122 0
92 93 0
112 112 0
91 91 0
64 64 0
64 64 0
80 81 0
64 64 0
91 91 0
91 91 0
45 45 0
79 79 0
102 102 0
79 79 0
45 45 0
130 130 0
91 91 0
103 104 0
102 102 0
79 79 0
102 102 0
92 93 0
102 102 0
79 79 0
79 79 0
45 45 0
64 64 0
79 79 0
45 45 0
45 45 0
64 64 0
91 91 0
45 45 0
47 49 0
79 79 0
45 46 0
45 45 0
12 18 0
45 45 0
0 0 0
12 18 0
47 49 0
49 52 0
12 18 0
49 52 0
12 18 0
0 0 0
12 18 0
0 0 0
0 0 0
12 18 0
18 25 0
12 18 0
28 40 0
0 0 0
0 0 0
12 18 0
12 18 0
3 7 0
12 18 0
12 18 0
0 0 0
3 7 0
0 0 0
0 0 0
3 7 0
0 0 0
0 0 0
12 18 0
0 0 0
0 0 0
0 0 0
12 18 0
1 2 0
13 19 0
12 18 0
0 0 0
3 7 0
12 18 0
12 18 0
0 0 0
0 0 0
3 7 0
0 0 0
0 0 0
0 0 0
3 7 0
0 0 0
0 0 0
0 0 0
12 18 0
0 0 0
4 8 0
0 0 0
0 1 0
0 0 0
0 0 0
0 0 0
0 0 0
20 30 0
14 20 0
14 20 0
4 8 0
14 20 0
0 0 0
0 0 0
4 8 0
0 0 0
14 20 0
14 20 0
0 0 0
14 20 0
0 0 0
15 23 0
14 20 0
14 20 0
14 20 0
14 20 0
0 0 0
14 20 0
0 0 0
14 20 0
0 0 0
14 20 0
1 3 0
15 22 0
14 20 0
15 22 0
0 0 0
0 0 0
14 20 0
1 2 0
0 0 0
0 0 0
0 0 0
1 2 0
0 0 0
0 1 0
0 0 0
0 0 0
0 0 0
3 7 0
0 0 0
0 0 0
12 18 0
0 0 0
0 0 0
0 0 0
0 0 0
22 31 0
0 0 0
0 0 0
1 2 0
0 0 0
0 0 0
0 0 0
12 18 0
12 18 0
3 7 0
12 18 0
0 0 0
0 0 0
22 31 0
1 2 0
18 25 0
0 0 0
12 18 0
0 0 0
0 0 0
12 18 0
3 7 0
1 2 0
0 0 0
1 2 0
45 45 0
0 0 0
12 18 0
45 45 0
0 0 0
0 0 0
45 45 0
0 0 0
45 45 0
92 93 0
12 18 0
79 79 0
79 79 0
47 49 0
64 64 0
66 67 0
45 45 0
64 64 0
64 64 0
92 93 0
103 104 0
80 81 0
68 72 0
79 79 0
80 81 0
79 79 0
91 91 0
64 64 0
92 93 0
64 64 0
64 64 0
64 64 0
79 79 0
80 81 0
102 102 0
121 121 0
79 79 0
64 64 0
92 93 0
80 81 0
47 49 0
91 91 0
102 102 0
112 112 0
112 112 0
91 91 0
102 102 0
91 91 0
79 79 0
64 64 0
45 45 0
64 64 0
102 102 0
80 81 0
112 112 0
102 102 0
102 102 0
64 64 0
64 64 0
80 81 0
112 112 0
129 129 0
64 64 0
112 112 0
64 64 0
64 64 0
121 121 0
91 91 0
112 112 0
79 79 0
64 64 0
129 129 0
102 102 0
137 137 0
112 112 0
64 64 0
79 79 0
64 64 0
64 64 0
91 91 0
45 45 0
64 64 0
91 91 0
45 45 0
91 91 0
79 79 0
103 104 0
112 113 0
92 93 0
112 112 0
64 64 0
64 64 0
64 64 0
80 81 0
79 79 0
79 79 0
91 91 0
102 102 0
64 64 0
102 102 0
112 112 0
102 102 0
121 121 0
64 64 0
64 64 0
64 64 0
91 91 0
45 45 0
79 79 0
102 102 0
64 64 0
64 64 0
79 79 0
45 45 0
92 93 0
0 0 0
79 79 0
64 64 0
0 0 0
64 64 0
91 91 0
91 91 0
102 102 0
79 79 0
91 91 0
91 91 0
112 112 0
45 45 0
112 112 0
64 64 0
79 79 0
64 64 0
45 45 0
91 91 0
79 79 0
91 91 0
79 79 0
79 79 0
79 79 0
102 102 0
64 64 0
64 64 0
102 102 0
102 102 0
0 0 0
112 112 0
45 45 0
79 79 0
64 64 0
0 0 0
79 79 0
91 91 0
103 104 0
112 112 0
91 91 0
45 45 0
102 102 0
102 102 0
129 129 0
79 79 0
45 45 0
79 79 0
12 18 0
92 93 0
102 102 0
64 64 0
91 91 0
121 122 0
112 112 0
91 91 0
102 102 0
91 91 0
121 121 0
64 64 0
103 104 0
92 93 0
79 79 0
79 79 0
112 112 0
91 91 0
79 79 0
79 79 0
79 79 0
91 91 0
102 102 0
102 102 0
103 104 0
129 129 0
112 112 0
112 112 0
137 137 0
91 91 0
121 121 0
102 102 0
92 93 0
112 112 0
64 64 0
91 91 0
64 64 0
137 137 0
64 64 0
121 121 0
64 64 0
102 102 0
79 79 0
102 102 0
64 64 0
45 45 0
64 64 0
91 91 0
129 129 0
102 102 0
66 67 0
112 112 0
91 91 0
112 112 0
137 137 0
121 121 0
64 64 0
112 112 0
64 64 0
80 81 0
102 102 0
102 102 0
64 64 0
121 121 0
79 79 0
102 102 0
91 91 0
121 121 0
102 102 0
112 112 0
129 129 0
121 122 0
102 102 0
121 121 0
121 121 0
79 79 0
112 112 0
112 113 0
121 121 0
91 91 0
102 102 0
80 81 0
91 91 0
91 91 0
79 79 0
112 112 0
64 65 0
45 45 0
91 91 0
79 79 0
92 93 0
45 45 0
64 64 0
80 81 0
91 91 0
45 45 0
45 45 0
82 85 0
102 102 0
64 64 0
79 79 0
47 49 0
64 64 0
64 64 0
45 45 0
45 45 0
0 0 0
0 0 0
0 0 0
47 49 0
80 81 0
45 45 0
0 0 0
0 0 0
0 0 0
12 18 0
0 0 0
12 18 0
0 0 0
0 0 0
12 18 0
0 0 0
0 0 0
0 0 0
0 0 0
13 19 0
0 0 0
12 18 0
0 0 0
18 25 0
1 2 0
13 19 0
0 1 0
12 18 0
0 0 0
0 0 0
18 25 0
0 0 0
0 0 0
0 0 0
0 0 0
0 0 0
0 0 0
0 0 0
0 0 0
0 0 0
0 0 0
0 0 0
0 0 0
0 0 0
0 0 0
12 18 0
12 18 0
0 0 0
0 0 0
0 0 0
0 0 0
3 7 0
0 0 0
0 1 0
0 1 0
0 0 0
14 20 0
15 22 0
0 0 0
0 0 0
0 0 0
0 0 0
14 20 0
0 0 0
0 0 0
4 8 0
4 8 0
0 0 0
0 0 0
4 8 0
15 22 0
14 20 0
25 35 0
20 28 0
0 0 0
4 8 0
0 0 0
1 3 0
0 0 0
0 0 0
14 20 0
14 20 0
14 20 0
14 20 0
0 0 0
0 0 0
0 0 0
0 0 0
0 0 0
0 0 0
0 0 0
0 0 0
1 2 0
0 0 0
3 7 0
0 0 0
0 0 0
0 0 0
0 0 0
0 0 0
0 0 0
0 0 0
0 0 0
3 7 0
3 7 0
0 0 0
12 18 0
0 0 0
0 0 0
12 18 0
0 0 0
0 0 0
0 0 0
3 7 0
0 0 0
12 18 0
0 0 0
0 0 0
0 0 0
0 0 0
0 0 0
0 0 0
0 0 0
0 0 0
18 25 0
0 0 0
0 0 0
12 18 0
0 0 0
0 0 0
12 18 0
0 0 0
0 0 0
0 0 0
0 0 0
12 18 0
64 64 0
0 0 0
45 45 0
45 45 0
47 49 0
47 49 0
64 64 0
64 64 0
0 0 0
64 64 0
64 64 0
66 67 0
45 45 0
0 0 0
12 18 0
64 64 0
45 45 0
92 93 0
0 0 0
129 129 0
79 79 0
102 102 0
102 102 0
79 79 0
79 79 0
64 64 0
102 102 0
91 91 0
64 64 0
81 83 0
102 102 0
137 137 0
91 91 0
91 91 0
79 79 0
64 64 0
102 102 0
80 81 0
102 102 0
45 45 0
112 112 0
79 79 0
112 112 0
91 91 0
91 91 0
112 112 0
102 102 0
79 79 0
112 112 0
112 112 0
103 104 0
45 45 0
112 112 0
64 64 0
92 93 0
80 81 0
102 102 0
66 67 0
112 112 0
79 79 0
137 137 0
102 102 0
79 79 0
121 121 0
102 102 0
112 112 0
79 79 0
64 64 0
79 79 0
137 137 0
102 102 0
91 91 0
64 64 0
112 112 0
112 112 0
91 91 0
102 102 0
45 45 0
112 112 0
45 45 0
102 102 0
112 112 0
91 91 0
45 45 0
92 93 0
91 91 0
102 102 0
91 91 0
91 91 0
121 121 0
102 102 0
64 64 0
129 129 0
102 102 0
91 91 0
45 45 0
0 0 0
91 91 0
49 53 0
102 102 0
112 112 0
112 112 0
45 45 0
79 79 0
121 121 0
91 91 0
79 79 0
92 93 0
103 104 0
79 79 0
91 91 0
102 102 0
64 64 0
64 64 0
80 81 0
64 64 0
45 45 0
79 79 0
102 102 0
102 102 0
91 91 0
79 79 0
137 137 0
121 121 0
79 79 0
91 91 0
102 102 0
112 112 0
64 64 0
92 93 0
45 45 0
91 91 0
45 45 0
45 45 0
112 112 0
64 64 0
64 64 0
112 112 0
102 102 0
102 102 0
91 91 0
92 93 0
79 79 0
91 91 0
79 79 0
102 102 0
121 121 0
102 102 0
79 79 0
79 79 0
91 91 0
45 45 0
64 64 0
45 45 0
64 64 0
45 45 0
91 91 0
45 45 0
79 79 0
79 79 0
64 64 0
64 64 0
112 112 0
64 64 0
79 79 0
45 45 0
112 112 0
103 104 0
45 45 0
112 112 0
102 102 0
112 112 0
102 102 0
91 91 0
130 130 0
102 102 0
91 91 0
121 121 0
112 112 0
91 91 0
79 79 0
112 112 0
91 91 0
91 91 0
91 91 0
121 121 0
129 129 0
121 121 0
91 91 0
91 91 0
102 102 0
102 102 0
112 112 0
112 112 0
45 45 0
112 112 0
79 79 0
112 112 0
91 91 0
102 102 0
102 102 0
64 64 0
112 112 0
79 79 0
92 93 0
103 104 0
102 102 0
102 102 0
91 91 0
91 91 0
129 129 0
112 112 0
64 64 0
103 104 0
92 93 0
137 137 0
112 112 0
64 64 0
121 121 0
64 64 0
112 112 0
92 93 0
112 112 0
92 93 0
102 102 0
64 65 0
64 64 0
102 102 0
64 64 0
45 45 0
91 91 0
64 64 0
79 79 0
102 102 0
102 102 0
79 79 0
112 112 0
91 91 0
91 91 0
112 112 0
64 64 0
79 79 0
66 67 0
102 102 0
64 64 0
92 93 0
0 0 0
80 81 0
64 64 0
45 45 0
64 64 0
64 64 0
91 91 0
47 49 0
47 49 0
91 91 0
45 45 0
45 45 0
12 18 0
45 45 0
45 45 0
12 18 0
47 49 0
49 52 0
12 18 0
47 49 0
18 25 0
0 0 0
12 18 0
0 0 0
3 7 0
12 18 0
12 18 0
0 0 0
0 0 0
0 0 0
0 0 0
0 0 0
22 32 0
3 7 0
12 18 0
12 18 0
0 0 0
0 0 0
0 0 0
0 0 0
0 0 0
0 0 0
0 0 0
12 18 0
0 0 0
12 18 0
0 0 0
18 25 0
12 18 0
12 18 0
18 26 0
3 7 0
12 18 0
0 0 0
18 25 0
0 0 0
0 0 0
0 1 0
3 7 0
0 0 0
0 0 0
0 0 0
0 0 0
1 2 0
0 0 0
0 0 0
0 0 0
0 0 0
3 7 0
3 7 0
3 7 0
0 0 0
0 0 0
0 0 0
0 0 0
0 0 0
4 8 0
0 0 0
0 0 0
4 8 0
4 8 0
1 3 0
0 1 0
0 0 0
4 8 0
14 20 0
0 0 0
0 0 0
14 20 0
14 20 0
14 20 0
0 0 0
15 22 0
14 20 0
4 8 0
0 0 0
0 0 0
20 28 0
4 8 0
0 0 0
0 0 0
0 0 0
0 0 0
0 1 0
3 7 0
0 0 0
0 0 0
0 0 0
0 0 0
0 0 0
0 0 0
0 0 0
0 0 0
0 0 0
3 7 0
0 0 0
0 0 0
0 0 0
12 18 0
0 0 0
0 0 0
0 0 0
0 0 0
0 0 0
13 19 0
12 18 0
12 18 0
12 18 0
12 18 0
0 0 0
0 0 0
0 0 0
0 0 0
12 18 0
12 18 0
12 18 0
0 0 0
0 0 0
0 0 0
12 18 0
18 25 0
12 18 0
12 18 0
3 7 0
0 0 0
0 0 0
18 25 0
0 0 0
0 0 0
0 0 0
0 0 0
0 0 0
0 0 0
0 0 0
0 0 0
45 46 0
80 81 0
0 0 0
0 0 0
18 25 0
0 0 0
0 0 0
12 18 0
64 64 0
79 79 0
45 45 0
0 0 0
91 91 0
80 81 0
18 25 0
64 64 0
45 45 0
66 67 0
45 45 0
66 67 0
103 104 0
103 104 0
102 102 0
64 64 0
121 121 0
91 91 0
91 91 0
79 79 0
64 64 0
80 81 0
80 81 0
79 79 0
45 45 0
92 93 0
121 121 0
79 79 0
102 102 0
91 91 0
0 0 0
112 112 0
64 64 0
102 102 0
112 112 0
67 69 0
130 132 0
102 102 0
102 102 0
121 121 0
45 45 0
79 79 0
0 0 0
91 91 0
91 91 0
64 64 0
129 129 0
129 129 0
112 112 0
79 79 0
122 122 0
64 64 0
102 102 0
102 102 0
102 102 0
112 112 0
121 121 0
103 104 0
91 91 0
137 137 0
79 79 0
45 45 0
64 64 0
79 79 0
64 64 0
79 79 0
91 91 0
64 64 0
91 91 0
91 91 0
129 129 0
79 79 0
137 137 0
66 67 0
79 79 0
129 129 0
64 64 0
102 102 0
91 91 0
91 91 0
45 45 0
112 112 0
79 79 0
102 102 0
45 45 0
79 79 0
129 129 0
102 102 0
79 79 0
79 79 0
45 45 0
112 112 0
64 64 0
102 102 0
64 64 0
112 112 0
79 79 0
64 64 0
79 79 0
112 112 0
91 91 0
91 91 0
112 112 0
45 45 0
79 79 0
79 79 0
91 91 0
91 91 0
137 137 0
103 104 0
64 64 0
102 102 0
45 45 0
102 102 0
64 64 0
91 91 0
112 112 0
121 121 0
112 112 0
79 79 0
91 91 0
102 102 0
112 112 0
79 79 0
64 64 0
79 79 0
91 91 0
0 0 0
64 64 0
112 112 0
79 79 0
64 64 0
45 45 0
79 79 0
79 79 0
79 79 0
122 122 0
0 0 0
45 45 0
91 91 0
45 45 0
102 102 0
112 113 0
91 91 0
91 91 0
102 102 0
102 102 0
102 102 0
79 79 0
66 67 0
102 102 0
79 79 0
64 64 0
91 91 0
91 91 0
102 102 0
91 91 0
91 91 0
121 121 0
102 102 0
91 91 0
112 112 0
91 91 0
64 64 0
79 79 0
64 64 0
91 91 0
91 91 0
144 144 0
0 0 0
91 91 0
64 64 0
91 91 0
112 112 0
102 102 0
91 91 0
102 102 0
121 121 0
102 102 0
121 121 0
112 113 0
112 112 0
91 91 0
64 64 0
102 102 0
121 121 0
0 0 0
112 112 0
102 102 0
121 121 0
104 105 0
112 112 0
112 112 0
79 79 0
79 79 0
112 112 0
102 102 0
79 79 0
91 91 0
103 104 0
79 79 0
112 112 0
79 79 0
79 79 0
79 79 0
79 79 0
79 79 0
48 50 0
91 91 0
79 79 0
91 91 0
91 91 0
79 79 0
121 122 0
91 91 0
91 91 0
0 0 0
112 112 0
129 129 0
45 45 0
102 102 0
102 102 0
64 64 0
45 45 0
0 0 0
64 64 0
102 102 0
91 91 0
102 102 0
64 64 0
102 102 0
91 91 0
92 93 0
45 45 0
91 91 0
81 83 0
66 67 0
91 91 0
79 79 0
0 0 0
91 91 0
79 79 0
64 64 0
79 79 0
47 49 0
64 64 0
0 0 0
45 45 0
0 0 0
0 0 0
64 64 0
0 0 0
45 45 0
64 64 0
0 0 0
45 45 0
45 45 0
45 45 0
12 18 0
0 0 0
0 0 0
0 0 0
0 0 0
0 0 0
0 0 0
0 0 0
3 7 0
0 0 0
0 0 0
0 0 0
0 0 0
0 0 0
0 0 0
0 0 0
0 0 0
0 0 0
0 0 0
12 18 0
0 0 0
12 18 0
18 25 0
0 0 0
0 0 0
0 0 0
12 18 0
12 18 0
0 0 0
12 18 0
0 0 0
0 0 0
0 0 0
0 0 0
0 0 0
0 0 0
0 0 0
3 7 0
0 0 0
0 0 0
0 0 0
0 0 0
0 0 0
12 18 0
0 0 0
0 0 0
12 18 0
1 2 0
1 2 0
3 7 0
0 0 0
0 0 0
1 2 0
0 0 0
0 0 0
0 0 0
0 0 0
0 0 0
0 0 0
0 0 0
0 0 0
4 8 0
0 0 0
14 20 0
0 0 0
0 0 0
0 0 0
4 8 0
0 0 0
3 7 0
0 0 0
0 0 0
0 0 0
0 0 0
0 0 0
0 0 0
0 0 0
0 0 0
0 0 0
12 18 0
0 0 0
0 0 0
0 0 0
12 18 0
0 0 0
1 2 0
0 0 0
0 0 0
0 0 0
12 18 0
3 7 0
1 2 0
1 2 0
0 0 0
0 0 0
0 0 0
0 0 0
0 0 0
0 0 0
0 0 0
0 0 0
0 0 0
12 18 0
0 0 0
13 19 0
18 25 0
0 0 0
0 0 0
3 7 0
0 0 0
0 0 0
0 0 0
0 0 0
0 0 0
0 0 0
0 0 0
0 0 0
0 0 0
12 18 0
0 0 0
12 18 0
3 7 0
0 0 0
0 0 0
0 0 0
12 18 0
0 0 0
0 0 0
0 0 0
0 0 0
0 0 0
3 7 0
0 0 0
0 0 0
0 0 0
12 18 0
47 49 0
47 49 0
0 0 0
47 49 0
91 91 0
18 25 0
45 45 0
45 45 0
0 0 0
0 0 0
0 0 0
80 81 0
45 45 0
79 79 0
45 45 0
79 79 0
64 64 0
45 45 0
47 49 0
64 64 0
91 91 0
47 49 0
45 45 0
45 45 0
79 79 0
64 64 0
91 91 0
64 64 0
112 112 0
91 91 0
91 91 0
137 137 0
79 79 0
64 64 0
79 79 0
66 67 0
79 79 0
79 79 0
102 102 0
158 158 0
92 93 0
121 121 0
112 112 0
103 104 0
91 91 0
64 64 0
79 79 0
102 102 0
79 79 0
80 81 0
104 106 0
80 81 0
91 91 0
64 64 0
112 112 0
64 64 0
91 91 0
91 91 0
79 79 0
91 91 0
79 79 0
66 67 0
45 45 0
91 91 0
112 112 0
80 81 0
45 45 0
64 64 0
91 91 0
102 102 0
64 64 0
112 112 0
64 64 0
112 112 0
64 64 0
64 64 0
102 102 0
121 121 0
113 114 0
64 64 0
45 45 0
102 102 0
129 129 0
102 102 0
79 79 0
121 121 0
102 102 0
165 165 0
137 137 0
64 64 0
137 137 0
91 91 0
91 91 0
64 64 0
79 79 0
64 64 0
91 91 0
91 91 0
79 79 0
64 64 0
129 129 0
102 102 0
45 45 0
79 79 0
64 64 0
66 67 0
79 79 0
121 121 0
91 91 0
64 64 0
92 93 0
79 79 0
102 102 0
121 121 0
102 102 0
79 79 0
79 79 0
79 79 0
91 91 0
79 79 0
91 91 0
102 102 0
91 91 0
64 64 0
45 45 0
91 91 0
129 129 0
91 91 0
79 79 0
91 91 0
79 79 0
91 91 0
64 64 0
91 91 0
112 112 0
102 102 0
91 91 0
91 91 0
79 79 0
91 91 0
79 79 0
79 79 0
91 91 0
121 121 0
102 102 0
79 79 0
79 79 0
91 91 0
45 45 0
64 64 0
64 64 0
79 79 0
64 64 0
91 91 0
64 64 0
64 64 0
64 64 0
79 79 0
91 91 0
112 112 0
64 64 0
64 64 0
64 64 0
112 112 0
103 104 0
64 64 0
112 113 0
79 79 0
137 137 0
91 91 0
79 79 0
137 137 0
79 79 0
102 102 0
79 79 0
112 112 0
91 91 0
64 64 0
112 112 0
45 45 0
112 112 0
112 112 0
112 112 0
129 129 0
112 112 0
91 91 0
112 112 0
79 79 0
112 112 0
121 121 0
103 104 0
79 79 0
121 121 0
79 79 0
112 112 0
45 45 0
129 129 0
79 79 0
64 64 0
112 112 0
112 112 0
79 79 0
92 93 0
129 129 0
91 91 0
102 102 0
112 112 0
112 112 0
129 129 0
91 91 0
91 91 0
92 93 0
103 104 0
102 102 0
102 102 0
112 112 0
91 91 0
79 79 0
121 122 0
103 104 0
79 79 0
91 91 0
64 65 0
64 64 0
64 64 0
64 64 0
45 45 0
112 112 0
66 67 0
92 93 0
92 93 0
79 79 0
45 46 0
102 102 0
102 102 0
112 112 0
79 79 0
45 45 0
91 91 0
45 45 0
102 102 0
64 64 0
91 91 0
64 64 0
45 45 0
45 45 0
0 0 0
64 64 0
79 79 0
80 81 0
18 25 0
79 79 0
66 67 0
45 45 0
0 0 0
45 45 0
45 45 0
12 18 0
45 46 0
49 52 0
0 0 0
47 49 0
12 18 0
0 0 0
18 25 0
0 0 0
0 0 0
3 7 0
0 0 0
12 18 0
0 0 0
0 0 0
0 0 0
0 0 0
12 18 0
0 0 0
3 7 0
3 7 0
12 18 0
0 0 0
0 0 0
0 0 0
0 0 0
0 0 0
0 0 0
12 18 0
12 18 0
0 0 0
12 18 0
12 18 0
0 0 0
0 0 0
12 18 0
0 0 0
3 7 0
0 0 0
0 0 0
0 0 0
13 19 0
3 7 0
0 0 0
0 1 0
0 0 0
0 0 0
0 0 0
0 0 0
0 0 0
18 25 0
0 0 0
0 0 0
0 0 0
3 7 0
0 1 0
0 0 0
0 0 0
0 0 0
0 0 0
0 0 0
0 0 0
0 0 0
0 0 0
0 0 0
0 0 0
0 0 0
0 0 0
0 0 0
0 0 0
0 0 0
0 0 0
0 0 0
0 0 0
12 18 0
0 0 0
0 0 0
0 0 0
0 0 0
0 0 0
0 0 0
12 18 0
0 0 0
0 0 0
0 0 0
0 0 0
12 18 0
3 7 0
0 0 0
0 0 0
0 0 0
12 18 0
0 0 0
12 18 0
0 0 0
3 7 0
0 0 0
0 0 0
0 0 0
12 18 0
13 19 0
0 0 0
3 7 0
0 0 0
0 0 0
0 0 0
0 0 0
12 18 0
0 0 0
0 0 0
12 18 0
0 0 0
0 0 0
0 0 0
0 0 0
0 0 0
0 0 0
3 7 0
0 0 0
12 18 0
0 0 0
18 25 0
0 0 0
12 18 0
12 18 0
0 0 0
12 18 0
0 0 0
0 0 0
0 0 0
0 0 0
0 0 0
0 0 0
0 0 0
0 0 0
0 0 0
0 0 0
0 0 0
13 19 0
0 0 0
0 0 0
18 25 0
12 18 0
47 49 0
0 0 0
45 45 0
12 18 0
45 45 0
0 0 0
12 18 0
64 64 0
12 18 0
12 18 0
79 79 0
79 79 0
79 79 0
79 79 0
0 0 0
45 45 0
79 79 0
47 49 0
45 45 0
64 64 0
92 93 0
66 67 0
45 45 0
79 79 0
79 79 0
80 81 0
64 64 0
45 45 0
102 102 0
91 91 0
64 64 0
79 79 0
102 102 0
91 91 0
91 91 0
102 102 0
0 0 0
102 102 0
64 64 0
112 113 0
92 93 0
92 93 0
102 102 0
91 91 0
92 93 0
102 102 0
112 112 0
79 79 0
137 137 0
102 102 0
121 121 0
79 79 0
79 79 0
112 112 0
45 45 0
91 91 0
102 102 0
45 45 0
92 93 0
112 112 0
91 91 0
64 64 0
79 79 0
102 102 0
91 91 0
64 64 0
92 93 0
64 64 0
121 122 0
112 112 0
91 91 0
130 131 0
102 102 0
129 129 0
91 91 0
103 104 0
112 112 0
102 102 0
112 112 0
91 91 0
0 0 0
45 45 0
91 91 0
91 91 0
79 79 0
102 102 0
79 79 0
91 91 0
64 64 0
45 45 0
79 79 0
64 64 0
112 112 0
91 91 0
79 79 0
91 91 0
102 102 0
137 137 0
121 121 0
91 91 0
121 121 0
64 64 0
79 79 0
91 91 0
64 64 0
129 129 0
45 45 0
144 144 0
112 112 0
64 64 0
45 45 0
64 64 0
121 121 0
79 79 0
112 112 0
102 102 0
91 91 0
129 129 0
102 102 0
79 79 0
66 67 0
45 45 0
91 91 0
45 45 0
79 79 0
66 67 0
79 79 0
45 45 0
91 91 0
102 102 0
137 137 0
91 91 0
64 64 0
91 91 0
48 50 0
91 91 0
64 64 0
91 91 0
45 45 0
91 91 0
112 112 0
129 129 0
45 45 0
0 0 0
91 91 0
64 64 0
129 129 0
45 45 0
64 64 0
112 112 0
45 45 0
102 102 0
79 79 0
91 91 0
64 64 0
102 102 0
91 91 0
102 102 0
121 121 0
91 91 0
79 79 0
102 102 0
0 0 0
102 102 0
45 45 0
79 79 0
130 130 0
45 45 0
112 113 0
91 91 0
64 64 0
129 129 0
64 64 0
79 79 0
64 64 0
45 45 0
91 91 0
102 102 0
112 112 0
129 129 0
91 91 0
79 79 0
112 112 0
64 64 0
79 79 0
80 81 0
103 104 0
103 104 0
121 121 0
102 102 0
102 102 0
137 137 0
64 64 0
64 64 0
121 122 0
129 129 0
102 102 0
112 113 0
121 121 0
79 79 0
102 102 0
121 121 0
121 121 0
91 91 0
121 121 0
45 45 0
79 79 0
79 79 0
129 129 0
79 79 0
79 79 0
45 45 0
121 121 0
64 64 0
91 91 0
79 79 0
91 91 0
112 112 0
103 104 0
79 79 0
91 91 0
121 121 0
79 79 0
112 112 0
64 64 0
102 102 0
79 79 0
112 112 0
64 64 0
93 95 0
45 45 0
45 45 0
0 0 0
91 91 0
92 93 0
64 64 0
79 79 0
112 112 0
102 102 0
102 102 0
66 67 0
64 64 0
91 91 0
102 102 0
64 64 0
0 0 0
104 105 0
12 18 0
0 0 0
47 49 0
64 64 0
47 50 0
91 91 0
64 64 0
47 49 0
0 0 0
80 81 0
47 49 0
45 45 0
12 18 0
64 64 0
0 0 0
0 0 0
0 0 0
64 64 0
0 0 0
0 0 0
0 0 0
0 0 0
0 0 0
12 18 0
0 0 0
12 18 0
12 18 0
0 0 0
0 0 0
0 0 0
12 18 0
0 0 0
12 18 0
12 18 0
12 18 0
12 18 0
12 18 0
0 0 0
3 7 0
13 19 0
3 7 0
13 19 0
12 18 0
0 0 0
0 0 0
0 0 0
0 0 0
0 0 0
3 7 0
12 18 0
12 18 0
1 2 0
0 0 0
0 0 0
0 1 0
0 0 0
0 0 0
3 7 0
0 0 0
0 0 0
0 0 0
0 1 0
0 0 0
0 0 0
1 2 0
0 0 0
12 18 0
0 0 0
0 0 0
0 0 0
0 0 0
0 0 0
0 0 0
0 0 0
0 0 0
0 0 0
0 0 0
0 0 0
0 0 0
0 0 0
0 0 0
0 0 0
0 0 0
0 1 0
0 0 0
1 2 0
0 0 0
0 0 0
0 0 0
0 0 0
0 0 0
0 0 0
0 0 0
0 0 0
0 0 0
13 19 0
0 0 0
0 0 0
3 7 0
12 18 0
0 0 0
0 0 0
0 0 0
1 2 0
0 0 0
12 18 0
0 0 0
0 0 0
0 0 0
12 18 0
0 0 0
1 2 0
0 0 0
12 18 0
0 0 0
0 0 0
0 0 0
3 7 0
0 0 0
0 0 0
0 0 0
12 18 0
12 18 0
0 0 0
0 0 0
0 0 0
0 0 0
0 0 0
0 0 0
12 18 0
0 0 0
0 0 0
0 0 0
0 0 0
0 0 0
12 18 0
12 18 0
12 18 0
0 0 0
12 18 0
0 0 0
0 0 0
0 0 0
0 0 0
12 18 0
0 0 0
0 0 0
0 0 0
0 0 0
13 19 0
45 45 0
47 49 0
18 25 0
0 0 0
45 45 0
47 49 0
12 18 0
0 0 0
45 46 0
45 45 0
0 0 0
49 52 0
12 18 0
3 7 0
45 45 0
64 64 0
47 49 0
92 93 0
64 64 0
64 64 0
47 49 0
64 64 0
64 64 0
91 91 0
79 79 0
102 102 0
112 112 0
102 102 0
64 65 0
64 65 0
66 67 0
0 0 0
121 121 0
80 81 0
129 129 0
64 64 0
79 79 0
91 91 0
91 91 0
64 64 0
129 129 0
112 112 0
112 112 0
112 112 0
121 121 0
64 64 0
91 91 0
64 64 0
112 112 0
45 45 0
92 93 0
80 81 0
112 113 0
79 79 0
121 121 0
112 113 0
93 95 0
79 79 0
79 79 0
112 112 0
79 79 0
121 121 0
64 64 0
79 79 0
102 102 0
102 102 0
64 64 0
112 112 0
64 64 0
79 79 0
121 121 0
45 45 0
112 112 0
80 81 0
121 121 0
102 102 0
91 91 0
92 93 0
112 113 0
112 112 0
79 79 0
91 91 0
102 102 0
79 79 0
91 91 0
112 112 0
66 67 0
64 64 0
79 79 0
102 102 0
0 0 0
79 79 0
79 79 0
102 102 0
91 91 0
112 112 0
102 102 0
45 45 0
79 79 0
91 91 0
64 64 0
112 112 0
112 112 0
92 93 0
45 45 0
91 91 0
64 64 0
91 91 0
79 79 0
45 45 0
64 64 0
102 102 0
64 64 0
91 91 0
64 64 0
112 112 0
64 64 0
79 79 0
102 102 0
79 79 0
102 102 0
102 102 0
102 102 0
79 79 0
79 79 0
79 79 0
79 79 0
91 91 0
102 102 0
79 79 0
91 91 0
79 79 0
64 64 0
91 91 0
64 64 0
64 64 0
79 79 0
121 121 0
102 102 0
79 79 0
91 91 0
66 67 0
91 91 0
91 91 0
79 79 0
91 91 0
122 122 0
91 91 0
79 79 0
79 79 0
102 102 0
64 64 0
64 64 0
79 79 0
103 104 0
64 64 0
64 64 0
64 64 0
64 64 0
64 64 0
64 64 0
102 102 0
112 112 0
79 79 0
79 79 0
64 64 0
91 91 0
92 93 0
66 67 0
121 121 0
91 91 0
92 93 0
112 112 0
45 45 0
129 129 0
102 102 0
102 102 0
91 91 0
79 79 0
64 64 0
64 64 0
121 121 0
45 45 0
112 112 0
144 144 0
92 93 0
137 137 0
79 79 0
121 121 0
91 91 0
64 64 0
129 129 0
79 79 0
112 113 0
112 112 0
102 102 0
91 91 0
79 79 0
79 79 0
121 121 0
64 64 0
112 112 0
91 91 0
91 91 0
91 91 0
91 91 0
91 91 0
91 91 0
91 91 0
129 129 0
102 102 0
80 81 0
112 112 0
47 49 0
129 129 0
102 102 0
64 64 0
112 112 0
79 79 0
112 112 0
92 93 0
121 121 0
80 81 0
102 102 0
45 45 0
45 45 0
91 91 0
64 64 0
45 45 0
102 102 0
66 67 0
91 91 0
92 93 0
79 79 0
45 46 0
102 102 0
64 64 0
102 102 0
91 91 0
64 64 0
91 91 0
91 91 0
91 91 0
64 64 0
92 93 0
64 64 0
64 64 0
45 45 0
64 64 0
45 45 0
79 79 0
66 67 0
12 18 0
80 81 0
80 81 0
64 64 0
0 0 0
0 0 0
45 45 0
0 0 0
45 45 0
49 52 0
0 0 0
12 18 0
47 49 0
12 18 0
18 25 0
45 45 0
12 18 0
3 7 0
0 0 0
12 18 0
0 0 0
0 0 0
0 0 0
3 7 0
0 0 0
12 18 0
0 0 0
12 18 0
12 18 0
0 0 0
0 0 0
0 0 0
5 10 0
12 18 0
0 0 0
12 18 0
12 18 0
0 0 0
12 18 0
0 1 0
0 0 0
0 0 0
0 0 0
0 0 0
0 0 0
0 0 0
0 0 0
0 0 0
0 0 0
0 0 0
12 18 0
13 19 0
0 0 0
0 0 0
0 0 0
0 0 0
0 0 0
0 0 0
0 0 0
12 18 0
3 7 0
0 0 0
0 0 0
0 1 0
0 0 0
0 0 0
0 0 0
0 0 0
0 0 0
3 7 0
12 18 0
0 0 0
0 0 0
12 18 0
0 0 0
0 0 0
3 7 0
0 1 0
0 0 0
0 0 0
0 0 0
0 0 0
0 0 0
0 0 0
0 0 0
0 0 0
0 0 0
0 0 0
0 0 0
0 0 0
0 0 0
0 0 0
0 0 0
0 0 0
1 4 0
0 0 0
0 0 0
3 7 0
0 0 0
1 4 0
1 2 0
1 2 0
0 0 0
3 7 0
0 0 0
13 19 0
1 2 0
12 18 0
3 7 0
0 0 0
0 0 0
12 18 0
12 18 0
0 0 0
0 0 0
1 2 0
0 0 0
1 2 0
13 19 0
12 18 0
18 25 0
0 0 0
1 2 0
0 0 0
0 0 0
0 0 0
0 0 0
0 0 0
0 0 0
18 25 0
12 18 0
0 0 0
0 0 0
0 0 0
18 26 0
13 19 0
0 0 0
18 25 0
12 18 0
3 7 0
12 18 0
12 18 0
12 18 0
0 0 0
18 25 0
0 0 0
0 0 0
0 0 0
12 18 0
0 0 0
64 64 0
64 64 0
12 18 0
12 18 0
80 81 0
45 45 0
45 45 0
45 45 0
45 45 0
0 0 0
47 49 0
0 0 0
0 0 0
12 18 0
79 79 0
0 0 0
91 91 0
102 102 0
92 93 0
45 45 0
64 64 0
81 83 0
80 81 0
79 79 0
79 79 0
102 102 0
79 79 0
144 144 0
64 64 0
64 64 0
92 93 0
121 122 0
80 81 0
91 91 0
80 81 0
79 79 0
91 91 0
64 64 0
0 0 0
91 91 0
45 45 0
102 102 0
79 79 0
64 64 0
92 93 0
47 49 0
92 93 0
66 67 0
137 137 0
121 121 0
121 121 0
102 102 0
91 91 0
79 79 0
102 102 0
79 79 0
112 112 0
92 93 0
112 112 0
121 121 0
64 64 0
64 64 0
112 112 0
79 79 0
66 67 0
45 45 0
92 93 0
129 129 0
102 102 0
144 144 0
93 95 0
102 102 0
91 91 0
103 104 0
102 102 0
79 79 0
92 93 0
121 121 0
113 115 0
92 93 0
112 112 0
121 121 0
79 79 0
144 144 0
112 112 0
91 91 0
91 91 0
64 64 0
129 129 0
91 91 0
91 91 0
102 102 0
102 102 0
121 121 0
91 91 0
121 121 0
91 91 0
79 79 0
112 112 0
79 79 0
121 121 0
102 102 0
64 64 0
79 79 0
91 91 0
121 121 0
45 45 0
79 79 0
66 67 0
91 91 0
45 45 0
91 91 0
102 102 0
47 49 0
91 91 0
102 102 0
45 45 0
64 64 0
92 93 0
102 102 0
112 112 0
79 79 0
112 112 0
91 91 0
45 45 0
64 64 0
64 64 0
79 79 0
79 79 0
102 102 0
129 129 0
80 81 0
45 45 0
64 64 0
64 64 0
79 79 0
91 91 0
64 64 0
79 79 0
64 64 0
91 91 0
64 64 0
112 112 0
91 91 0
79 79 0
79 79 0
79 79 0
91 91 0
102 102 0
79 79 0
91 91 0
91 91 0
151 151 0
102 102 0
112 113 0
45 45 0
91 91 0
102 102 0
79 79 0
112 112 0
79 79 0
0 0 0
102 102 0
102 102 0
102 102 0
129 129 0
112 112 0
102 102 0
64 64 0
64 64 0
79 79 0
102 102 0
112 112 0
64 64 0
79 79 0
79 79 0
91 91 0
64 64 0
64 64 0
79 79 0
91 91 0
45 45 0
129 129 0
64 64 0
91 91 0
79 79 0
91 91 0
121 121 0
102 102 0
91 91 0
103 104 0
103 104 0
112 112 0
91 91 0
102 102 0
91 91 0
121 121 0
121 121 0
91 91 0
121 121 0
79 79 0
102 102 0
64 64 0
144 144 0
102 102 0
112 112 0
102 102 0
102 102 0
45 45 0
102 102 0
79 79 0
102 102 0
64 64 0
121 121 0
137 138 0
45 45 0
102 102 0
79 79 0
64 64 0
112 112 0
102 102 0
79 79 0
102 102 0
0 0 0
45 45 0
121 121 0
103 104 0
91 91 0
79 79 0
102 102 0
121 122 0
91 91 0
66 67 0
91 91 0
66 67 0
91 91 0
103 104 0
102 102 0
64 64 0
45 45 0
64 64 0
0 0 0
79 79 0
64 64 0
80 81 0
80 81 0
79 79 0
45 45 0
64 64 0
80 81 0
45 45 0
0 0 0
79 79 0
67 69 0
64 64 0
64 64 0
0 0 0
47 49 0
64 64 0
49 52 0
0 0 0
45 45 0
0 0 0
64 65 0
0 0 0
12 18 0
18 25 0
12 18 0
0 0 0
0 0 0
0 0 0
0 0 0
12 18 0
0 0 0
22 31 0
3 7 0
0 0 0
0 0 0
0 0 0
0 0 0
0 0 0
12 18 0
12 18 0
0 0 0
12 18 0
18 25 0
12 18 0
0 0 0
0 0 0
12 18 0
3 7 0
0 0 0
0 0 0
0 0 0
0 0 0
1 2 0
3 7 0
0 0 0
0 0 0
12 18 0
0 0 0
0 0 0
0 0 0
12 18 0
0 0 0
0 0 0
0 0 0
0 0 0
0 0 0
0 1 0
12 18 0
0 0 0
3 7 0
12 18 0
1 2 0
12 18 0
0 0 0
0 0 0
0 0 0
0 0 0
0 0 0
0 0 0
0 0 0
0 0 0
0 0 0
0 0 0
3 7 0
0 0 0
0 0 0
0 0 0
0 0 0
0 0 0
0 0 0
0 0 0
0 0 0
0 0 0
0 0 0
0 0 0
0 0 0
1 2 0
1 2 0
0 0 0
0 0 0
0 0 0
0 0 0
0 0 0
0 0 0
3 7 0
0 0 0
3 7 0
1 2 0
1 2 0
0 0 0
18 25 0
12 18 0
12 18 0
0 0 0
3 7 0
0 0 0
0 0 0
0 0 0
1 2 0
0 0 0
22 31 0
3 7 0
12 18 0
0 0 0
0 0 0
0 1 0
0 0 0
0 0 0
0 0 0
3 7 0
12 18 0
0 0 0
0 0 0
0 0 0
3 7 0
18 25 0
1 2 0
0 0 0
18 25 0
12 18 0
0 0 0
3 7 0
0 0 0
18 25 0
0 0 0
12 18 0
12 18 0
18 25 0
12 18 0
0 0 0
0 0 0
0 0 0
0 0 0
12 18 0
3 7 0
0 0 0
45 45 0
0 0 0
12 18 0
0 0 0
12 18 0
0 0 0
0 0 0
0 0 0
0 0 0
13 19 0
45 45 0
12 18 0
45 46 0
0 0 0
18 26 0
91 91 0
45 45 0
64 64 0
66 67 0
64 64 0
47 49 0
47 49 0
64 64 0
45 45 0
64 64 0
45 45 0
91 91 0
45 45 0
102 102 0
64 65 0
102 102 0
121 121 0
79 79 0
79 79 0
79 79 0
91 91 0
45 45 0
91 91 0
79 79 0
79 79 0
112 112 0
91 91 0
66 67 0
64 64 0
112 112 0
103 104 0
121 121 0
91 91 0
92 93 0
91 91 0
79 79 0
64 64 0
130 132 0
102 102 0
64 64 0
64 64 0
64 64 0
64 64 0
64 64 0
79 79 0
137 137 0
47 49 0
80 81 0
129 129 0
130 130 0
91 91 0
48 50 0
92 93 0
0 0 0
102 102 0
64 64 0
144 144 0
91 91 0
80 81 0
129 129 0
102 102 0
112 112 0
103 104 0
91 91 0
91 91 0
64 64 0
102 102 0
91 91 0
64 64 0
91 91 0
91 91 0
79 79 0
112 112 0
45 45 0
64 64 0
92 93 0
91 91 0
79 79 0
64 64 0
112 112 0
102 102 0
64 64 0
79 79 0
79 79 0
112 112 0
102 102 0
113 114 0
0 0 0
64 64 0
112 112 0
137 137 0
64 64 0
129 129 0
91 91 0
102 102 0
151 151 0
102 102 0
102 102 0
129 129 0
64 64 0
45 45 0
45 45 0
79 79 0
102 102 0
102 102 0
64 64 0
102 102 0
79 79 0
137 137 0
64 64 0
79 79 0
79 79 0
64 64 0
91 91 0
121 121 0
91 91 0
79 79 0
64 64 0
64 64 0
64 64 0
79 79 0
121 121 0
91 91 0
79 79 0
92 93 0
80 81 0
91 91 0
91 91 0
79 79 0
91 91 0
121 121 0
91 91 0
66 67 0
79 79 0
102 102 0
45 45 0
45 45 0
91 91 0
91 91 0
102 102 0
0 0 0
64 64 0
79 79 0
79 79 0
64 64 0
102 102 0
112 112 0
79 79 0
79 79 0
79 79 0
92 93 0
102 102 0
64 64 0
112 112 0
102 102 0
79 79 0
112 112 0
79 79 0
121 121 0
91 91 0
121 121 0
91 91 0
64 64 0
79 79 0
64 64 0
121 121 0
80 81 0
121 121 0
137 137 0
103 104 0
144 144 0
102 102 0
121 121 0
102 102 0
112 112 0
79 79 0
91 91 0
103 104 0
129 129 0
79 79 0
112 112 0
79 79 0
79 79 0
79 79 0
102 102 0
121 121 0
64 64 0
91 91 0
102 102 0
102 102 0
64 64 0
102 102 0
91 91 0
112 112 0
112 112 0
79 79 0
91 91 0
45 45 0
121 121 0
64 64 0
102 102 0
129 129 0
45 45 0
129 129 0
92 93 0
102 102 0
91 91 0
79 79 0
45 45 0
64 64 0
91 91 0
45 45 0
0 0 0
112 112 0
66 67 0
79 79 0
64 64 0
79 79 0
79 79 0
67 69 0
91 91 0
112 112 0
64 64 0
45 45 0
79 79 0
102 102 0
64 64 0
91 91 0
92 93 0
91 91 0
45 45 0
79 79 0
45 45 0
45 45 0
66 67 0
0 0 0
79 79 0
92 93 0
0 0 0
0 0 0
0 0 0
0 0 0
0 0 0
45 45 0
49 53 0
0 0 0
0 0 0
47 49 0
0 0 0
22 31 0
1 2 0
12 18 0
3 7 0
0 0 0
18 26 0
0 0 0
0 0 0
0 0 0
0 0 0
0 0 0
3 7 0
0 0 0
0 0 0
13 19 0
0 0 0
0 0 0
0 0 0
0 0 0
0 0 0
3 7 0
0 0 0
0 0 0
0 0 0
0 0 0
0 0 0
0 0 0
3 7 0
12 18 0
0 0 0
0 0 0
0 0 0
3 7 0
0 0 0
0 0 0
12 18 0
13 19 0
0 0 0
0 0 0
0 0 0
0 0 0
13 19 0
3 7 0
12 18 0
12 18 0
0 0 0
0 0 0
3 7 0
0 0 0
18 26 0
0 0 0
0 0 0
3 7 0
3 7 0
0 0 0
12 18 0
0 0 0
0 0 0
0 0 0
0 0 0
0 0 0
1 2 0
0 0 0
0 0 0
0 0 0
1 2 0
3 7 0
0 0 0
0 0 0
3 7 0
0 0 0
3 7 0
0 0 0
0 1 0
0 0 0
0 0 0
0 0 0
12 18 0
0 0 0
0 0 0
0 0 0
0 0 0
0 0 0
0 0 0
0 0 0
3 7 0
0 0 0
0 0 0
0 0 0
3 7 0
0 0 0
0 0 0
1 2 0
0 0 0
0 0 0
0 0 0
0 0 0
12 18 0
0 0 0
0 0 0
18 25 0
0 0 0
12 18 0
0 1 0
12 18 0
0 0 0
12 18 0
1 2 0
3 7 0
0 0 0
0 0 0
0 0 0
12 18 0
0 0 0
0 0 0
0 0 0
1 2 0
0 0 0
0 0 0
0 0 0
18 25 0
3 7 0
0 0 0
0 0 0
3 7 0
0 0 0
12 18 0
1 2 0
0 0 0
0 0 0
12 18 0
0 0 0
0 0 0
18 25 0
0 0 0
3 7 0
3 7 0
12 18 0
45 45 0
0 0 0
0 0 0
12 18 0
0 0 0
45 45 0
79 79 0
45 45 0
64 64 0
12 18 0
49 52 0
12 18 0
45 45 0
3 7 0
91 91 0
64 64 0
79 79 0
47 49 0
91 91 0
79 79 0
64 64 0
91 91 0
91 91 0
79 79 0
64 64 0
64 64 0
79 79 0
79 79 0
45 45 0
91 91 0
79 79 0
91 91 0
64 64 0
45 45 0
64 64 0
102 102 0
102 102 0
91 91 0
91 91 0
64 64 0
103 104 0
91 91 0
103 104 0
112 112 0
64 64 0
79 79 0
64 64 0
91 91 0
79 79 0
102 102 0
112 112 0
121 121 0
112 113 0
91 91 0
92 93 0
112 113 0
112 113 0
79 79 0
112 112 0
102 102 0
102 102 0
91 91 0
79 79 0
79 79 0
91 91 0
91 91 0
91 91 0
79 79 0
91 91 0
91 91 0
79 79 0
102 102 0
112 112 0
102 102 0
112 112 0
112 112 0
121 121 0
121 121 0
64 64 0
45 45 0
91 91 0
79 79 0
91 91 0
91 91 0
102 102 0
112 112 0
64 64 0
64 64 0
112 112 0
91 91 0
91 91 0
79 79 0
79 79 0
79 79 0
121 122 0
102 102 0
91 91 0
121 121 0
91 91 0
79 79 0
112 112 0
102 102 0
91 91 0
79 79 0
137 137 0
91 91 0
79 79 0
102 102 0
121 121 0
79 79 0
137 137 0
112 112 0
0 0 0
79 79 0
45 45 0
112 112 0
79 79 0
102 102 0
79 79 0
129 129 0
129 129 0
45 45 0
112 112 0
91 91 0
112 112 0
91 91 0
64 64 0
102 102 0
91 91 0
79 79 0
79 79 0
0 0 0
102 102 0
64 64 0
91 91 0
79 79 0
91 91 0
79 79 0
113 114 0
45 45 0
45 45 0
79 79 0
64 64 0
91 91 0
92 93 0
102 102 0
64 65 0
64 64 0
121 121 0
144 144 0
79 79 0
112 113 0
79 79 0
45 45 0
91 91 0
102 102 0
112 112 0
91 91 0
91 91 0
79 79 0
112 112 0
79 79 0
64 64 0
102 102 0
91 91 0
64 64 0
45 45 0
112 112 0
79 79 0
129 129 0
91 91 0
91 91 0
64 64 0
103 104 0
91 91 0
112 112 0
92 93 0
64 64 0
91 91 0
102 102 0
102 102 0
102 102 0
129 129 0
102 102 0
64 64 0
64 64 0
91 91 0
102 102 0
91 91 0
102 102 0
121 122 0
121 122 0
113 115 0
102 102 0
102 102 0
64 64 0
91 91 0
102 102 0
121 121 0
64 64 0
121 121 0
80 81 0
79 79 0
91 91 0
129 129 0
79 79 0
64 64 0
79 79 0
47 49 0
112 112 0
64 64 0
102 102 0
102 102 0
80 81 0
112 112 0
112 112 0
112 112 0
64 64 0
66 67 0
129 129 0
64 64 0
79 79 0
91 91 0
45 45 0
45 45 0
91 91 0
45 45 0
102 102 0
91 91 0
112 112 0
64 64 0
64 65 0
91 91 0
91 91 0
45 45 0
79 79 0
121 121 0
102 102 0
91 91 0
64 64 0
0 0 0
102 102 0
91 91 0
79 79 0
79 79 0
47 49 0
45 45 0
45 45 0
0 0 0
18 25 0
12 18 0
79 79 0
64 64 0
64 65 0
45 45 0
45 45 0
45 45 0
64 64 0
45 45 0
66 67 0
0 0 0
45 45 0
0 0 0
0 0 0
47 49 0
0 0 0
3 7 0
12 18 0
0 0 0
0 0 0
0 0 0
0 0 0
0 0 0
0 0 0
0 0 0
0 0 0
0 0 0
0 0 0
12 18 0
0 0 0
12 18 0
18 25 0
12 18 0
0 0 0
12 18 0
0 0 0
0 0 0
0 0 0
18 25 0
0 0 0
13 19 0
3 7 0
12 18 0
0 0 0
12 18 0
0 0 0
13 21 0
1 4 0
0 0 0
0 0 0
12 18 0
12 18 0
0 0 0
0 0 0
0 0 0
12 18 0
0 0 0
0 0 0
0 0 0
0 0 0
0 0 0
0 0 0
5 10 0
0 0 0
0 0 0
0 0 0
0 0 0
0 0 0
0 0 0
1 2 0
3 7 0
0 0 0
0 0 0
0 0 0
0 0 0
13 19 0
0 0 0
0 0 0
0 0 0
3 7 0
0 0 0
0 0 0
3 7 0
0 0 0
0 0 0
0 1 0
0 0 0
0 0 0
0 0 0
3 7 0
0 0 0
0 0 0
0 0 0
18 25 0
12 18 0
0 0 0
0 0 0
0 0 0
12 18 0
0 0 0
12 18 0
0 0 0
0 0 0
0 0 0
0 0 0
0 0 0
1 2 0
0 0 0
0 0 0
0 0 0
0 0 0
0 0 0
0 0 0
12 18 0
0 0 0
0 0 0
3 7 0
12 18 0
13 19 0
0 0 0
0 0 0
0 0 0
12 18 0
0 0 0
5 10 0
0 0 0
0 0 0
0 0 0
3 7 0
0 0 0
12 18 0
12 18 0
0 0 0
0 0 0
0 0 0
18 25 0
12 18 0
0 0 0
0 0 0
12 18 0
0 0 0
0 0 0
0 0 0
0 0 0
0 0 0
0 0 0
12 18 0
0 0 0
0 0 0
0 0 0
3 7 0
12 18 0
47 49 0
0 0 0
64 64 0
12 18 0
45 45 0
0 0 0
12 18 0
45 45 0
45 45 0
45 45 0
45 45 0
64 64 0
66 67 0
47 49 0
64 64 0
91 91 0
91 91 0
45 45 0
64 64 0
64 64 0
45 46 0
79 79 0
64 64 0
91 91 0
102 102 0
66 67 0
91 91 0
79 79 0
91 91 0
91 91 0
102 102 0
103 104 0
91 91 0
64 64 0
79 79 0
79 79 0
64 64 0
64 64 0
80 81 0
64 64 0
80 81 0
103 104 0
79 79 0
66 67 0
91 91 0
102 102 0
0 0 0
102 102 0
112 112 0
91 91 0
121 121 0
91 91 0
91 91 0
112 113 0
64 64 0
165 165 0
79 79 0
102 102 0
121 121 0
91 91 0
121 121 0
112 112 0
79 79 0
129 129 0
45 45 0
64 64 0
137 137 0
79 79 0
112 112 0
129 129 0
121 121 0
102 102 0
102 102 0
129 129 0
79 79 0
91 91 0
79 79 0
45 45 0
103 104 0
91 91 0
121 121 0
79 79 0
0 0 0
91 91 0
64 64 0
91 91 0
121 121 0
64 64 0
91 91 0
112 112 0
102 102 0
79 79 0
92 93 0
79 79 0
91 91 0
102 102 0
102 102 0
64 64 0
91 91 0
102 102 0
91 91 0
91 91 0
92 93 0
79 79 0
79 79 0
79 79 0
112 112 0
91 91 0
102 102 0
91 91 0
112 112 0
102 102 0
121 121 0
91 91 0
0 0 0
79 79 0
91 91 0
121 121 0
91 91 0
79 79 0
121 122 0
112 113 0
91 91 0
102 102 0
91 91 0
79 79 0
80 81 0
64 64 0
102 102 0
79 79 0
79 79 0
64 64 0
121 121 0
91 91 0
80 81 0
112 112 0
64 64 0
64 64 0
112 112 0
64 64 0
91 91 0
121 121 0
103 104 0
66 67 0
91 91 0
102 102 0
45 45 0
45 45 0
91 91 0
79 79 0
102 102 0
0 0 0
79 79 0
64 64 0
91 91 0
64 64 0
112 112 0
102 102 0
79 79 0
79 79 0
102 102 0
112 113 0
102 102 0
64 64 0
112 113 0
102 102 0
79 79 0
112 112 0
103 104 0
121 121 0
79 79 0
103 104 0
64 64 0
91 91 0
64 64 0
102 102 0
102 102 0
112 113 0
129 129 0
137 137 0
121 122 0
112 112 0
112 112 0
137 137 0
64 64 0
79 79 0
79 79 0
121 122 0
91 91 0
121 121 0
45 45 0
112 112 0
91 91 0
79 79 0
112 112 0
79 79 0
102 102 0
112 112 0
79 79 0
64 64 0
102 102 0
91 91 0
64 64 0
112 112 0
91 91 0
121 121 0
79 79 0
45 45 0
79 79 0
91 91 0
91 91 0
121 121 0
91 91 0
102 102 0
91 91 0
112 113 0
91 91 0
91 91 0
64 64 0
45 45 0
91 91 0
79 79 0
0 0 0
112 112 0
66 67 0
64 64 0
79 79 0
79 79 0
3 7 0
112 113 0
80 81 0
91 91 0
79 79 0
45 45 0
79 79 0
45 45 0
64 64 0
64 64 0
92 93 0
91 91 0
64 64 0
80 81 0
0 0 0
64 64 0
64 64 0
12 18 0
45 45 0
91 91 0
47 49 0
0 0 0
0 0 0
0 0 0
0 0 0
12 18 0
13 19 0
12 18 0
0 0 0
45 45 0
0 0 0
22 31 0
0 0 0
12 18 0
13 19 0
0 0 0
18 25 0
3 7 0
0 0 0
0 0 0
0 0 0
0 0 0
0 0 0
0 0 0
0 0 0
3 7 0
12 18 0
0 0 0
12 18 0
0 0 0
12 18 0
12 18 0
0 0 0
0 0 0
18 25 0
0 0 0
0 0 0
3 7 0
0 0 0
0 0 0
0 0 0
12 18 0
12 18 0
0 0 0
12 18 0
0 0 0
0 0 0
3 7 0
0 0 0
0 0 0
0 0 0
13 19 0
12 18 0
0 0 0
12 18 0
12 18 0
0 0 0
0 0 0
1 2 0
3 7 0
3 7 0
0 0 0
3 7 0
0 0 0
0 0 0
0 0 0
0 0 0
3 7 0
0 0 0
12 18 0
0 0 0
3 7 0
0 0 0
0 0 0
0 0 0
0 0 0
0 0 0
0 0 0
0 0 0
0 0 0
0 0 0
3 7 0
0 0 0
0 0 0
1 2 0
0 0 0
0 0 0
0 0 0
0 0 0
0 0 0
0 0 0
0 0 0
1 2 0
0 0 0
0 0 0
1 2 0
0 0 0
12 18 0
0 0 0
3 7 0
0 0 0
0 0 0
5 10 0
0 0 0
0 0 0
0 0 0
0 0 0
0 0 0
0 0 0
3 7 0
0 1 0
3 7 0
0 0 0
3 7 0
0 0 0
12 18 0
3 7 0
1 2 0
0 0 0
12 18 0
0 0 0
0 0 0
3 7 0
1 4 0
0 0 0
0 0 0
0 0 0
5 10 0
0 0 0
0 0 0
0 0 0
0 0 0
12 18 0
0 0 0
3 7 0
18 25 0
0 0 0
0 0 0
0 0 0
12 18 0
0 0 0
0 0 0
0 0 0
0 0 0
0 0 0
12 18 0
12 18 0
12 18 0
13 19 0
0 0 0
45 45 0
18 25 0
0 0 0
12 18 0
45 45 0
0 0 0
64 64 0
0 0 0
64 64 0
49 52 0
79 79 0
45 45 0
45 45 0
64 64 0
66 67 0
64 64 0
47 49 0
0 0 0
79 79 0
79 79 0
49 52 0
79 79 0
66 67 0
47 49 0
64 64 0
45 45 0
45 45 0
79 79 0
64 64 0
47 49 0
79 79 0
91 91 0
64 64 0
102 102 0
102 102 0
64 64 0
45 45 0
112 112 0
47 49 0
102 102 0
92 93 0
64 64 0
79 79 0
152 152 0
91 91 0
79 79 0
79 79 0
64 64 0
103 104 0
102 102 0
91 91 0
79 79 0
121 121 0
64 65 0
102 102 0
112 112 0
79 79 0
64 64 0
112 113 0
102 102 0
102 102 0
79 79 0
92 93 0
64 64 0
121 122 0
66 67 0
129 129 0
79 79 0
48 50 0
91 91 0
79 79 0
45 45 0
91 91 0
79 79 0
121 121 0
102 102 0
112 112 0
64 64 0
91 91 0
102 102 0
137 137 0
102 102 0
129 129 0
79 79 0
129 129 0
112 113 0
91 91 0
129 129 0
102 102 0
47 49 0
91 91 0
102 102 0
64 64 0
79 79 0
79 79 0
80 81 0
79 79 0
79 79 0
112 112 0
64 64 0
121 121 0
91 91 0
45 45 0
102 102 0
79 79 0
91 91 0
91 91 0
112 112 0
64 64 0
45 45 0
64 64 0
112 112 0
91 91 0
79 79 0
121 121 0
102 102 0
91 91 0
91 91 0
64 64 0
79 79 0
91 91 0
102 102 0
64 64 0
112 112 0
102 102 0
64 64 0
91 91 0
102 102 0
91 91 0
102 102 0
102 102 0
64 64 0
112 112 0
79 79 0
79 79 0
64 64 0
112 112 0
91 91 0
112 112 0
91 91 0
79 79 0
137 137 0
102 102 0
66 67 0
129 129 0
102 102 0
91 91 0
129 129 0
91 91 0
137 137 0
79 79 0
79 79 0
64 64 0
91 91 0
79 79 0
45 45 0
121 121 0
102 102 0
102 102 0
79 79 0
91 91 0
79 79 0
91 91 0
121 121 0
45 45 0
64 64 0
112 112 0
112 112 0
112 112 0
91 91 0
79 79 0
112 112 0
64 64 0
137 137 0
138 138 0
121 121 0
91 91 0
91 91 0
79 79 0
92 93 0
102 102 0
91 91 0
64 64 0
112 112 0
112 112 0
112 112 0
79 79 0
103 104 0
102 102 0
129 129 0
64 64 0
112 112 0
64 64 0
102 102 0
137 137 0
91 91 0
91 91 0
64 64 0
102 102 0
102 102 0
129 129 0
66 67 0
91 91 0
145 147 0
91 91 0
102 102 0
121 121 0
91 91 0
45 45 0
102 102 0
102 102 0
102 102 0
102 102 0
102 102 0
130 130 0
64 64 0
79 79 0
79 79 0
64 64 0
137 137 0
102 102 0
64 64 0
45 45 0
64 64 0
81 83 0
45 45 0
102 102 0
47 49 0
45 45 0
80 81 0
66 67 0
92 93 0
45 45 0
79 79 0
79 79 0
45 45 0
80 81 0
79 79 0
64 64 0
45 45 0
91 91 0
66 67 0
112 112 0
0 0 0
45 45 0
80 81 0
64 64 0
81 83 0
80 81 0
45 45 0
12 18 0
12 18 0
0 0 0
64 64 0
12 18 0
0 0 0
18 25 0
64 64 0
66 67 0
12 18 0
12 18 0
45 45 0
12 18 0
0 0 0
0 0 0
18 25 0
18 25 0
0 0 0
0 0 0
0 0 0
0 0 0
0 0 0
0 0 0
12 18 0
0 0 0
12 18 0
0 0 0
0 0 0
12 18 0
0 0 0
0 0 0
3 7 0
1 2 0
0 0 0
0 0 0
0 0 0
0 0 0
18 25 0
0 0 0
12 18 0
0 0 0
0 0 0
0 0 0
0 0 0
3 7 0
0 0 0
0 0 0
0 0 0
0 0 0
0 0 0
0 0 0
3 7 0
0 0 0
0 0 0
1 2 0
0 0 0
12 18 0
0 0 0
0 0 0
0 0 0
0 0 0
0 0 0
0 0 0
13 19 0
1 2 0
0 0 0
0 0 0
0 0 0
12 18 0
3 7 0
0 0 0
0 0 0
0 0 0
0 0 0
0 0 0
0 0 0
0 0 0
0 0 0
0 0 0
0 0 0
0 0 0
0 0 0
0 0 0
0 0 0
0 0 0
0 0 0
12 18 0
1 2 0
3 7 0
0 0 0
0 0 0
0 0 0
0 0 0
12 18 0
0 0 0
0 0 0
0 0 0
0 0 0
3 7 0
12 18 0
0 0 0
0 0 0
0 0 0
0 0 0
1 2 0
0 0 0
0 0 0
0 0 0
0 0 0
0 0 0
0 0 0
3 7 0
0 0 0
0 0 0
0 0 0
12 18 0
0 0 0
3 7 0
12 18 0
13 19 0
0 0 0
0 0 0
0 0 0
12 18 0
0 0 0
0 0 0
0 0 0
0 0 0
0 0 0
0 0 0
12 18 0
0 0 0
0 0 0
18 27 0
0 0 0
0 0 0
12 18 0
12 18 0
0 0 0
0 0 0
13 21 0
12 18 0
0 0 0
0 0 0
0 0 0
12 18 0
12 18 0
0 0 0
0 0 0
22 31 0
0 0 0
12 18 0
12 18 0
64 64 0
45 45 0
45 45 0
3 7 0
12 18 0
47 49 0
66 67 0
45 45 0
79 79 0
79 79 0
91 91 0
66 67 0
79 79 0
80 81 0
64 64 0
64 64 0
0 0 0
45 45 0
64 64 0
64 64 0
64 64 0
79 79 0
79 79 0
45 45 0
91 91 0
45 45 0
64 64 0
79 79 0
64 64 0
79 79 0
112 112 0
112 112 0
79 79 0
91 91 0
121 121 0
91 91 0
79 79 0
79 79 0
102 102 0
112 112 0
102 102 0
91 91 0
112 113 0
121 121 0
45 45 0
47 49 0
80 81 0
91 91 0
64 64 0
66 67 0
45 45 0
64 64 0
64 64 0
112 112 0
91 91 0
45 45 0
91 91 0
129 129 0
45 45 0
80 81 0
103 104 0
112 112 0
91 91 0
91 91 0
102 102 0
137 138 0
66 67 0
113 115 0
102 102 0
79 79 0
129 129 0
91 91 0
103 104 0
91 91 0
103 104 0
102 102 0
79 79 0
130 131 0
91 91 0
121 121 0
64 64 0
129 129 0
112 112 0
45 45 0
91 91 0
91 91 0
91 91 0
79 79 0
112 112 0
102 102 0
129 129 0
121 121 0
102 102 0
102 102 0
102 102 0
79 79 0
112 112 0
112 112 0
112 113 0
91 91 0
91 91 0
64 64 0
45 45 0
112 112 0
0 0 0
79 79 0
102 102 0
0 0 0
91 91 0
121 121 0
64 64 0
45 45 0
102 102 0
79 79 0
112 112 0
79 79 0
79 79 0
121 121 0
64 64 0
91 91 0
121 121 0
79 79 0
45 45 0
12 18 0
79 79 0
64 64 0
102 102 0
91 91 0
64 64 0
45 45 0
79 79 0
121 121 0
64 64 0
92 93 0
121 121 0
64 64 0
64 64 0
102 102 0
64 64 0
102 102 0
112 112 0
92 93 0
66 67 0
91 91 0
91 91 0
45 45 0
64 64 0
64 64 0
79 79 0
91 91 0
0 0 0
79 79 0
91 91 0
79 79 0
79 79 0
121 121 0
112 112 0
64 64 0
91 91 0
102 102 0
103 104 0
91 91 0
79 79 0
112 113 0
91 91 0
79 79 0
112 112 0
92 93 0
144 144 0
64 64 0
91 91 0
64 64 0
91 91 0
64 64 0
112 112 0
80 81 0
121 121 0
137 137 0
129 129 0
121 121 0
121 121 0
121 121 0
112 112 0
79 79 0
79 79 0
79 79 0
112 113 0
102 102 0
121 121 0
64 64 0
112 112 0
64 64 0
79 79 0
91 91 0
91 91 0
79 79 0
121 121 0
79 79 0
91 91 0
92 93 0
102 102 0
64 64 0
79 79 0
92 93 0
45 45 0
79 79 0
45 45 0
102 102 0
64 64 0
80 81 0
137 137 0
64 64 0
121 121 0
92 93 0
103 104 0
45 45 0
64 64 0
45 45 0
45 45 0
91 91 0
64 64 0
64 64 0
102 102 0
47 49 0
79 79 0
79 79 0
64 64 0
45 46 0
102 102 0
80 81 0
91 91 0
45 45 0
3 7 0
80 81 0
102 102 0
45 45 0
79 79 0
66 67 0
92 93 0
47 49 0
80 81 0
64 64 0
64 64 0
64 64 0
0 0 0
64 64 0
121 122 0
12 18 0
45 45 0
0 0 0
0 0 0
45 45 0
0 0 0
13 19 0
0 0 0
45 45 0
0 0 0
0 0 0
18 25 0
0 0 0
0 0 0
13 19 0
0 0 0
12 18 0
0 0 0
0 0 0
0 0 0
0 0 0
0 0 0
0 0 0
0 0 0
0 0 0
3 7 0
12 18 0
0 0 0
12 18 0
0 0 0
12 18 0
12 18 0
0 0 0
0 0 0
18 25 0
0 0 0
0 0 0
3 7 0
18 25 0
0 0 0
0 0 0
0 0 0
0 0 0
0 0 0
12 18 0
0 0 0
0 0 0
0 0 0
0 0 0
0 0 0
0 0 0
3 7 0
1 2 0
0 0 0
0 0 0
0 0 0
0 0 0
0 0 0
0 0 0
0 0 0
0 0 0
12 18 0
1 2 0
0 0 0
0 0 0
0 0 0
12 18 0
0 0 0
0 0 0
0 0 0
0 0 0
3 7 0
12 18 0
0 0 0
0 0 0
0 0 0
12 18 0
3 7 0
3 7 0
12 18 0
0 0 0
0 0 0
0 0 0
0 0 0
0 0 0
1 2 0
0 0 0
0 0 0
1 2 0
0 0 0
0 0 0
3 7 0
0 0 0
0 0 0
0 0 0
0 0 0
0 1 0
0 0 0
0 0 0
3 7 0
0 0 0
0 0 0
0 0 0
0 0 0
0 1 0
0 0 0
0 0 0
1 2 0
0 0 0
0 0 0
12 18 0
12 18 0
3 7 0
12 18 0
12 18 0
0 0 0
0 0 0
0 0 0
0 0 0
0 0 0
0 0 0
0 0 0
0 0 0
0 0 0
0 0 0
0 0 0
0 0 0
12 18 0
0 0 0
0 0 0
0 0 0
12 18 0
0 0 0
0 0 0
18 25 0
18 25 0
0 0 0
0 0 0
0 0 0
12 18 0
0 0 0
0 0 0
12 18 0
0 0 0
12 18 0
12 18 0
0 0 0
3 7 0
0 0 0
0 0 0
47 49 0
0 0 0
45 46 0
0 0 0
45 45 0
0 0 0
12 18 0
12 18 0
0 0 0
45 45 0
0 0 0
45 45 0
0 0 0
45 45 0
45 45 0
79 79 0
45 45 0
91 91 0
0 0 0
45 45 0
79 79 0
79 79 0
79 79 0
66 67 0
3 7 0
64 64 0
66 67 0
64 64 0
112 112 0
81 83 0
79 79 0
102 102 0
138 139 0
91 91 0
79 79 0
112 113 0
45 45 0
64 64 0
92 93 0
91 91 0
121 122 0
129 129 0
91 91 0
102 102 0
79 79 0
64 64 0
112 112 0
102 102 0
102 102 0
121 121 0
79 79 0
79 79 0
112 112 0
91 91 0
79 79 0
129 129 0
91 91 0
91 91 0
79 79 0
91 91 0
102 102 0
91 91 0
91 91 0
80 81 0
79 79 0
112 112 0
92 93 0
137 137 0
79 79 0
121 121 0
79 79 0
91 91 0
91 91 0
102 102 0
0 0 0
79 79 0
91 91 0
79 79 0
112 112 0
102 102 0
47 49 0
79 79 0
66 67 0
91 91 0
112 112 0
91 91 0
64 64 0
103 104 0
79 79 0
64 64 0
91 91 0
66 67 0
121 121 0
112 112 0
64 64 0
45 45 0
102 102 0
91 91 0
121 121 0
112 112 0
102 102 0
112 112 0
137 137 0
112 112 0
112 112 0
103 104 0
129 129 0
91 91 0
91 91 0
91 91 0
45 45 0
91 91 0
64 64 0
91 91 0
91 91 0
64 64 0
112 112 0
64 64 0
79 79 0
102 102 0
66 67 0
91 91 0
102 102 0
64 64 0
91 91 0
91 91 0
103 104 0
45 45 0
79 79 0
79 79 0
102 102 0
45 45 0
80 81 0
91 91 0
129 129 0
91 91 0
64 64 0
91 91 0
0 0 0
91 91 0
137 137 0
79 79 0
112 112 0
112 112 0
129 129 0
64 64 0
102 102 0
79 79 0
112 112 0
79 79 0
66 67 0
121 121 0
79 79 0
79 79 0
103 104 0
79 79 0
91 91 0
121 121 0
0 0 0
112 112 0
91 91 0
64 64 0
137 137 0
102 102 0
79 79 0
102 102 0
112 112 0
102 102 0
112 112 0
102 102 0
91 91 0
66 67 0
79 79 0
0 0 0
102 102 0
112 113 0
103 104 0
91 91 0
91 91 0
79 79 0
91 91 0
102 102 0
79 79 0
64 64 0
91 91 0
112 112 0
121 121 0
91 91 0
79 79 0
102 102 0
91 91 0
129 129 0
151 151 0
64 64 0
129 129 0
102 102 0
91 91 0
80 81 0
80 81 0
79 79 0
121 121 0
79 79 0
91 91 0
45 45 0
102 102 0
129 129 0
137 137 0
103 104 0
102 102 0
79 79 0
144 144 0
129 129 0
64 64 0
80 81 0
129 129 0
80 81 0
102 102 0
102 102 0
45 45 0
91 91 0
102 102 0
91 91 0
79 79 0
64 65 0
12 18 0
64 64 0
79 79 0
91 91 0
64 64 0
79 79 0
47 49 0
0 0 0
45 45 0
45 45 0
0 0 0
112 112 0
91 91 0
79 79 0
80 81 0
45 45 0
45 45 0
92 93 0
64 64 0
79 79 0
13 19 0
45 45 0
64 64 0
47 49 0
45 45 0
12 18 0
64 64 0
66 67 0
45 45 0
64 65 0
64 64 0
0 0 0
0 0 0
0 0 0
45 45 0
0 0 0
79 79 0
0 0 0
0 0 0
12 18 0
18 25 0
0 0 0
18 26 0
0 0 0
0 0 0
12 18 0
18 26 0
0 0 0
0 0 0
12 18 0
12 18 0
12 18 0
3 7 0
12 18 0
0 0 0
13 19 0
12 18 0
12 18 0
0 0 0
0 0 0
12 18 0
12 18 0
0 0 0
12 18 0
0 0 0
0 0 0
12 18 0
0 0 0
5 10 0
0 0 0
0 0 0
0 0 0
3 7 0
3 7 0
3 7 0
18 25 0
5 10 0
0 0 0
3 7 0
0 0 0
0 0 0
0 0 0
0 0 0
0 0 0
0 0 0
0 0 0
0 0 0
0 0 0
3 7 0
12 18 0
12 18 0
0 0 0
0 0 0
0 0 0
0 0 0
0 0 0
1 2 0
12 18 0
0 0 0
3 7 0
12 18 0
3 7 0
0 0 0
13 19 0
0 0 0
0 0 0
0 0 0
3 7 0
0 0 0
0 0 0
0 0 0
0 0 0
0 0 0
0 0 0
0 0 0
0 0 0
12 18 0
0 0 0
3 7 0
3 7 0
0 0 0
0 0 0
12 18 0
0 0 0
0 0 0
0 0 0
0 0 0
0 0 0
0 0 0
0 0 0
3 7 0
0 0 0
0 0 0
12 18 0
0 0 0
12 18 0
0 0 0
0 0 0
3 7 0
0 0 0
12 18 0
0 0 0
0 0 0
12 18 0
0 0 0
18 25 0
3 7 0
0 0 0
12 18 0
0 0 0
0 0 0
12 18 0
12 18 0
12 18 0
12 18 0
0 0 0
12 18 0
0 0 0
0 0 0
0 0 0
0 0 0
0 0 0
0 0 0
3 7 0
12 18 0
0 0 0
12 18 0
18 25 0
12 18 0
18 25 0
18 25 0
0 0 0
0 0 0
0 0 0
0 0 0
0 0 0
12 18 0
0 0 0
12 18 0
45 45 0
0 0 0
3 7 0
0 0 0
12 18 0
0 0 0
0 0 0
12 18 0
0 0 0
0 0 0
0 0 0
0 0 0
45 45 0
92 93 0
0 0 0
12 18 0
64 64 0
91 91 0
64 64 0
64 64 0
45 45 0
66 67 0
64 64 0
45 45 0
79 79 0
64 64 0
66 67 0
112 112 0
91 91 0
91 91 0
64 64 0
91 91 0
93 95 0
102 102 0
64 64 0
45 45 0
112 112 0
64 64 0
64 64 0
112 113 0
79 79 0
91 91 0
79 79 0
91 91 0
130 130 0
91 91 0
91 91 0
91 91 0
64 64 0
91 91 0
79 79 0
91 91 0
91 91 0
121 122 0
121 121 0
79 79 0
79 79 0
64 64 0
121 121 0
102 102 0
79 79 0
79 79 0
64 64 0
121 121 0
121 121 0
105 107 0
45 45 0
102 102 0
129 129 0
91 91 0
91 91 0
79 79 0
102 102 0
91 91 0
112 112 0
112 112 0
121 121 0
102 102 0
102 102 0
112 112 0
64 64 0
64 64 0
129 129 0
112 112 0
64 64 0
45 45 0
45 45 0
79 79 0
45 45 0
79 79 0
79 79 0
92 93 0
91 91 0
102 102 0
102 102 0
91 91 0
64 64 0
112 112 0
79 79 0
45 45 0
79 79 0
91 91 0
144 144 0
91 91 0
91 91 0
91 91 0
79 79 0
112 112 0
112 112 0
91 91 0
102 102 0
79 79 0
112 112 0
64 64 0
79 79 0
151 151 0
121 121 0
79 79 0
0 0 0
137 137 0
112 112 0
91 91 0
102 102 0
79 79 0
91 91 0
91 91 0
91 91 0
79 79 0
79 79 0
0 0 0
79 79 0
129 129 0
64 64 0
91 91 0
112 112 0
64 64 0
79 79 0
91 91 0
80 81 0
102 102 0
112 113 0
91 91 0
92 93 0
79 79 0
102 102 0
45 45 0
64 64 0
64 64 0
102 102 0
91 91 0
66 67 0
79 79 0
91 91 0
64 64 0
91 91 0
129 129 0
91 91 0
79 79 0
102 102 0
102 102 0
112 113 0
79 79 0
91 91 0
102 102 0
91 91 0
79 79 0
102 102 0
112 112 0
137 137 0
64 64 0
79 79 0
64 64 0
91 91 0
64 64 0
137 137 0
80 81 0
129 129 0
102 102 0
137 137 0
112 112 0
112 112 0
112 112 0
129 129 0
102 102 0
91 91 0
91 91 0
102 102 0
121 121 0
102 102 0
91 91 0
91 91 0
45 45 0
112 112 0
91 91 0
91 91 0
112 113 0
121 121 0
91 91 0
64 64 0
79 79 0
121 121 0
64 64 0
79 79 0
102 102 0
45 45 0
79 79 0
64 64 0
102 102 0
91 91 0
91 91 0
121 121 0
45 45 0
158 158 0
104 105 0
91 91 0
66 67 0
0 0 0
64 64 0
64 64 0
102 102 0
45 45 0
91 91 0
45 45 0
67 69 0
79 79 0
91 91 0
64 64 0
103 104 0
66 67 0
102 102 0
45 45 0
45 45 0
64 64 0
80 81 0
64 64 0
0 0 0
79 79 0
47 49 0
81 83 0
79 79 0
66 67 0
64 64 0
64 64 0
64 64 0
0 0 0
79 79 0
79 79 0
12 18 0
45 45 0
0 0 0
0 0 0
45 45 0
0 0 0
3 7 0
0 0 0
45 45 0
12 18 0
0 0 0
18 25 0
0 0 0
0 0 0
0 0 0
12 18 0
3 7 0
0 0 0
12 18 0
0 0 0
0 0 0
0 0 0
0 0 0
0 0 0
0 0 0
13 19 0
0 0 0
0 0 0
12 18 0
12 18 0
0 0 0
12 18 0
0 0 0
12 18 0
0 0 0
0 0 0
0 0 0
5 10 0
22 31 0
0 0 0
3 7 0
0 0 0
0 0 0
12 18 0
18 25 0
5 10 0
0 0 0
12 18 0
0 0 0
0 0 0
0 0 0
0 0 0
0 0 0
12 18 0
0 0 0
5 10 0
3 7 0
0 0 0
12 18 0
12 18 0
3 7 0
0 0 0
0 0 0
0 0 0
12 18 0
0 0 0
0 0 0
0 0 0
0 0 0
13 19 0
12 18 0
0 0 0
0 0 0
0 0 0
0 0 0
0 0 0
0 0 0
0 0 0
3 7 0
0 0 0
1 2 0
0 0 0
0 0 0
0 0 0
0 0 0
0 0 0
0 0 0
0 1 0
0 0 0
0 0 0
0 0 0
0 0 0
18 25 0
0 0 0
0 0 0
0 0 0
12 18 0
0 0 0
12 18 0
0 0 0
0 0 0
12 18 0
18 25 0
0 0 0
1 3 0
0 0 0
12 18 0
18 25 0
12 18 0
0 0 0
23 33 0
0 0 0
0 0 0
0 0 0
0 0 0
0 0 0
12 18 0
0 0 0
3 7 0
0 0 0
0 0 0
12 18 0
12 18 0
0 0 0
0 0 0
12 18 0
12 18 0
0 0 0
0 0 0
0 0 0
0 0 0
12 18 0
0 0 0
0 0 0
0 0 0
0 0 0
0 0 0
0 0 0
0 0 0
0 0 0
0 0 0
3 7 0
0 0 0
0 0 0
12 18 0
13 19 0
0 0 0
3 7 0
12 18 0
45 45 0
0 0 0
0 0 0
12 18 0
0 0 0
12 18 0
0 0 0
0 0 0
45 45 0
45 45 0
47 49 0
79 79 0
0 0 0
91 91 0
64 64 0
47 49 0
0 0 0
45 45 0
45 45 0
45 45 0
64 64 0
92 93 0
64 64 0
66 67 0
66 67 0
47 49 0
64 64 0
91 91 0
80 81 0
80 81 0
64 64 0
91 91 0
91 91 0
91 91 0
80 81 0
66 67 0
64 64 0
102 102 0
80 81 0
93 95 0
102 102 0
64 64 0
112 112 0
91 91 0
121 121 0
112 113 0
79 79 0
64 64 0
103 104 0
45 45 0
79 79 0
64 64 0
102 102 0
112 113 0
112 112 0
79 79 0
79 79 0
79 79 0
79 79 0
112 113 0
91 91 0
158 158 0
121 121 0
103 104 0
80 81 0
112 112 0
79 79 0
64 64 0
129 129 0
79 79 0
91 91 0
79 79 0
91 91 0
92 93 0
91 91 0
102 102 0
79 79 0
112 112 0
121 121 0
112 112 0
112 112 0
112 112 0
112 112 0
91 91 0
79 79 0
79 79 0
79 79 0
45 45 0
64 64 0
79 79 0
79 79 0
102 102 0
91 91 0
79 79 0
45 45 0
45 45 0
64 64 0
102 102 0
79 79 0
102 102 0
102 102 0
45 45 0
79 79 0
91 91 0
80 81 0
102 102 0
79 79 0
91 91 0
64 64 0
64 64 0
102 102 0
102 102 0
121 121 0
91 91 0
121 121 0
79 79 0
121 121 0
129 129 0
79 79 0
129 129 0
102 102 0
80 81 0
91 91 0
66 67 0
45 45 0
112 112 0
79 79 0
45 45 0
79 79 0
121 121 0
91 91 0
64 64 0
79 79 0
112 112 0
0 0 0
91 91 0
64 64 0
112 112 0
91 91 0
79 79 0
102 102 0
102 102 0
48 50 0
79 79 0
112 112 0
64 64 0
80 81 0
121 121 0
92 93 0
64 64 0
64 64 0
64 64 0
64 64 0
102 102 0
102 102 0
112 112 0
121 121 0
102 102 0
79 79 0
112 112 0
91 91 0
91 91 0
91 91 0
79 79 0
129 129 0
102 102 0
91 91 0
92 93 0
102 102 0
112 112 0
102 102 0
79 79 0
121 121 0
79 79 0
81 83 0
102 102 0
112 112 0
64 64 0
91 91 0
79 79 0
102 102 0
121 121 0
80 81 0
103 104 0
64 64 0
64 64 0
64 64 0
112 112 0
102 102 0
64 64 0
91 91 0
102 102 0
66 67 0
79 79 0
102 102 0
91 91 0
64 64 0
91 91 0
137 137 0
91 91 0
79 79 0
91 91 0
91 91 0
129 129 0
102 102 0
102 102 0
129 129 0
45 45 0
79 79 0
103 104 0
79 79 0
80 81 0
121 121 0
45 45 0
79 79 0
64 64 0
121 121 0
137 137 0
102 102 0
67 70 0
92 93 0
91 91 0
102 102 0
102 102 0
91 91 0
112 112 0
91 91 0
102 102 0
64 64 0
79 79 0
64 64 0
91 91 0
66 67 0
64 64 0
45 46 0
66 67 0
45 46 0
102 102 0
67 69 0
64 64 0
0 0 0
64 64 0
0 0 0
64 64 0
12 18 0
64 64 0
45 45 0
66 67 0
12 18 0
64 64 0
64 64 0
64 64 0
79 79 0
64 64 0
12 18 0
12 18 0
45 45 0
45 45 0
80 81 0
45 45 0
45 45 0
0 0 0
47 49 0
0 0 0
45 45 0
0 0 0
3 7 0
0 0 0
0 0 0
3 7 0
12 18 0
0 0 0
12 18 0
0 0 0
0 0 0
0 0 0
0 0 0
12 18 0
0 0 0
0 0 0
0 0 0
18 25 0
3 7 0
0 0 0
0 0 0
0 0 0
3 7 0
18 25 0
12 18 0
0 0 0
0 0 0
12 18 0
12 18 0
3 7 0
12 18 0
0 0 0
12 18 0
0 0 0
0 0 0
0 0 0
0 0 0
0 0 0
0 0 0
0 0 0
3 7 0
0 0 0
0 0 0
0 0 0
12 18 0
0 0 0
0 0 0
12 18 0
18 26 0
0 0 0
0 0 0
0 0 0
0 0 0
0 0 0
3 7 0
13 19 0
0 0 0
12 18 0
0 0 0
0 0 0
0 0 0
0 0 0
0 0 0
0 0 0
18 25 0
0 0 0
0 0 0
0 0 0
3 7 0
0 0 0
3 7 0
18 25 0
0 0 0
5 10 0
0 0 0
0 0 0
1 2 0
0 0 0
0 0 0
0 0 0
0 0 0
0 0 0
3 7 0
0 1 0
3 7 0
0 0 0
0 0 0
0 0 0
0 0 0
0 0 0
12 18 0
0 0 0
0 0 0
18 25 0
0 0 0
12 18 0
0 0 0
0 0 0
12 18 0
18 25 0
0 0 0
12 18 0
12 18 0
0 0 0
3 7 0
0 0 0
12 18 0
0 0 0
12 18 0
0 0 0
0 0 0
12 18 0
0 0 0
0 0 0
0 0 0
12 18 0
0 0 0
22 31 0
0 0 0
0 0 0
3 7 0
0 0 0
3 7 0
0 0 0
12 18 0
0 0 0
0 0 0
12 18 0
0 0 0
0 0 0
0 0 0
0 0 0
12 18 0
18 26 0
0 0 0
0 0 0
0 0 0
0 0 0
0 0 0
0 0 0
47 49 0
12 18 0
45 45 0
45 45 0
66 67 0
0 0 0
45 46 0
0 0 0
45 45 0
103 104 0
0 0 0
66 67 0
45 45 0
47 49 0
0 0 0
64 64 0
45 45 0
79 79 0
64 64 0
91 91 0
3 7 0
91 91 0
79 79 0
79 79 0
79 79 0
64 64 0
45 45 0
79 79 0
79 79 0
80 81 0
0 0 0
92 93 0
102 102 0
80 81 0
80 81 0
102 102 0
45 45 0
91 91 0
64 64 0
112 112 0
91 91 0
45 45 0
79 79 0
112 112 0
92 93 0
129 129 0
79 79 0
129 129 0
129 129 0
112 112 0
121 121 0
79 79 0
92 93 0
121 121 0
112 112 0
79 79 0
79 79 0
102 102 0
64 64 0
64 64 0
112 113 0
102 102 0
45 45 0
64 64 0
129 129 0
121 121 0
121 121 0
112 112 0
79 79 0
79 79 0
79 79 0
91 91 0
112 112 0
91 91 0
112 112 0
91 91 0
79 79 0
102 102 0
64 64 0
130 130 0
64 64 0
91 91 0
112 112 0
102 102 0
129 129 0
64 64 0
102 102 0
130 130 0
64 64 0
91 91 0
91 91 0
64 64 0
79 79 0
137 137 0
92 93 0
79 79 0
91 91 0
102 102 0
91 91 0
79 79 0
91 91 0
91 91 0
91 91 0
79 79 0
64 64 0
129 129 0
103 104 0
103 104 0
64 64 0
121 121 0
112 112 0
64 64 0
112 112 0
137 138 0
79 79 0
64 64 0
92 93 0
112 112 0
64 64 0
0 0 0
45 45 0
79 79 0
66 67 0
102 102 0
79 79 0
79 79 0
79 79 0
79 79 0
91 91 0
0 0 0
79 79 0
129 129 0
45 45 0
91 91 0
91 91 0
79 79 0
79 79 0
102 102 0
66 67 0
102 102 0
103 104 0
91 91 0
103 104 0
79 79 0
102 102 0
45 45 0
64 64 0
45 45 0
102 102 0
91 91 0
80 81 0
79 79 0
91 91 0
64 64 0
91 91 0
79 79 0
92 93 0
79 79 0
91 91 0
112 112 0
129 129 0
45 45 0
91 91 0
91 91 0
79 79 0
112 112 0
64 64 0
121 121 0
102 102 0
91 91 0
45 45 0
91 91 0
79 79 0
79 79 0
121 121 0
66 67 0
137 137 0
144 144 0
79 79 0
102 102 0
112 112 0
112 112 0
102 102 0
64 64 0
102 102 0
91 91 0
91 91 0
121 121 0
64 64 0
102 102 0
91 91 0
0 0 0
112 112 0
91 91 0
102 102 0
102 102 0
112 112 0
79 79 0
102 102 0
0 0 0
112 112 0
64 64 0
79 79 0
64 64 0
79 79 0
79 79 0
79 79 0
91 91 0
64 64 0
121 121 0
79 79 0
91 91 0
137 137 0
113 115 0
79 79 0
47 49 0
64 64 0
45 45 0
102 102 0
64 64 0
79 79 0
79 79 0
66 67 0
47 49 0
92 93 0
64 64 0
64 64 0
102 102 0
64 64 0
64 64 0
79 79 0
0 0 0
92 93 0
79 79 0
79 79 0
45 45 0
80 81 0
66 67 0
47 49 0
79 79 0
0 0 0
79 79 0
64 64 0
0 0 0
45 45 0
91 91 0
45 45 0
0 1 0
0 0 0
45 45 0
0 0 0
0 0 0
0 0 0
0 0 0
45 45 0
13 19 0
0 0 0
18 25 0
0 0 0
0 0 0
12 18 0
0 0 0
12 18 0
13 19 0
0 1 0
0 0 0
0 0 0
0 0 0
0 0 0
0 0 0
12 18 0
0 0 0
3 7 0
0 0 0
0 0 0
0 0 0
12 18 0
0 0 0
0 0 0
0 0 0
18 25 0
3 7 0
0 0 0
0 0 0
0 0 0
18 25 0
0 0 0
12 18 0
0 0 0
12 18 0
12 18 0
22 31 0
13 19 0
0 0 0
12 18 0
1 2 0
0 0 0
13 19 0
0 0 0
0 0 0
0 0 0
3 7 0
0 0 0
12 18 0
12 18 0
0 0 0
18 25 0
0 0 0
0 0 0
0 0 0
1 2 0
3 7 0
12 18 0
0 0 0
0 0 0
3 7 0
12 18 0
0 0 0
12 18 0
3 7 0
0 0 0
0 0 0
12 18 0
0 0 0
12 18 0
0 0 0
12 18 0
3 7 0
0 0 0
12 18 0
0 0 0
0 0 0
0 0 0
3 7 0
3 7 0
0 0 0
0 0 0
3 7 0
0 0 0
0 0 0
0 0 0
0 0 0
0 0 0
0 0 0
12 18 0
3 7 0
3 7 0
3 7 0
0 1 0
0 0 0
12 18 0
12 18 0
12 18 0
12 18 0
0 0 0
0 0 0
3 7 0
0 0 0
12 18 0
0 0 0
0 0 0
0 0 0
0 0 0
12 18 0
12 18 0
12 18 0
0 0 0
1 2 0
0 0 0
3 7 0
12 18 0
3 7 0
12 18 0
0 0 0
0 0 0
0 0 0
12 18 0
13 19 0
12 18 0
12 18 0
3 7 0
18 25 0
18 26 0
0 0 0
0 0 0
12 18 0
0 0 0
0 0 0
0 0 0
0 0 0
0 0 0
0 0 0
12 18 0
0 0 0
45 45 0
13 19 0
0 0 0
0 0 0
45 45 0
0 0 0
0 0 0
45 45 0
0 0 0
45 45 0
45 45 0
45 45 0
45 45 0
45 45 0
79 79 0
0 0 0
47 49 0
64 64 0
80 81 0
0 0 0
45 45 0
79 79 0
45 45 0
79 79 0
12 18 0
79 79 0
102 102 0
12 18 0
45 45 0
91 91 0
64 64 0
81 83 0
91 91 0
121 122 0
45 45 0
121 122 0
121 121 0
79 79 0
79 79 0
79 79 0
121 121 0
79 79 0
47 49 0
80 81 0
91 91 0
91 91 0
112 113 0
64 64 0
102 102 0
93 95 0
45 45 0
81 83 0
121 121 0
45 45 0
81 83 0
112 112 0
79 79 0
64 64 0
91 91 0
91 91 0
91 91 0
79 79 0
80 81 0
91 91 0
102 102 0
91 91 0
91 91 0
91 91 0
102 102 0
80 81 0
129 129 0
79 79 0
0 0 0
93 95 0
64 64 0
121 121 0
91 91 0
112 112 0
137 137 0
92 93 0
151 151 0
91 91 0
91 91 0
79 79 0
112 112 0
79 79 0
79 79 0
79 79 0
79 79 0
91 91 0
79 79 0
102 102 0
79 79 0
102 102 0
121 121 0
104 105 0
102 102 0
102 102 0
102 102 0
102 102 0
79 79 0
64 64 0
66 67 0
79 79 0
64 64 0
79 79 0
64 64 0
79 79 0
112 112 0
64 64 0
79 79 0
64 64 0
64 64 0
64 64 0
121 121 0
79 79 0
102 102 0
79 79 0
64 64 0
79 79 0
91 91 0
91 91 0
102 102 0
45 45 0
91 91 0
91 91 0
64 64 0
91 91 0
102 102 0
102 102 0
79 79 0
121 121 0
79 79 0
129 129 0
121 121 0
91 91 0
91 91 0
112 112 0
79 79 0
91 91 0
79 79 0
79 79 0
79 79 0
102 102 0
129 129 0
80 81 0
91 91 0
64 64 0
81 83 0
102 102 0
112 112 0
64 64 0
91 91 0
64 64 0
121 121 0
91 91 0
64 64 0
102 102 0
79 79 0
79 79 0
91 91 0
103 104 0
79 79 0
112 113 0
121 122 0
79 79 0
45 45 0
64 64 0
45 45 0
45 45 0
79 79 0
91 91 0
144 144 0
91 91 0
129 129 0
79 79 0
145 146 0
45 45 0
79 79 0
121 121 0
92 93 0
112 112 0
137 137 0
91 91 0
91 91 0
79 79 0
144 144 0
144 144 0
79 79 0
91 91 0
112 112 0
64 64 0
92 93 0
79 79 0
79 79 0
79 79 0
64 64 0
92 93 0
103 104 0
112 112 0
92 93 0
79 79 0
79 79 0
121 122 0
64 64 0
103 104 0
79 79 0
79 79 0
91 91 0
80 81 0
91 91 0
91 91 0
79 79 0
102 102 0
112 112 0
91 91 0
80 81 0
64 64 0
91 91 0
102 102 0
47 49 0
102 102 0
64 64 0
112 112 0
50 55 0
102 102 0
66 67 0
92 93 0
91 91 0
64 64 0
79 79 0
79 79 0
121 121 0
91 91 0
91 91 0
91 91 0
64 64 0
92 93 0
45 45 0
64 64 0
80 81 0
45 45 0
91 91 0
64 64 0
64 64 0
64 64 0
66 67 0
0 0 0
47 49 0
79 79 0
45 45 0
0 0 0
45 45 0
12 18 0
66 67 0
64 64 0
79 79 0
3 7 0
49 52 0
66 67 0
22 31 0
45 46 0
0 0 0
45 45 0
18 25 0
45 45 0
0 0 0
0 0 0
0 0 0
12 18 0
18 25 0
18 25 0
0 0 0
3 7 0
0 0 0
0 0 0
0 0 0
0 0 0
12 18 0
12 18 0
12 18 0
12 18 0
0 0 0
0 0 0
0 0 0
0 0 0
0 0 0
12 18 0
0 0 0
18 25 0
0 0 0
3 7 0
0 0 0
0 0 0
18 25 0
0 0 0
0 0 0
0 0 0
0 0 0
12 18 0
3 7 0
0 0 0
12 18 0
0 0 0
0 0 0
0 0 0
0 0 0
0 0 0
18 25 0
0 0 0
0 0 0
0 0 0
0 0 0
0 0 0
0 0 0
0 0 0
0 0 0
0 0 0
0 0 0
0 0 0
12 18 0
0 0 0
0 0 0
0 1 0
0 0 0
0 0 0
0 0 0
0 0 0
0 0 0
0 0 0
12 18 0
0 0 0
0 0 0
0 0 0
0 0 0
12 18 0
0 0 0
12 18 0
3 7 0
0 0 0
0 0 0
0 0 0
12 18 0
1 2 0
0 0 0
13 19 0
0 0 0
12 18 0
3 7 0
0 0 0
0 0 0
0 0 0
0 0 0
0 0 0
12 18 0
0 0 0
0 0 0
0 0 0
3 7 0
0 0 0
0 0 0
3 7 0
12 18 0
12 18 0
0 0 0
12 18 0
0 0 0
0 0 0
0 0 0
0 0 0
13 19 0
12 18 0
0 0 0
0 0 0
12 18 0
0 0 0
13 19 0
0 0 0
0 0 0
0 0 0
3 7 0
0 0 0
0 0 0
0 0 0
3 7 0
0 0 0
0 0 0
18 25 0
12 18 0
0 0 0
0 0 0
0 0 0
0 0 0
0 0 0
12 18 0
0 0 0
12 18 0
0 0 0
0 0 0
12 18 0
12 18 0
0 0 0
12 18 0
12 18 0
0 0 0
49 53 0
0 0 0
0 0 0
80 81 0
45 45 0
0 0 0
67 69 0
47 49 0
45 45 0
64 64 0
0 0 0
0 0 0
45 45 0
79 79 0
0 0 0
92 93 0
47 49 0
0 0 0
64 64 0
79 79 0
64 64 0
67 69 0
91 91 0
47 49 0
66 67 0
121 121 0
102 102 0
45 45 0
79 79 0
112 112 0
47 49 0
45 45 0
79 79 0
45 45 0
0 0 0
102 102 0
45 45 0
91 91 0
45 45 0
102 102 0
64 64 0
79 79 0
79 79 0
130 131 0
79 79 0
64 64 0
102 102 0
64 64 0
79 79 0
112 113 0
45 45 0
64 64 0
137 137 0
103 104 0
93 95 0
80 81 0
92 93 0
64 65 0
64 64 0
79 79 0
80 81 0
91 91 0
92 93 0
64 64 0
45 45 0
144 144 0
91 91 0
112 112 0
91 91 0
64 64 0
80 81 0
112 112 0
102 102 0
91 91 0
129 129 0
145 145 0
137 137 0
129 129 0
91 91 0
79 79 0
129 129 0
47 49 0
102 102 0
102 102 0
64 64 0
91 91 0
0 0 0
91 91 0
66 67 0
121 121 0
0 0 0
121 121 0
91 91 0
144 144 0
112 112 0
112 112 0
102 102 0
79 79 0
102 102 0
91 91 0
103 104 0
91 91 0
79 79 0
79 79 0
64 64 0
64 64 0
45 45 0
121 122 0
112 112 0
79 79 0
112 112 0
102 102 0
112 112 0
91 91 0
80 81 0
79 79 0
79 79 0
91 91 0
91 91 0
79 79 0
64 64 0
64 64 0
102 102 0
79 79 0
64 64 0
79 79 0
121 121 0
80 81 0
79 79 0
45 45 0
91 91 0
45 45 0
64 64 0
79 79 0
79 79 0
45 45 0
91 91 0
102 102 0
79 79 0
121 122 0
92 93 0
121 121 0
91 91 0
121 121 0
64 64 0
79 79 0
91 91 0
45 45 0
112 112 0
102 102 0
64 64 0
79 79 0
102 102 0
91 91 0
103 104 0
102 102 0
80 81 0
158 158 0
102 102 0
79 79 0
80 81 0
64 64 0
92 93 0
121 121 0
45 45 0
64 64 0
64 64 0
102 102 0
0 0 0
91 91 0
121 121 0
93 95 0
112 112 0
102 102 0
112 112 0
112 113 0
79 79 0
112 112 0
91 91 0
121 121 0
112 112 0
102 102 0
102 102 0
91 91 0
45 45 0
112 112 0
121 121 0
102 102 0
102 102 0
91 91 0
91 91 0
102 102 0
66 67 0
91 91 0
79 79 0
91 91 0
64 64 0
92 93 0
91 91 0
102 102 0
91 91 0
121 121 0
64 64 0
121 122 0
64 64 0
79 79 0
64 64 0
102 102 0
79 79 0
102 102 0
79 79 0
102 102 0
79 79 0
79 79 0
112 113 0
121 121 0
121 121 0
79 79 0
45 45 0
79 79 0
102 102 0
45 45 0
64 64 0
66 67 0
64 64 0
79 79 0
79 79 0
79 79 0
103 104 0
45 45 0
121 121 0
64 64 0
92 93 0
66 67 0
64 65 0
79 79 0
64 64 0
45 45 0
66 67 0
64 64 0
45 45 0
0 0 0
1 2 0
91 91 0
47 49 0
47 49 0
0 0 0
45 45 0
47 49 0
12 18 0
47 49 0
68 72 0
66 67 0
45 45 0
47 49 0
0 0 0
0 0 0
49 53 0
45 46 0
0 0 0
0 0 0
18 25 0
0 0 0
0 0 0
0 0 0
12 18 0
0 0 0
12 18 0
0 0 0
0 0 0
22 31 0
0 0 0
3 7 0
0 0 0
0 0 0
0 0 0
0 0 0
0 0 0
0 0 0
0 0 0
13 19 0
12 18 0
12 18 0
0 0 0
0 0 0
12 18 0
12 18 0
12 18 0
0 0 0
0 0 0
18 25 0
0 0 0
18 25 0
3 7 0
12 18 0
1 2 0
0 0 0
0 0 0
0 0 0
3 7 0
0 0 0
0 0 0
12 18 0
0 0 0
0 0 0
12 18 0
0 0 0
0 0 0
0 0 0
0 0 0
12 18 0
0 0 0
0 0 0
3 7 0
13 19 0
0 0 0
0 0 0
0 0 0
12 18 0
0 0 0
0 0 0
0 0 0
0 0 0
0 1 0
0 0 0
3 7 0
0 0 0
0 0 0
0 0 0
0 0 0
13 19 0
12 18 0
12 18 0
0 0 0
0 0 0
0 0 0
0 0 0
12 18 0
0 0 0
0 0 0
0 0 0
0 0 0
12 18 0
0 0 0
0 0 0
12 18 0
12 18 0
0 0 0
12 18 0
0 0 0
0 0 0
0 0 0
0 0 0
0 0 0
0 0 0
3 7 0
0 0 0
0 0 0
3 7 0
0 0 0
0 0 0
0 0 0
0 0 0
3 7 0
0 0 0
0 0 0
0 0 0
0 0 0
3 7 0
13 21 0
0 0 0
0 0 0
3 7 0
0 0 0
0 0 0
0 0 0
0 0 0
12 18 0
0 0 0
3 7 0
0 0 0
3 7 0
18 25 0
0 0 0
0 0 0
0 0 0
12 18 0
0 0 0
12 18 0
0 0 0
0 0 0
0 0 0
12 18 0
12 18 0
0 0 0
18 25 0
0 0 0
50 55 0
0 0 0
12 18 0
0 0 0
12 18 0
12 18 0
12 18 0
47 49 0
45 45 0
67 69 0
66 67 0
45 45 0
47 49 0
12 18 0
0 0 0
91 91 0
12 18 0
47 49 0
64 64 0
64 64 0
45 45 0
47 49 0
45 45 0
45 45 0
79 79 0
91 91 0
91 91 0
47 49 0
91 91 0
79 79 0
64 64 0
0 0 0
64 64 0
79 79 0
79 79 0
102 102 0
102 102 0
91 91 0
66 67 0
103 104 0
92 93 0
91 91 0
64 64 0
92 93 0
91 91 0
102 102 0
91 91 0
102 102 0
79 79 0
79 79 0
64 64 0
64 64 0
64 64 0
64 64 0
79 79 0
45 45 0
79 79 0
102 102 0
102 102 0
66 67 0
103 104 0
112 113 0
92 93 0
102 102 0
92 93 0
79 79 0
79 79 0
79 79 0
64 64 0
45 45 0
79 79 0
64 64 0
112 112 0
112 112 0
64 64 0
79 79 0
79 79 0
112 112 0
102 102 0
112 112 0
102 102 0
112 112 0
103 104 0
129 129 0
121 121 0
102 102 0
130 130 0
121 121 0
91 91 0
112 112 0
112 112 0
64 64 0
112 113 0
102 102 0
112 112 0
79 79 0
112 112 0
91 91 0
121 121 0
102 102 0
45 45 0
45 45 0
91 91 0
121 121 0
91 91 0
79 79 0
64 65 0
64 64 0
45 45 0
91 91 0
102 102 0
102 102 0
91 91 0
80 81 0
112 112 0
129 129 0
91 91 0
79 79 0
79 79 0
91 91 0
102 102 0
79 79 0
64 64 0
112 112 0
80 81 0
91 91 0
112 112 0
102 102 0
92 93 0
64 64 0
130 130 0
102 102 0
64 64 0
91 91 0
79 79 0
137 137 0
45 45 0
92 93 0
91 91 0
137 137 0
91 91 0
79 79 0
102 102 0
91 91 0
79 79 0
79 79 0
112 112 0
91 91 0
91 91 0
112 112 0
12 18 0
102 102 0
92 93 0
102 102 0
137 137 0
102 102 0
47 49 0
92 93 0
64 64 0
91 91 0
112 112 0
45 45 0
145 145 0
102 102 0
102 102 0
103 104 0
64 64 0
79 79 0
79 79 0
121 122 0
112 112 0
102 102 0
113 114 0
91 91 0
112 112 0
102 102 0
112 112 0
64 64 0
121 121 0
112 112 0
112 112 0
121 121 0
112 113 0
102 102 0
112 112 0
64 64 0
121 121 0
112 112 0
112 112 0
80 81 0
91 91 0
45 45 0
92 93 0
137 137 0
112 112 0
103 104 0
79 79 0
79 79 0
91 91 0
137 137 0
79 79 0
91 91 0
102 102 0
79 79 0
92 93 0
103 104 0
91 91 0
67 69 0
66 67 0
79 79 0
64 64 0
129 129 0
91 91 0
79 79 0
66 67 0
112 112 0
66 67 0
45 45 0
79 79 0
79 79 0
91 91 0
112 113 0
129 129 0
91 91 0
80 81 0
79 79 0
79 79 0
102 102 0
64 64 0
79 79 0
80 81 0
66 67 0
66 67 0
45 45 0
0 0 0
80 81 0
79 79 0
0 0 0
45 45 0
64 64 0
66 67 0
79 79 0
0 0 0
64 64 0
64 65 0
66 67 0
64 64 0
45 45 0
92 93 0
47 49 0
64 64 0
64 64 0
45 45 0
0 0 0
66 67 0
45 45 0
47 49 0
47 49 0
12 18 0
0 0 0
0 0 0
66 67 0
45 46 0
45 45 0
0 0 0
0 0 0
45 45 0
12 18 0
0 0 0
0 0 0
3 7 0
12 18 0
12 18 0
0 0 0
0 0 0
0 0 0
0 0 0
12 18 0
0 0 0
1 2 0
0 0 0
0 0 0
3 7 0
0 0 0
12 18 0
0 0 0
0 0 0
1 2 0
0 0 0
1 2 0
0 0 0
0 0 0
0 0 0
1 2 0
18 25 0
3 7 0
12 18 0
12 18 0
3 7 0
12 18 0
0 0 0
12 18 0
1 2 0
0 0 0
12 18 0
0 0 0
0 0 0
3 7 0
12 18 0
3 7 0
12 18 0
12 18 0
0 0 0
3 7 0
0 0 0
3 7 0
0 0 0
0 0 0
0 0 0
0 0 0
0 0 0
0 0 0
0 0 0
0 0 0
12 18 0
0 0 0
0 0 0
12 18 0
12 18 0
12 18 0
12 18 0
3 7 0
0 0 0
0 0 0
0 0 0
12 18 0
0 0 0
5 10 0
0 0 0
0 0 0
0 0 0
12 18 0
12 18 0
12 18 0
12 18 0
0 0 0
0 0 0
0 0 0
0 0 0
12 18 0
0 0 0
3 7 0
0 0 0
0 0 0
0 0 0
0 0 0
0 0 0
0 0 0
12 18 0
0 0 0
12 18 0
0 0 0
0 0 0
0 0 0
12 18 0
0 0 0
0 0 0
0 0 0
0 0 0
12 18 0
12 18 0
0 0 0
12 18 0
12 18 0
0 0 0
0 0 0
0 0 0
0 0 0
0 0 0
0 0 0
18 25 0
0 0 0
0 0 0
12 18 0
13 19 0
12 18 0
0 0 0
12 18 0
3 7 0
0 0 0
0 0 0
12 18 0
0 0 0
12 18 0
3 7 0
12 18 0
0 0 0
0 0 0
0 0 0
12 18 0
0 0 0
0 0 0
0 0 0
45 45 0
47 49 0
45 45 0
0 0 0
49 52 0
0 0 0
45 45 0
47 49 0
45 45 0
45 45 0
64 64 0
0 0 0
45 45 0
66 67 0
0 0 0
112 112 0
79 79 0
64 64 0
0 0 0
47 49 0
66 67 0
91 91 0
66 67 0
45 45 0
79 79 0
79 79 0
47 49 0
79 79 0
80 81 0
79 79 0
91 91 0
91 91 0
91 91 0
66 67 0
64 64 0
66 67 0
129 129 0
64 65 0
91 91 0
64 64 0
64 64 0
79 79 0
45 45 0
92 93 0
45 45 0
103 104 0
47 49 0
112 113 0
64 64 0
91 91 0
79 79 0
79 79 0
102 102 0
64 64 0
121 121 0
47 49 0
112 113 0
64 64 0
79 79 0
79 79 0
112 112 0
129 129 0
79 79 0
91 91 0
45 45 0
91 91 0
129 129 0
45 45 0
91 91 0
64 64 0
79 79 0
112 112 0
64 64 0
112 113 0
91 91 0
91 91 0
112 112 0
112 112 0
12 18 0
102 102 0
79 79 0
102 102 0
91 91 0
129 129 0
102 102 0
112 112 0
91 91 0
91 91 0
129 129 0
121 121 0
91 91 0
137 137 0
102 102 0
102 102 0
102 102 0
91 91 0
91 91 0
145 146 0
91 91 0
102 102 0
64 64 0
121 121 0
102 102 0
112 112 0
91 91 0
79 79 0
112 113 0
112 112 0
79 79 0
79 79 0
112 112 0
64 64 0
102 102 0
79 79 0
64 64 0
102 102 0
102 102 0
64 64 0
80 81 0
64 64 0
92 93 0
47 49 0
102 102 0
64 64 0
91 91 0
45 45 0
64 64 0
129 129 0
102 102 0
112 112 0
79 79 0
79 79 0
112 112 0
112 112 0
137 137 0
64 64 0
80 81 0
102 102 0
79 79 0
121 121 0
91 91 0
91 91 0
91 91 0
79 79 0
121 121 0
102 102 0
112 112 0
91 91 0
102 102 0
79 79 0
79 79 0
112 112 0
45 45 0
102 102 0
102 102 0
137 137 0
79 79 0
91 91 0
121 121 0
112 112 0
121 121 0
121 121 0
91 91 0
45 45 0
102 102 0
151 151 0
45 45 0
64 64 0
112 112 0
112 112 0
102 102 0
91 91 0
121 121 0
102 102 0
79 79 0
79 79 0
112 112 0
66 67 0
79 79 0
79 79 0
64 64 0
64 64 0
103 104 0
112 112 0
129 129 0
121 122 0
121 121 0
79 79 0
64 64 0
79 79 0
103 104 0
92 93 0
102 102 0
121 121 0
80 81 0
91 91 0
91 91 0
112 112 0
64 65 0
121 121 0
80 81 0
79 79 0
45 45 0
112 112 0
103 104 0
102 102 0
91 91 0
92 93 0
103 104 0
79 79 0
0 0 0
45 45 0
64 65 0
102 102 0
102 102 0
45 46 0
79 79 0
93 95 0
103 104 0
64 64 0
91 91 0
79 79 0
79 79 0
45 45 0
92 93 0
112 112 0
47 49 0
80 81 0
64 64 0
91 91 0
80 81 0
12 18 0
91 91 0
80 81 0
64 64 0
64 64 0
79 79 0
64 64 0
45 45 0
64 64 0
45 45 0
45 45 0
0 0 0
79 79 0
45 45 0
64 64 0
45 45 0
45 45 0
64 64 0
45 45 0
0 0 0
12 18 0
64 64 0
0 0 0
45 45 0
0 0 0
45 45 0
47 50 0
45 45 0
64 64 0
0 0 0
0 0 0
0 0 0
13 19 0
0 0 0
0 0 0
0 0 0
0 0 0
0 0 0
0 0 0
0 0 0
12 18 0
0 0 0
12 18 0
0 0 0
0 0 0
13 19 0
18 25 0
12 18 0
3 7 0
12 18 0
0 0 0
12 18 0
0 1 0
0 0 0
0 0 0
0 0 0
0 0 0
1 2 0
12 18 0
0 0 0
12 18 0
0 0 0
0 0 0
0 0 0
3 7 0
0 0 0
0 0 0
0 0 0
5 10 0
0 0 0
0 0 0
0 0 0
3 7 0
0 0 0
0 0 0
3 7 0
0 0 0
3 7 0
0 0 0
0 0 0
0 0 0
12 18 0
0 0 0
0 0 0
0 0 0
0 0 0
12 18 0
12 18 0
0 0 0
0 0 0
0 0 0
3 7 0
0 0 0
12 18 0
12 18 0
12 18 0
0 0 0
0 0 0
0 0 0
0 0 0
0 0 0
0 0 0
0 0 0
0 0 0
0 0 0
1 2 0
0 0 0
0 0 0
0 0 0
3 7 0
0 0 0
0 0 0
0 0 0
3 7 0
0 0 0
0 0 0
0 0 0
0 0 0
0 0 0
0 0 0
0 0 0
12 18 0
12 18 0
18 25 0
0 0 0
0 0 0
12 18 0
12 18 0
0 0 0
0 0 0
0 0 0
0 0 0
18 25 0
12 18 0
0 0 0
12 18 0
0 0 0
0 0 0
0 0 0
0 0 0
3 7 0
0 0 0
18 25 0
3 7 0
0 0 0
12 18 0
0 0 0
1 2 0
0 0 0
0 0 0
18 25 0
12 18 0
0 0 0
18 25 0
0 0 0
12 18 0
0 0 0
0 0 0
0 0 0
12 18 0
3 7 0
0 0 0
1 2 0
0 0 0
12 18 0
0 0 0
12 18 0
12 18 0
45 45 0
3 7 0
12 18 0
0 0 0
12 18 0
0 0 0
64 64 0
0 0 0
0 0 0
45 45 0
12 18 0
0 0 0
45 45 0
79 79 0
112 112 0
47 49 0
91 91 0
66 67 0
45 45 0
102 102 0
80 81 0
79 79 0
64 64 0
45 45 0
80 81 0
47 49 0
112 112 0
80 81 0
91 91 0
102 102 0
64 64 0
79 79 0
64 64 0
64 64 0
79 79 0
112 113 0
45 45 0
102 102 0
66 67 0
80 81 0
45 45 0
121 121 0
79 79 0
103 104 0
121 121 0
79 79 0
45 45 0
64 64 0
79 79 0
102 102 0
64 64 0
91 91 0
103 104 0
79 79 0
112 112 0
112 112 0
102 102 0
121 121 0
91 91 0
91 91 0
121 121 0
121 121 0
45 45 0
45 45 0
102 102 0
112 112 0
102 102 0
91 91 0
79 79 0
129 129 0
91 91 0
121 121 0
129 129 0
112 113 0
91 91 0
79 79 0
80 81 0
112 112 0
102 102 0
79 79 0
91 91 0
112 112 0
137 137 0
64 64 0
64 64 0
79 79 0
79 79 0
79 79 0
102 102 0
121 121 0
112 112 0
79 79 0
79 79 0
112 112 0
102 102 0
121 121 0
129 129 0
64 64 0
102 102 0
91 91 0
91 91 0
102 102 0
64 64 0
102 102 0
102 102 0
102 102 0
79 79 0
91 91 0
102 102 0
103 104 0
112 113 0
79 79 0
79 79 0
91 91 0
79 79 0
112 112 0
92 93 0
102 102 0
80 81 0
121 121 0
121 121 0
91 91 0
66 67 0
129 129 0
102 102 0
102 102 0
91 91 0
121 121 0
64 64 0
112 112 0
91 91 0
64 64 0
102 102 0
64 64 0
79 79 0
64 64 0
66 67 0
64 64 0
80 81 0
45 45 0
112 112 0
64 64 0
79 79 0
64 64 0
112 112 0
79 79 0
102 102 0
102 102 0
64 64 0
102 102 0
64 64 0
112 112 0
112 112 0
102 102 0
64 64 0
79 79 0
45 45 0
64 64 0
79 79 0
102 102 0
121 121 0
121 121 0
79 79 0
102 102 0
64 64 0
79 79 0
91 91 0
112 112 0
45 45 0
112 112 0
91 91 0
103 104 0
112 112 0
91 91 0
91 91 0
121 121 0
112 112 0
112 112 0
129 129 0
91 91 0
0 0 0
91 91 0
121 121 0
91 91 0
112 113 0
137 138 0
112 112 0
79 79 0
64 64 0
79 79 0
64 64 0
91 91 0
91 91 0
102 102 0
79 79 0
45 45 0
91 91 0
91 91 0
45 45 0
129 129 0
102 102 0
112 113 0
91 91 0
45 45 0
112 112 0
45 45 0
79 79 0
45 45 0
45 45 0
64 64 0
112 112 0
79 79 0
79 79 0
47 49 0
112 112 0
12 18 0
66 67 0
79 79 0
64 64 0
129 129 0
81 83 0
66 67 0
112 113 0
102 102 0
80 81 0
79 79 0
79 79 0
102 102 0
79 79 0
64 64 0
79 79 0
91 91 0
0 0 0
45 45 0
79 79 0
45 45 0
0 0 0
64 64 0
45 45 0
64 64 0
102 102 0
45 45 0
80 81 0
81 83 0
12 18 0
12 18 0
0 0 0
79 79 0
64 64 0
64 64 0
45 45 0
64 64 0
12 18 0
45 45 0
66 67 0
0 0 0
67 69 0
0 0 0
0 0 0
47 49 0
47 49 0
0 0 0
47 49 0
12 18 0
0 0 0
0 0 0
45 45 0
0 0 0
0 0 0
0 0 0
0 0 0
0 0 0
0 0 0
18 25 0
0 0 0
0 0 0
12 18 0
0 0 0
12 18 0
18 25 0
0 0 0
18 25 0
0 0 0
0 0 0
12 18 0
0 0 0
0 0 0
0 0 0
0 0 0
0 0 0
0 0 0
22 31 0
3 7 0
0 0 0
13 19 0
13 19 0
12 18 0
3 7 0
0 0 0
12 18 0
0 0 0
1 2 0
12 18 0
0 0 0
0 0 0
0 0 0
12 18 0
0 0 0
12 18 0
0 0 0
0 0 0
0 0 0
0 0 0
13 19 0
0 0 0
12 18 0
0 0 0
0 0 0
0 0 0
0 0 0
0 0 0
3 7 0
0 0 0
3 7 0
1 2 0
0 0 0
0 0 0
0 0 0
25 36 0
0 0 0
0 0 0
0 0 0
0 0 0
0 0 0
0 0 0
0 0 0
0 0 0
0 0 0
0 1 0
18 25 0
0 0 0
12 18 0
0 0 0
0 0 0
0 0 0
0 0 0
12 18 0
22 31 0
0 0 0
13 19 0
3 7 0
0 0 0
18 25 0
12 18 0
3 7 0
0 0 0
12 18 0
0 0 0
12 18 0
0 0 0
0 0 0
0 0 0
12 18 0
0 0 0
0 0 0
0 0 0
0 0 0
0 0 0
3 7 0
0 0 0
12 18 0
18 25 0
12 18 0
12 18 0
12 18 0
0 0 0
0 0 0
0 0 0
12 18 0
13 19 0
12 18 0
0 0 0
12 18 0
0 0 0
0 0 0
0 0 0
0 0 0
0 0 0
0 0 0
18 26 0
0 0 0
0 0 0
0 0 0
12 18 0
12 18 0
0 0 0
0 0 0
3 7 0
45 45 0
47 49 0
13 19 0
0 0 0
12 18 0
47 49 0
0 0 0
64 64 0
0 0 0
0 0 0
47 49 0
45 45 0
45 45 0
45 45 0
67 69 0
80 81 0
47 49 0
91 91 0
66 67 0
80 81 0
64 64 0
45 45 0
64 64 0
64 64 0
49 52 0
0 0 0
121 121 0
102 102 0
45 45 0
79 79 0
80 81 0
102 102 0
79 79 0
112 112 0
79 79 0
91 91 0
67 69 0
79 79 0
45 45 0
91 91 0
91 91 0
91 91 0
102 102 0
112 112 0
112 112 0
91 91 0
92 93 0
121 121 0
0 0 0
47 49 0
121 122 0
64 64 0
91 91 0
112 112 0
102 102 0
45 45 0
79 79 0
79 79 0
64 64 0
91 91 0
64 64 0
112 112 0
92 93 0
64 64 0
112 112 0
112 112 0
102 102 0
121 121 0
91 91 0
93 95 0
102 102 0
79 79 0
45 45 0
79 79 0
79 79 0
112 112 0
91 91 0
121 121 0
79 79 0
79 79 0
112 112 0
91 91 0
102 102 0
45 45 0
64 64 0
64 64 0
79 79 0
91 91 0
64 64 0
102 102 0
102 102 0
92 93 0
91 91 0
91 91 0
112 112 0
129 129 0
102 102 0
102 102 0
91 91 0
91 91 0
45 45 0
137 137 0
121 121 0
102 102 0
129 129 0
121 121 0
112 112 0
45 45 0
112 112 0
112 112 0
45 45 0
129 129 0
79 79 0
79 79 0
64 64 0
103 104 0
91 91 0
129 129 0
91 91 0
112 112 0
45 45 0
91 91 0
121 121 0
102 102 0
112 112 0
79 79 0
102 102 0
112 112 0
102 102 0
102 102 0
91 91 0
64 64 0
112 112 0
112 112 0
102 102 0
112 112 0
64 64 0
121 121 0
102 102 0
103 104 0
64 64 0
102 102 0
102 102 0
102 102 0
137 137 0
112 112 0
112 112 0
91 91 0
79 79 0
102 102 0
91 91 0
79 79 0
64 64 0
121 121 0
130 131 0
79 79 0
79 79 0
79 79 0
112 113 0
112 113 0
137 137 0
91 91 0
91 91 0
102 102 0
121 121 0
66 67 0
112 112 0
66 67 0
79 79 0
104 105 0
112 112 0
129 129 0
129 129 0
80 81 0
64 64 0
102 102 0
79 79 0
121 121 0
45 45 0
79 79 0
79 79 0
64 64 0
112 113 0
112 113 0
112 113 0
64 64 0
79 79 0
102 102 0
64 64 0
121 121 0
112 112 0
91 91 0
121 121 0
103 104 0
121 121 0
64 64 0
80 81 0
0 0 0
103 104 0
64 64 0
102 102 0
102 102 0
112 113 0
91 91 0
64 64 0
91 91 0
112 112 0
112 112 0
64 64 0
64 64 0
112 112 0
91 91 0
91 91 0
79 79 0
102 102 0
79 79 0
112 112 0
92 93 0
91 91 0
79 79 0
64 64 0
79 79 0
91 91 0
92 93 0
66 67 0
66 67 0
64 64 0
91 91 0
91 91 0
91 91 0
79 79 0
79 79 0
0 0 0
12 18 0
79 79 0
66 67 0
66 67 0
50 55 0
45 45 0
64 64 0
0 0 0
47 49 0
12 18 0
47 49 0
64 64 0
64 64 0
0 0 0
45 45 0
45 45 0
47 49 0
0 0 0
45 45 0
80 81 0
45 45 0
0 0 0
18 25 0
64 64 0
64 64 0
45 45 0
45 45 0
12 18 0
0 0 0
12 18 0
45 45 0
12 18 0
0 0 0
0 0 0
0 0 0
0 0 0
0 0 0
0 0 0
0 0 0
12 18 0
12 18 0
0 0 0
0 0 0
0 0 0
0 0 0
0 0 0
0 0 0
0 0 0
12 18 0
0 0 0
0 0 0
12 18 0
12 18 0
0 0 0
18 26 0
0 0 0
0 0 0
0 0 0
3 7 0
12 18 0
0 0 0
0 0 0
3 7 0
12 18 0
12 18 0
0 0 0
12 18 0
3 7 0
13 19 0
0 0 0
12 18 0
12 18 0
0 0 0
12 18 0
3 7 0
12 18 0
12 18 0
0 0 0
3 7 0
12 18 0
0 0 0
0 0 0
0 0 0
0 0 0
12 18 0
12 18 0
0 0 0
0 0 0
13 19 0
0 0 0
13 19 0
0 0 0
0 0 0
12 18 0
3 7 0
3 7 0
12 18 0
0 0 0
0 0 0
0 0 0
0 0 0
12 18 0
0 0 0
0 0 0
3 7 0
12 18 0
12 18 0
22 31 0
12 18 0
0 0 0
0 0 0
0 0 0
0 0 0
0 0 0
12 18 0
18 25 0
12 18 0
18 26 0
0 0 0
0 0 0
12 18 0
0 0 0
12 18 0
3 7 0
0 0 0
12 18 0
12 18 0
0 1 0
0 0 0
0 0 0
0 0 0
0 0 0
0 0 0
0 0 0
0 0 0
0 0 0
0 0 0
0 0 0
0 0 0
12 18 0
0 0 0
1 2 0
0 0 0
0 0 0
13 19 0
12 18 0
12 18 0
0 0 0
0 0 0
0 0 0
12 18 0
0 0 0
12 18 0
12 18 0
18 26 0
0 0 0
0 0 0
0 0 0
18 25 0
12 18 0
0 0 0
18 26 0
0 1 0
0 0 0
0 0 0
0 0 0
18 25 0
13 19 0
0 0 0
12 18 0
45 45 0
45 45 0
0 0 0
12 18 0
45 45 0
13 19 0
64 64 0
0 0 0
91 91 0
45 45 0
12 18 0
47 49 0
66 67 0
64 64 0
47 49 0
45 45 0
47 49 0
45 46 0
66 67 0
79 79 0
64 64 0
12 18 0
45 45 0
45 45 0
79 79 0
93 95 0
45 45 0
45 45 0
45 45 0
80 81 0
79 79 0
91 91 0
66 67 0
102 102 0
112 112 0
66 67 0
102 102 0
91 91 0
80 81 0
102 102 0
47 49 0
80 81 0
45 45 0
91 91 0
45 45 0
102 102 0
92 93 0
121 121 0
79 79 0
64 64 0
79 79 0
79 79 0
102 102 0
91 91 0
66 67 0
121 121 0
12 18 0
91 91 0
91 91 0
79 79 0
103 104 0
45 45 0
45 45 0
79 79 0
64 64 0
92 93 0
12 18 0
45 45 0
79 79 0
104 105 0
91 91 0
129 129 0
79 79 0
129 129 0
129 129 0
121 121 0
91 91 0
112 112 0
129 129 0
79 79 0
121 121 0
129 129 0
91 91 0
45 45 0
45 45 0
137 137 0
102 102 0
91 91 0
112 112 0
102 102 0
92 93 0
79 79 0
79 79 0
129 129 0
79 79 0
80 81 0
79 79 0
122 122 0
79 79 0
102 102 0
79 79 0
112 112 0
79 79 0
91 91 0
102 102 0
121 121 0
121 121 0
121 121 0
91 91 0
79 79 0
102 102 0
64 64 0
91 91 0
102 102 0
79 79 0
112 112 0
64 64 0
102 102 0
64 64 0
121 121 0
121 121 0
103 104 0
113 114 0
91 91 0
91 91 0
79 79 0
80 81 0
102 102 0
129 129 0
102 102 0
121 121 0
91 91 0
112 112 0
79 79 0
102 102 0
129 129 0
79 79 0
91 91 0
64 64 0
79 79 0
121 121 0
102 102 0
91 91 0
64 64 0
91 91 0
91 91 0
64 65 0
121 121 0
45 45 0
102 102 0
91 91 0
121 121 0
79 79 0
137 137 0
91 91 0
121 121 0
91 91 0
91 91 0
112 112 0
121 121 0
102 102 0
102 102 0
121 121 0
79 79 0
112 112 0
137 137 0
79 79 0
45 45 0
102 102 0
79 79 0
137 137 0
102 102 0
79 79 0
102 102 0
64 64 0
92 93 0
102 102 0
102 102 0
64 64 0
79 79 0
64 64 0
112 112 0
112 112 0
91 91 0
112 112 0
103 104 0
102 102 0
121 122 0
129 129 0
64 64 0
79 79 0
102 102 0
80 81 0
67 69 0
102 102 0
129 129 0
64 64 0
91 91 0
80 81 0
79 79 0
45 45 0
79 79 0
79 79 0
79 79 0
102 102 0
92 93 0
112 112 0
91 91 0
91 91 0
102 102 0
91 91 0
79 79 0
81 83 0
64 64 0
80 81 0
79 79 0
91 91 0
91 91 0
92 93 0
102 102 0
64 64 0
102 102 0
129 129 0
112 112 0
47 49 0
79 79 0
112 113 0
91 91 0
45 45 0
79 79 0
79 79 0
112 113 0
102 102 0
79 79 0
81 83 0
121 121 0
64 64 0
66 67 0
79 79 0
81 83 0
64 64 0
45 45 0
81 83 0
0 0 0
0 0 0
79 79 0
47 49 0
80 81 0
0 0 0
0 0 0
0 0 0
47 49 0
0 0 0
47 49 0
0 0 0
0 0 0
45 45 0
0 0 0
3 7 0
0 0 0
0 0 0
45 45 0
12 18 0
0 0 0
47 49 0
0 0 0
0 0 0
0 0 0
0 0 0
18 25 0
0 0 0
0 0 0
0 0 0
0 0 0
3 7 0
18 25 0
12 18 0
12 18 0
12 18 0
22 31 0
3 7 0
12 18 0
13 21 0
3 7 0
0 0 0
0 0 0
0 0 0
12 18 0
12 18 0
12 18 0
0 1 0
18 25 0
12 18 0
0 0 0
3 7 0
0 0 0
3 7 0
18 25 0
0 0 0
12 18 0
3 7 0
18 25 0
0 0 0
3 7 0
0 0 0
0 0 0
0 0 0
12 18 0
18 25 0
0 0 0
3 7 0
3 7 0
12 18 0
0 0 0
12 18 0
3 7 0
1 2 0
0 0 0
18 25 0
5 10 0
0 0 0
0 0 0
0 0 0
0 0 0
0 0 0
12 18 0
0 0 0
12 18 0
0 0 0
0 0 0
0 0 0
0 0 0
0 0 0
18 26 0
0 0 0
0 0 0
0 0 0
1 2 0
0 0 0
3 7 0
1 2 0
5 10 0
3 7 0
0 0 0
0 0 0
0 0 0
1 2 0
3 7 0
0 0 0
3 7 0
0 0 0
12 18 0
3 7 0
0 0 0
0 0 0
0 0 0
0 0 0
12 18 0
0 0 0
0 0 0
12 18 0
12 18 0
3 7 0
0 0 0
12 18 0
12 18 0
0 0 0
3 7 0
0 0 0
0 0 0
0 0 0
12 18 0
0 0 0
3 7 0
12 18 0
0 0 0
0 0 0
12 18 0
0 0 0
0 0 0
0 0 0
0 0 0
0 0 0
12 18 0
3 7 0
0 0 0
0 0 0
0 0 0
13 21 0
18 26 0
0 0 0
12 18 0
0 0 0
12 18 0
0 0 0
22 31 0
3 7 0
0 0 0
0 0 0
12 18 0
12 18 0
12 18 0
0 0 0
0 0 0
0 0 0
0 0 0
12 18 0
12 18 0
47 49 0
0 0 0
66 67 0
0 0 0
12 18 0
64 64 0
64 64 0
64 64 0
45 45 0
45 45 0
47 49 0
12 18 0
64 64 0
67 69 0
64 64 0
0 0 0
0 0 0
66 67 0
79 79 0
12 18 0
0 0 0
79 79 0
47 49 0
102 102 0
103 104 0
79 79 0
112 112 0
64 64 0
114 116 0
79 79 0
80 81 0
112 112 0
102 102 0
79 79 0
121 121 0
79 79 0
0 0 0
0 0 0
91 91 0
91 91 0
79 79 0
91 91 0
80 81 0
80 81 0
92 93 0
64 64 0
121 121 0
112 112 0
91 91 0
64 64 0
91 91 0
91 91 0
102 102 0
102 102 0
64 64 0
92 93 0
12 18 0
80 81 0
91 91 0
91 91 0
79 79 0
103 104 0
112 112 0
79 79 0
91 91 0
79 79 0
121 121 0
171 171 0
79 79 0
102 102 0
80 81 0
121 121 0
137 137 0
45 45 0
91 91 0
91 91 0
79 79 0
102 102 0
91 91 0
121 121 0
92 93 0
112 112 0
121 121 0
112 112 0
79 79 0
91 91 0
102 102 0
92 93 0
102 102 0
91 91 0
45 45 0
112 112 0
81 83 0
113 114 0
102 102 0
64 64 0
64 64 0
112 112 0
91 91 0
112 113 0
91 91 0
112 112 0
102 102 0
64 64 0
79 79 0
79 79 0
102 102 0
121 121 0
79 79 0
112 112 0
91 91 0
91 91 0
45 45 0
79 79 0
112 112 0
102 102 0
102 102 0
91 91 0
91 91 0
45 45 0
64 64 0
79 79 0
79 79 0
137 137 0
137 138 0
121 122 0
45 45 0
112 112 0
112 112 0
102 102 0
79 79 0
137 137 0
91 91 0
47 49 0
64 64 0
121 121 0
102 102 0
102 102 0
129 129 0
92 93 0
102 102 0
159 159 0
64 64 0
79 79 0
103 104 0
91 91 0
79 79 0
102 102 0
91 91 0
103 104 0
102 102 0
91 91 0
112 112 0
91 91 0
91 91 0
102 102 0
121 121 0
64 64 0
79 79 0
121 121 0
91 91 0
102 102 0
79 79 0
45 45 0
80 81 0
121 121 0
137 137 0
91 91 0
102 102 0
129 129 0
112 113 0
64 64 0
91 91 0
112 112 0
112 112 0
112 112 0
112 112 0
64 64 0
130 130 0
102 102 0
79 79 0
102 102 0
79 79 0
102 102 0
64 64 0
121 121 0
91 91 0
112 112 0
137 138 0
91 91 0
47 49 0
79 79 0
92 93 0
102 102 0
79 79 0
102 102 0
91 91 0
64 64 0
112 112 0
102 102 0
64 64 0
64 64 0
112 112 0
102 102 0
129 129 0
102 102 0
80 81 0
64 64 0
91 91 0
64 64 0
45 45 0
64 64 0
66 67 0
66 67 0
121 121 0
80 81 0
66 67 0
66 67 0
64 64 0
91 91 0
91 91 0
0 0 0
45 45 0
64 64 0
45 45 0
0 0 0
12 18 0
64 64 0
0 0 0
45 46 0
64 64 0
64 64 0
45 45 0
66 67 0
45 45 0
79 79 0
64 64 0
79 79 0
102 102 0
66 67 0
66 67 0
64 64 0
64 64 0
79 79 0
47 49 0
0 0 0
45 45 0
0 0 0
64 64 0
0 0 0
0 0 0
12 18 0
0 0 0
12 18 0
45 46 0
0 0 0
12 18 0
3 7 0
12 18 0
0 0 0
18 25 0
12 18 0
0 0 0
0 0 0
3 7 0
0 0 0
12 18 0
0 0 0
18 25 0
12 18 0
0 0 0
12 18 0
12 18 0
0 0 0
3 7 0
12 18 0
13 19 0
0 0 0
0 0 0
0 0 0
0 0 0
12 18 0
0 0 0
12 18 0
0 0 0
0 0 0
0 0 0
0 0 0
12 18 0
0 0 0
12 18 0
0 0 0
0 0 0
0 0 0
12 18 0
0 0 0
0 0 0
0 0 0
12 18 0
3 7 0
0 0 0
0 0 0
0 0 0
12 18 0
0 0 0
0 0 0
3 7 0
3 7 0
0 0 0
12 18 0
12 18 0
3 7 0
0 0 0
0 0 0
3 7 0
13 20 0
0 0 0
0 0 0
12 18 0
0 0 0
0 0 0
12 18 0
0 0 0
12 18 0
12 18 0
12 18 0
3 7 0
0 0 0
18 25 0
0 0 0
0 0 0
3 7 0
0 0 0
0 0 0
0 0 0
12 18 0
12 18 0
0 0 0
0 0 0
13 19 0
0 0 0
0 0 0
12 18 0
0 0 0
0 0 0
3 7 0
0 0 0
0 0 0
0 0 0
12 18 0
12 18 0
0 0 0
3 7 0
0 0 0
0 0 0
0 1 0
18 26 0
3 7 0
12 18 0
0 0 0
12 18 0
0 1 0
0 0 0
12 18 0
12 18 0
22 31 0
0 0 0
12 18 0
3 7 0
0 0 0
0 0 0
12 18 0
0 0 0
0 0 0
0 0 0
0 0 0
0 0 0
13 19 0
12 18 0
0 0 0
0 0 0
18 25 0
0 0 0
0 0 0
0 0 0
0 0 0
0 0 0
12 18 0
0 0 0
66 67 0
0 0 0
45 45 0
0 0 0
12 18 0
45 45 0
45 45 0
47 49 0
0 0 0
45 45 0
0 0 0
47 49 0
45 45 0
64 64 0
66 67 0
0 0 0
79 79 0
79 79 0
45 45 0
64 64 0
0 0 0
0 0 0
64 64 0
0 0 0
45 45 0
79 79 0
64 64 0
45 45 0
112 113 0
66 67 0
45 45 0
64 64 0
45 45 0
91 91 0
91 91 0
66 67 0
64 64 0
45 45 0
64 64 0
64 65 0
102 102 0
79 79 0
102 102 0
64 64 0
92 93 0
91 91 0
0 0 0
80 81 0
79 79 0
64 64 0
64 64 0
80 81 0
66 67 0
102 102 0
102 102 0
79 79 0
91 91 0
91 91 0
121 121 0
92 93 0
79 79 0
121 121 0
79 79 0
79 79 0
45 45 0
92 93 0
121 121 0
112 112 0
91 91 0
79 79 0
102 102 0
49 52 0
102 102 0
79 79 0
137 138 0
79 79 0
79 79 0
12 18 0
144 144 0
91 91 0
47 49 0
102 102 0
79 79 0
91 91 0
102 102 0
102 102 0
79 79 0
102 102 0
79 79 0
91 91 0
112 112 0
112 112 0
122 122 0
121 121 0
64 64 0
112 112 0
112 112 0
102 102 0
79 79 0
144 144 0
45 45 0
91 91 0
112 112 0
102 102 0
64 65 0
79 79 0
64 64 0
122 122 0
91 91 0
91 91 0
79 79 0
64 64 0
112 112 0
79 79 0
91 91 0
79 79 0
79 79 0
91 91 0
121 122 0
91 91 0
91 91 0
112 112 0
121 121 0
92 93 0
12 18 0
112 112 0
79 79 0
79 79 0
45 45 0
79 79 0
112 113 0
112 112 0
64 64 0
92 93 0
112 112 0
45 45 0
45 45 0
79 79 0
91 91 0
112 112 0
102 102 0
64 64 0
91 91 0
92 93 0
102 102 0
64 64 0
91 91 0
102 102 0
121 121 0
102 102 0
121 121 0
91 91 0
102 102 0
80 81 0
102 102 0
91 91 0
121 121 0
45 45 0
91 91 0
112 112 0
91 91 0
91 91 0
144 144 0
79 79 0
112 112 0
91 91 0
102 102 0
91 91 0
91 91 0
112 112 0
102 102 0
91 91 0
102 102 0
121 122 0
79 79 0
102 102 0
112 112 0
91 91 0
91 91 0
64 64 0
112 112 0
79 79 0
66 67 0
79 79 0
112 112 0
91 91 0
102 102 0
80 81 0
129 129 0
80 81 0
45 45 0
102 102 0
81 83 0
79 79 0
64 64 0
112 112 0
64 64 0
121 121 0
102 102 0
79 79 0
79 79 0
102 102 0
112 112 0
91 91 0
64 65 0
92 93 0
79 79 0
64 64 0
102 102 0
112 112 0
91 91 0
121 121 0
112 113 0
79 79 0
64 64 0
92 93 0
102 102 0
45 45 0
121 122 0
79 79 0
64 64 0
0 0 0
64 64 0
79 79 0
91 91 0
79 79 0
79 79 0
45 45 0
47 49 0
93 95 0
102 102 0
64 64 0
79 79 0
12 18 0
0 0 0
66 67 0
129 129 0
0 0 0
47 49 0
79 79 0
45 45 0
66 67 0
64 64 0
45 45 0
47 49 0
12 18 0
12 18 0
66 67 0
47 49 0
45 46 0
0 0 0
0 0 0
45 45 0
45 45 0
12 18 0
22 31 0
12 18 0
0 0 0
12 18 0
0 0 0
64 64 0
12 18 0
12 18 0
66 67 0
18 25 0
12 18 0
47 49 0
45 45 0
0 0 0
0 0 0
0 0 0
0 0 0
0 0 0
0 0 0
3 7 0
0 0 0
12 18 0
12 18 0
0 0 0
0 0 0
12 18 0
0 0 0
0 0 0
0 0 0
0 0 0
12 18 0
0 0 0
0 0 0
12 18 0
0 0 0
12 18 0
12 18 0
0 0 0
0 0 0
0 0 0
3 7 0
18 25 0
0 0 0
0 0 0
12 18 0
3 7 0
12 18 0
18 25 0
12 18 0
12 18 0
0 0 0
0 0 0
3 7 0
0 0 0
0 0 0
0 0 0
0 0 0
0 1 0
0 0 0
0 0 0
0 0 0
12 18 0
0 0 0
12 18 0
12 18 0
3 7 0
0 0 0
0 0 0
12 18 0
12 18 0
3 7 0
13 19 0
0 0 0
0 0 0
0 0 0
0 0 0
3 7 0
0 0 0
0 0 0
0 0 0
0 0 0
3 7 0
3 7 0
0 0 0
0 0 0
0 0 0
18 25 0
1 2 0
0 0 0
0 0 0
0 0 0
0 0 0
0 0 0
0 0 0
13 19 0
12 18 0
0 0 0
3 7 0
12 18 0
1 2 0
0 0 0
0 0 0
0 0 0
0 0 0
3 7 0
12 18 0
0 0 0
0 0 0
12 18 0
0 0 0
1 2 0
12 18 0
12 18 0
0 0 0
12 18 0
3 7 0
18 26 0
0 0 0
0 0 0
0 0 0
12 18 0
0 0 0
0 0 0
12 18 0
12 18 0
12 18 0
12 18 0
12 18 0
13 18 0
0 0 0
25 36 0
12 18 0
0 0 0
12 18 0
12 18 0
12 18 0
0 0 0
0 0 0
0 0 0
18 25 0
0 0 0
0 0 0
12 18 0
12 18 0
0 0 0
0 0 0
45 45 0
0 0 0
80 81 0
45 45 0
45 45 0
45 45 0
0 0 0
0 0 0
45 45 0
64 64 0
45 45 0
47 49 0
45 45 0
66 67 0
64 64 0
47 49 0
45 45 0
64 64 0
91 91 0
47 49 0
91 91 0
64 64 0
91 91 0
47 49 0
79 79 0
92 93 0
45 45 0
45 45 0
102 102 0
80 81 0
79 79 0
79 79 0
79 79 0
64 64 0
91 91 0
79 79 0
64 64 0
64 64 0
66 67 0
66 67 0
64 64 0
112 112 0
103 104 0
121 121 0
91 91 0
66 67 0
91 91 0
121 122 0
80 81 0
64 64 0
64 64 0
91 91 0
64 64 0
92 93 0
64 64 0
102 102 0
79 79 0
91 91 0
121 121 0
66 67 0
102 102 0
64 64 0
129 129 0
102 102 0
45 45 0
121 121 0
64 64 0
103 104 0
122 122 0
121 121 0
121 121 0
121 121 0
79 79 0
79 79 0
64 64 0
64 64 0
45 45 0
64 64 0
91 91 0
92 93 0
91 91 0
79 79 0
102 102 0
91 91 0
102 102 0
0 0 0
91 91 0
64 64 0
91 91 0
102 102 0
91 91 0
129 129 0
102 102 0
129 129 0
79 79 0
121 121 0
79 79 0
102 102 0
102 102 0
112 112 0
79 79 0
112 112 0
91 91 0
102 102 0
112 112 0
102 102 0
64 64 0
91 91 0
79 79 0
45 45 0
79 79 0
112 112 0
112 113 0
79 79 0
103 104 0
112 112 0
102 102 0
79 79 0
45 45 0
64 64 0
79 79 0
91 91 0
79 79 0
112 112 0
91 91 0
102 102 0
45 45 0
91 91 0
64 64 0
112 112 0
121 121 0
79 79 0
64 64 0
129 129 0
79 79 0
64 64 0
102 102 0
91 91 0
112 112 0
80 81 0
91 91 0
103 104 0
102 102 0
121 122 0
64 64 0
102 102 0
79 79 0
91 91 0
102 102 0
129 129 0
129 129 0
66 67 0
66 67 0
112 112 0
102 102 0
47 49 0
91 91 0
80 81 0
91 91 0
102 102 0
91 91 0
102 102 0
79 79 0
112 112 0
92 93 0
64 64 0
91 91 0
129 129 0
121 121 0
45 45 0
121 121 0
64 64 0
121 121 0
137 137 0
102 102 0
79 79 0
112 112 0
112 112 0
91 91 0
129 129 0
79 79 0
91 91 0
112 112 0
91 91 0
64 64 0
64 64 0
102 102 0
112 113 0
112 112 0
91 91 0
112 112 0
171 171 0
45 45 0
112 112 0
64 64 0
79 79 0
112 113 0
103 104 0
0 0 0
79 79 0
0 0 0
79 79 0
64 64 0
0 0 0
64 64 0
112 113 0
102 102 0
102 102 0
79 79 0
79 79 0
64 64 0
45 45 0
45 45 0
47 49 0
45 45 0
102 102 0
64 64 0
66 67 0
80 81 0
129 129 0
45 45 0
112 112 0
103 104 0
103 104 0
112 112 0
112 112 0
64 64 0
64 64 0
47 49 0
79 79 0
91 91 0
66 67 0
64 64 0
91 91 0
45 45 0
0 0 0
129 129 0
79 79 0
64 64 0
103 104 0
64 64 0
45 45 0
0 0 0
64 64 0
0 0 0
47 49 0
45 45 0
79 79 0
0 0 0
91 91 0
80 81 0
64 64 0
45 45 0
45 45 0
47 49 0
45 45 0
0 0 0
64 64 0
13 19 0
0 0 0
0 0 0
12 18 0
45 45 0
0 0 0
12 18 0
12 18 0
0 0 0
0 0 0
0 0 0
0 0 0
12 18 0
0 0 0
0 0 0
3 7 0
18 25 0
12 18 0
3 7 0
3 7 0
0 0 0
0 0 0
0 0 0
0 0 0
0 0 0
12 18 0
12 18 0
12 18 0
0 0 0
0 0 0
0 0 0
12 18 0
22 31 0
0 0 0
0 0 0
0 0 0
0 0 0
0 0 0
0 0 0
0 0 0
3 7 0
18 25 0
0 0 0
3 7 0
0 0 0
0 0 0
12 18 0
0 0 0
0 0 0
12 18 0
3 7 0
12 18 0
0 0 0
0 0 0
0 0 0
0 0 0
12 18 0
18 25 0
0 0 0
0 0 0
0 0 0
0 0 0
12 18 0
12 18 0
0 0 0
12 18 0
0 0 0
12 18 0
3 7 0
0 0 0
0 0 0
12 18 0
0 0 0
0 0 0
22 31 0
12 18 0
0 0 0
12 18 0
3 7 0
0 0 0
0 0 0
0 0 0
0 0 0
0 0 0
0 0 0
13 19 0
0 0 0
18 25 0
0 0 0
0 0 0
12 18 0
0 0 0
0 0 0
0 0 0
12 18 0
3 7 0
12 18 0
12 18 0
22 31 0
3 7 0
0 0 0
0 0 0
0 0 0
0 0 0
12 18 0
0 0 0
0 1 0
18 25 0
12 18 0
12 18 0
0 0 0
18 25 0
0 0 0
12 18 0
0 0 0
12 18 0
12 18 0
12 18 0
3 7 0
0 0 0
0 0 0
0 0 0
0 0 0
0 0 0
0 0 0
0 0 0
0 0 0
0 0 0
18 25 0
12 18 0
12 18 0
0 0 0
0 0 0
0 0 0
0 0 0
0 0 0
0 0 0
22 31 0
0 0 0
0 0 0
0 0 0
45 45 0
0 0 0
47 49 0
3 7 0
0 0 0
45 45 0
12 18 0
3 7 0
64 64 0
47 49 0
45 45 0
45 45 0
66 67 0
0 0 0
79 79 0
67 70 0
64 64 0
79 79 0
64 64 0
66 67 0
64 65 0
67 69 0
0 0 0
45 45 0
79 79 0
64 64 0
79 79 0
64 64 0
45 45 0
103 104 0
45 45 0
45 45 0
45 45 0
12 18 0
79 79 0
45 45 0
104 105 0
129 129 0
80 81 0
64 64 0
66 67 0
64 64 0
64 64 0
47 49 0
79 79 0
64 64 0
112 112 0
91 91 0
102 102 0
45 45 0
102 102 0
93 95 0
102 102 0
112 112 0
91 91 0
67 69 0
64 64 0
79 79 0
91 91 0
79 79 0
79 79 0
121 121 0
129 129 0
102 102 0
91 91 0
91 91 0
102 102 0
104 105 0
45 45 0
3 7 0
45 45 0
103 104 0
49 52 0
102 102 0
91 91 0
79 79 0
64 64 0
45 45 0
102 102 0
102 102 0
102 102 0
91 91 0
121 121 0
79 79 0
79 79 0
79 79 0
79 79 0
92 93 0
79 79 0
129 129 0
102 102 0
91 91 0
80 81 0
121 121 0
79 79 0
91 91 0
102 102 0
80 81 0
92 93 0
79 79 0
91 91 0
102 102 0
121 121 0
79 79 0
64 64 0
112 112 0
45 45 0
129 129 0
79 79 0
103 104 0
112 112 0
79 79 0
112 112 0
102 102 0
121 121 0
45 45 0
91 91 0
79 79 0
112 112 0
103 104 0
121 121 0
64 64 0
121 121 0
129 129 0
80 81 0
112 112 0
121 121 0
91 91 0
66 67 0
113 115 0
102 102 0
45 45 0
92 93 0
91 91 0
79 79 0
137 137 0
121 121 0
102 102 0
91 91 0
91 91 0
91 91 0
91 91 0
79 79 0
91 91 0
91 91 0
112 112 0
64 64 0
102 102 0
91 91 0
102 102 0
64 64 0
79 79 0
45 45 0
79 79 0
121 121 0
91 91 0
91 91 0
102 102 0
91 91 0
64 64 0
91 91 0
102 102 0
91 91 0
91 91 0
91 91 0
79 79 0
112 112 0
79 79 0
91 91 0
79 79 0
129 129 0
112 112 0
121 121 0
91 91 0
102 102 0
92 93 0
112 112 0
91 91 0
64 64 0
102 102 0
121 121 0
45 45 0
137 137 0
79 79 0
112 113 0
129 129 0
158 158 0
103 104 0
112 112 0
112 112 0
79 79 0
102 102 0
79 79 0
0 0 0
64 64 0
137 137 0
91 91 0
112 112 0
121 121 0
64 64 0
129 129 0
102 102 0
129 129 0
64 64 0
45 45 0
121 121 0
112 112 0
102 102 0
91 91 0
112 113 0
64 64 0
79 79 0
91 91 0
91 91 0
91 91 0
45 45 0
91 91 0
64 64 0
64 64 0
45 45 0
12 18 0
47 49 0
79 79 0
102 102 0
0 0 0
79 79 0
91 91 0
92 93 0
64 64 0
112 112 0
91 91 0
64 65 0
0 0 0
91 91 0
64 64 0
64 64 0
45 45 0
64 64 0
45 45 0
79 79 0
45 45 0
47 49 0
64 64 0
45 45 0
64 64 0
12 18 0
45 45 0
67 69 0
0 0 0
91 91 0
66 67 0
47 49 0
0 0 0
64 64 0
64 64 0
0 0 0
0 0 0
64 64 0
45 45 0
0 0 0
47 49 0
50 55 0
0 0 0
18 25 0
47 49 0
18 25 0
0 0 0
3 7 0
45 45 0
3 7 0
12 18 0
18 25 0
0 0 0
0 0 0
18 25 0
0 0 0
12 18 0
12 18 0
0 0 0
0 0 0
0 0 0
12 18 0
3 7 0
12 18 0
0 0 0
0 0 0
0 0 0
0 0 0
0 0 0
18 25 0
0 0 0
12 18 0
0 0 0
12 18 0
12 18 0
12 18 0
12 18 0
0 0 0
0 0 0
18 25 0
0 0 0
0 0 0
0 0 0
12 18 0
12 18 0
0 0 0
12 18 0
0 0 0
12 18 0
12 18 0
12 18 0
0 0 0
0 0 0
3 7 0
3 7 0
12 18 0
0 0 0
0 0 0
0 0 0
0 0 0
0 0 0
0 0 0
22 31 0
13 19 0
0 0 0
3 7 0
3 7 0
0 0 0
3 7 0
0 0 0
0 0 0
0 0 0
0 0 0
0 0 0
18 25 0
0 0 0
0 0 0
12 18 0
0 0 0
0 0 0
1 2 0
13 18 0
12 18 0
12 18 0
0 0 0
0 0 0
0 0 0
18 26 0
0 0 0
12 18 0
0 0 0
0 0 0
0 0 0
0 0 0
12 18 0
12 18 0
12 18 0
0 0 0
0 0 0
0 0 0
3 7 0
18 26 0
12 18 0
0 0 0
12 18 0
0 0 0
5 10 0
0 0 0
0 0 0
12 18 0
12 18 0
0 0 0
0 0 0
0 1 0
4 8 0
0 0 0
12 18 0
0 0 0
12 18 0
12 18 0
0 0 0
12 18 0
0 0 0
12 18 0
12 18 0
0 1 0
0 0 0
12 18 0
0 0 0
0 0 0
0 0 0
0 0 0
0 0 0
12 18 0
12 18 0
12 18 0
12 18 0
18 25 0
0 0 0
0 0 0
0 0 0
12 18 0
13 19 0
3 7 0
0 0 0
64 64 0
0 0 0
45 45 0
64 64 0
0 0 0
45 45 0
79 79 0
45 45 0
64 64 0
64 64 0
45 45 0
12 18 0
18 25 0
0 0 0
0 0 0
45 45 0
91 91 0
79 79 0
3 7 0
45 45 0
80 81 0
66 67 0
66 67 0
12 18 0
79 79 0
64 64 0
64 64 0
64 64 0
91 91 0
79 79 0
91 91 0
102 102 0
80 81 0
45 46 0
3 7 0
102 102 0
79 79 0
79 79 0
45 45 0
79 79 0
102 102 0
79 79 0
64 64 0
80 81 0
45 45 0
79 79 0
92 93 0
79 79 0
91 91 0
92 93 0
79 79 0
66 67 0
79 79 0
102 102 0
102 102 0
45 45 0
79 79 0
112 112 0
79 79 0
79 79 0
79 79 0
79 79 0
91 91 0
112 112 0
64 64 0
129 129 0
121 121 0
112 112 0
92 93 0
79 79 0
102 102 0
102 102 0
66 67 0
79 79 0
64 64 0
102 102 0
92 93 0
102 102 0
102 102 0
102 102 0
64 64 0
45 45 0
80 81 0
103 104 0
80 81 0
79 79 0
45 45 0
91 91 0
91 91 0
121 121 0
121 121 0
102 102 0
121 121 0
112 113 0
45 45 0
91 91 0
79 79 0
121 122 0
91 91 0
64 64 0
79 79 0
112 112 0
129 129 0
92 93 0
102 102 0
45 45 0
64 64 0
112 113 0
66 67 0
112 112 0
64 64 0
112 112 0
112 112 0
121 121 0
66 67 0
91 91 0
79 79 0
121 121 0
130 130 0
81 83 0
102 102 0
47 49 0
79 79 0
102 102 0
102 102 0
121 121 0
102 102 0
102 102 0
129 129 0
91 91 0
102 102 0
121 121 0
91 91 0
91 91 0
112 112 0
121 121 0
130 130 0
91 91 0
45 45 0
91 91 0
91 91 0
91 91 0
112 112 0
79 79 0
144 144 0
64 64 0
91 91 0
79 79 0
79 79 0
64 64 0
112 112 0
91 91 0
121 121 0
121 121 0
102 102 0
79 79 0
91 91 0
102 102 0
112 112 0
112 112 0
66 67 0
91 91 0
79 79 0
112 113 0
79 79 0
112 112 0
64 64 0
45 45 0
121 121 0
79 79 0
66 67 0
92 93 0
121 122 0
91 91 0
91 91 0
112 112 0
112 112 0
112 112 0
66 67 0
47 49 0
102 102 0
137 137 0
64 64 0
92 93 0
91 91 0
79 79 0
102 102 0
91 91 0
66 67 0
91 91 0
79 79 0
80 81 0
112 112 0
79 79 0
112 112 0
64 64 0
102 102 0
112 113 0
79 79 0
64 64 0
121 122 0
91 91 0
79 79 0
91 91 0
79 79 0
91 91 0
112 112 0
64 64 0
91 91 0
112 112 0
79 79 0
91 91 0
91 91 0
91 91 0
112 112 0
45 45 0
79 79 0
91 91 0
45 45 0
91 91 0
79 79 0
64 64 0
102 102 0
91 91 0
129 129 0
91 91 0
112 112 0
64 64 0
64 64 0
64 64 0
45 45 0
80 81 0
80 81 0
0 0 0
92 93 0
64 64 0
45 45 0
64 64 0
102 102 0
79 79 0
64 64 0
0 0 0
45 45 0
79 79 0
64 64 0
64 64 0
64 64 0
64 64 0
45 45 0
12 18 0
12 18 0
45 46 0
66 67 0
45 45 0
45 45 0
0 0 0
18 25 0
0 0 0
47 49 0
0 0 0
45 45 0
0 0 0
0 0 0
0 0 0
0 0 0
0 0 0
12 18 0
0 0 0
12 18 0
18 25 0
3 7 0
3 7 0
0 0 0
12 18 0
0 0 0
22 31 0
0 0 0
0 0 0
0 0 0
0 0 0
12 18 0
12 18 0
12 18 0
0 0 0
18 25 0
0 0 0
0 0 0
12 18 0
0 0 0
0 0 0
0 0 0
18 25 0
3 7 0
0 0 0
0 0 0
1 2 0
0 1 0
12 18 0
0 0 0
0 0 0
0 0 0
0 0 0
0 0 0
1 2 0
0 0 0
0 0 0
0 0 0
0 0 0
0 0 0
0 0 0
0 0 0
0 0 0
0 0 0
0 0 0
12 18 0
0 0 0
12 18 0
12 18 0
0 0 0
0 0 0
0 0 0
12 18 0
1 2 0
3 7 0
0 0 0
12 18 0
0 0 0
0 0 0
0 0 0
0 0 0
12 18 0
3 7 0
0 0 0
1 2 0
0 0 0
0 0 0
0 0 0
3 7 0
0 0 0
12 18 0
0 0 0
12 18 0
0 0 0
0 0 0
0 0 0
0 0 0
3 7 0
1 2 0
0 0 0
13 21 0
0 0 0
0 0 0
13 19 0
12 18 0
12 18 0
0 0 0
0 0 0
3 7 0
18 25 0
12 18 0
12 18 0
12 18 0
12 18 0
0 0 0
0 0 0
18 25 0
0 0 0
0 0 0
0 0 0
0 0 0
18 25 0
0 0 0
1 2 0
12 18 0
0 0 0
0 0 0
12 18 0
12 18 0
0 0 0
0 0 0
0 0 0
12 18 0
0 0 0
0 0 0
12 18 0
0 0 0
12 18 0
12 18 0
18 25 0
0 0 0
0 0 0
0 0 0
45 45 0
45 45 0
3 7 0
3 7 0
0 0 0
47 49 0
0 0 0
0 0 0
12 18 0
12 18 0
0 0 0
67 69 0
45 45 0
47 49 0
45 45 0
12 18 0
92 93 0
80 81 0
47 49 0
0 0 0
45 45 0
47 49 0
79 79 0
79 79 0
47 49 0
64 64 0
45 45 0
0 0 0
0 0 0
0 0 0
66 67 0
45 45 0
45 45 0
64 64 0
0 0 0
45 45 0
66 67 0
45 45 0
64 64 0
45 45 0
64 64 0
92 93 0
79 79 0
102 102 0
45 45 0
91 91 0
80 81 0
64 64 0
0 0 0
45 45 0
64 64 0
79 79 0
112 113 0
112 113 0
91 91 0
91 91 0
91 91 0
79 79 0
79 79 0
112 112 0
80 81 0
112 112 0
102 102 0
79 79 0
91 91 0
103 104 0
79 79 0
79 79 0
81 83 0
102 102 0
79 79 0
79 79 0
64 64 0
79 79 0
102 102 0
45 45 0
112 112 0
47 49 0
64 64 0
92 93 0
91 91 0
79 79 0
67 69 0
64 64 0
129 129 0
102 102 0
130 130 0
64 64 0
102 102 0
79 79 0
64 64 0
102 102 0
102 102 0
121 121 0
91 91 0
113 114 0
45 45 0
91 91 0
64 64 0
79 79 0
121 121 0
102 102 0
121 121 0
112 112 0
80 81 0
129 129 0
91 91 0
112 112 0
79 79 0
64 64 0
91 91 0
102 102 0
102 102 0
103 104 0
121 122 0
112 112 0
91 91 0
102 102 0
79 79 0
121 121 0
165 165 0
91 91 0
45 45 0
64 64 0
45 45 0
121 121 0
45 45 0
112 112 0
64 64 0
79 79 0
92 93 0
103 104 0
91 91 0
79 79 0
102 102 0
79 79 0
80 81 0
12 18 0
91 91 0
64 64 0
91 91 0
102 102 0
112 113 0
91 91 0
112 112 0
79 79 0
79 79 0
91 91 0
112 112 0
121 121 0
79 79 0
91 91 0
121 121 0
91 91 0
79 79 0
64 64 0
79 79 0
91 91 0
102 102 0
79 79 0
151 151 0
91 91 0
64 64 0
64 64 0
79 79 0
102 102 0
91 91 0
102 102 0
91 91 0
66 67 0
66 67 0
64 64 0
112 113 0
102 102 0
79 79 0
112 112 0
79 79 0
64 64 0
129 129 0
102 102 0
64 64 0
92 93 0
0 0 0
121 121 0
112 113 0
91 91 0
91 91 0
91 91 0
137 137 0
121 121 0
79 79 0
102 102 0
112 113 0
103 104 0
112 112 0
103 104 0
45 45 0
79 79 0
91 91 0
64 65 0
64 64 0
103 104 0
45 45 0
66 67 0
92 93 0
102 102 0
129 129 0
91 91 0
79 79 0
91 91 0
91 91 0
91 91 0
79 79 0
92 93 0
64 64 0
79 79 0
64 64 0
79 79 0
112 112 0
79 79 0
64 64 0
91 91 0
92 93 0
102 102 0
45 45 0
79 79 0
91 91 0
91 91 0
102 102 0
91 91 0
79 79 0
45 45 0
92 93 0
102 102 0
47 49 0
91 91 0
45 45 0
79 79 0
45 45 0
64 64 0
80 81 0
45 45 0
92 93 0
92 93 0
79 79 0
0 0 0
0 0 0
64 64 0
64 64 0
66 67 0
0 0 0
49 52 0
47 49 0
102 102 0
0 0 0
0 0 0
45 45 0
45 45 0
47 49 0
45 45 0
47 49 0
66 67 0
13 19 0
64 64 0
0 0 0
12 18 0
0 0 0
0 0 0
0 0 0
0 0 0
0 0 0
45 45 0
0 0 0
12 18 0
0 0 0
12 18 0
0 0 0
0 0 0
0 0 0
12 18 0
12 18 0
0 0 0
12 18 0
0 0 0
12 18 0
0 0 0
12 18 0
18 25 0
3 7 0
0 0 0
0 0 0
13 19 0
18 25 0
18 26 0
0 0 0
0 0 0
0 0 0
0 0 0
0 0 0
0 0 0
0 0 0
3 7 0
0 0 0
0 0 0
0 0 0
0 0 0
0 0 0
0 0 0
0 0 0
0 0 0
0 0 0
13 19 0
12 18 0
12 18 0
0 0 0
0 0 0
0 0 0
0 0 0
0 0 0
12 18 0
0 0 0
12 18 0
0 0 0
0 0 0
0 0 0
0 0 0
0 0 0
0 0 0
0 0 0
18 25 0
0 1 0
0 0 0
0 0 0
0 0 0
0 0 0
0 0 0
1 2 0
18 25 0
3 7 0
3 7 0
0 0 0
12 18 0
12 18 0
18 26 0
12 18 0
0 0 0
0 0 0
18 25 0
12 18 0
12 18 0
12 18 0
0 0 0
0 0 0
0 0 0
13 19 0
12 18 0
0 0 0
0 0 0
3 7 0
0 0 0
13 19 0
0 0 0
0 0 0
3 7 0
12 18 0
0 0 0
0 0 0
12 18 0
0 0 0
0 0 0
13 19 0
0 0 0
0 0 0
18 25 0
0 0 0
12 18 0
0 0 0
0 1 0
12 18 0
12 18 0
0 0 0
12 18 0
0 0 0
0 0 0
12 18 0
0 0 0
12 18 0
0 0 0
0 0 0
12 18 0
3 7 0
12 18 0
0 0 0
0 0 0
0 0 0
0 0 0
0 0 0
18 25 0
0 0 0
12 18 0
0 0 0
0 0 0
12 18 0
64 64 0
45 45 0
64 64 0
50 55 0
47 49 0
0 0 0
0 0 0
12 18 0
45 45 0
0 0 0
3 7 0
45 45 0
0 0 0
0 0 0
79 79 0
45 45 0
45 45 0
45 45 0
49 52 0
67 69 0
49 52 0
0 0 0
79 79 0
64 64 0
45 45 0
0 0 0
79 79 0
104 105 0
92 93 0
0 0 0
112 112 0
45 45 0
66 67 0
112 113 0
66 67 0
91 91 0
91 91 0
92 93 0
103 104 0
79 79 0
103 104 0
64 64 0
79 79 0
112 112 0
79 79 0
102 102 0
91 91 0
102 102 0
79 79 0
79 79 0
137 137 0
112 112 0
66 67 0
102 102 0
91 91 0
64 64 0
80 81 0
91 91 0
0 0 0
80 81 0
79 79 0
91 91 0
64 64 0
129 129 0
91 91 0
91 91 0
79 79 0
81 83 0
91 91 0
80 81 0
91 91 0
137 137 0
64 64 0
91 91 0
79 79 0
64 64 0
102 102 0
91 91 0
112 112 0
91 91 0
112 112 0
45 45 0
102 102 0
137 137 0
45 45 0
137 137 0
91 91 0
64 64 0
66 67 0
91 91 0
91 91 0
129 129 0
91 91 0
79 79 0
113 115 0
102 102 0
91 91 0
112 112 0
64 64 0
129 129 0
91 91 0
45 45 0
102 102 0
102 102 0
93 95 0
102 102 0
129 129 0
103 104 0
102 102 0
64 64 0
45 45 0
45 45 0
112 113 0
45 45 0
112 112 0
158 158 0
64 64 0
112 112 0
102 102 0
79 79 0
45 45 0
91 91 0
91 91 0
121 121 0
45 45 0
91 91 0
121 121 0
79 79 0
91 91 0
91 91 0
79 79 0
79 79 0
91 91 0
79 79 0
121 121 0
102 102 0
91 91 0
112 112 0
102 102 0
45 45 0
93 95 0
91 91 0
91 91 0
91 91 0
102 102 0
79 79 0
121 121 0
102 102 0
79 79 0
102 102 0
102 102 0
91 91 0
64 64 0
129 129 0
121 121 0
112 112 0
112 113 0
112 113 0
79 79 0
129 129 0
91 91 0
45 45 0
102 102 0
64 64 0
91 91 0
79 79 0
79 79 0
79 79 0
79 79 0
45 45 0
91 91 0
102 102 0
102 102 0
79 79 0
79 79 0
121 121 0
91 91 0
45 45 0
121 121 0
91 91 0
45 45 0
102 102 0
79 79 0
137 137 0
112 112 0
121 121 0
80 81 0
112 113 0
91 91 0
92 93 0
64 64 0
112 112 0
102 102 0
102 102 0
79 79 0
79 79 0
91 91 0
45 45 0
79 79 0
102 102 0
91 91 0
91 91 0
112 113 0
102 102 0
91 91 0
130 130 0
102 102 0
121 122 0
79 79 0
66 67 0
91 91 0
79 79 0
112 112 0
64 64 0
91 91 0
91 91 0
67 69 0
79 79 0
102 102 0
80 81 0
102 102 0
92 93 0
91 91 0
112 112 0
91 91 0
103 104 0
64 64 0
45 45 0
91 91 0
91 91 0
45 45 0
91 91 0
91 91 0
80 81 0
45 45 0
112 112 0
47 49 0
45 45 0
80 81 0
91 91 0
45 45 0
45 45 0
66 67 0
66 67 0
47 49 0
80 81 0
79 79 0
47 49 0
112 112 0
64 64 0
91 91 0
64 64 0
66 67 0
64 64 0
80 81 0
79 79 0
0 0 0
0 0 0
47 49 0
0 0 0
0 0 0
49 52 0
45 45 0
13 19 0
45 45 0
47 49 0
45 45 0
0 0 0
0 0 0
0 0 0
0 0 0
0 0 0
0 0 0
12 18 0
0 0 0
12 18 0
0 0 0
12 18 0
12 18 0
12 18 0
22 31 0
0 0 0
12 18 0
12 18 0
0 0 0
0 0 0
0 0 0
0 0 0
0 0 0
0 0 0
12 18 0
0 0 0
0 0 0
0 0 0
0 0 0
0 1 0
0 0 0
3 7 0
0 0 0
3 7 0
0 0 0
18 27 0
0 0 0
0 0 0
0 0 0
0 0 0
0 0 0
12 18 0
12 18 0
0 0 0
12 18 0
0 0 0
0 0 0
0 0 0
0 0 0
5 10 0
0 0 0
0 0 0
3 7 0
0 0 0
12 18 0
12 18 0
0 0 0
0 0 0
12 18 0
0 0 0
0 0 0
0 0 0
13 19 0
13 19 0
0 0 0
12 18 0
0 0 0
0 0 0
0 0 0
0 0 0
0 0 0
12 18 0
12 18 0
12 18 0
0 0 0
12 18 0
12 18 0
12 18 0
0 0 0
0 0 0
12 18 0
0 0 0
13 19 0
0 0 0
12 18 0
12 18 0
0 0 0
12 18 0
0 0 0
0 0 0
3 7 0
12 18 0
0 0 0
0 0 0
12 18 0
3 7 0
12 18 0
12 18 0
0 0 0
3 7 0
0 0 0
0 0 0
12 18 0
0 1 0
0 0 0
0 0 0
12 18 0
12 18 0
0 0 0
0 0 0
0 0 0
12 18 0
12 18 0
0 0 0
13 19 0
0 0 0
0 0 0
12 18 0
0 0 0
0 0 0
0 0 0
12 18 0
12 18 0
0 0 0
0 0 0
0 0 0
12 18 0
0 0 0
3 7 0
0 0 0
13 19 0
12 18 0
66 67 0
18 25 0
66 67 0
12 18 0
0 0 0
12 18 0
0 0 0
0 0 0
0 0 0
0 0 0
45 45 0
66 67 0
64 64 0
0 0 0
64 64 0
64 64 0
0 0 0
91 91 0
12 18 0
67 69 0
80 81 0
45 45 0
47 49 0
45 45 0
47 49 0
79 79 0
80 81 0
79 79 0
66 67 0
92 93 0
66 67 0
79 79 0
80 81 0
0 0 0
0 0 0
64 64 0
91 91 0
80 81 0
102 102 0
45 45 0
64 64 0
49 52 0
79 79 0
79 79 0
47 49 0
45 45 0
112 112 0
66 67 0
79 79 0
64 64 0
102 102 0
64 64 0
0 0 0
45 45 0
102 102 0
79 79 0
113 115 0
92 93 0
45 45 0
79 79 0
79 79 0
92 93 0
64 64 0
79 79 0
91 91 0
92 93 0
79 79 0
102 102 0
91 91 0
102 102 0
112 112 0
112 112 0
102 102 0
91 91 0
47 49 0
112 112 0
112 113 0
137 138 0
64 64 0
45 45 0
91 91 0
64 64 0
112 112 0
130 130 0
79 79 0
130 130 0
92 93 0
64 64 0
102 102 0
79 79 0
129 129 0
112 112 0
121 121 0
64 64 0
91 91 0
102 102 0
112 112 0
137 138 0
102 102 0
102 102 0
102 102 0
121 121 0
91 91 0
45 45 0
121 121 0
79 79 0
64 64 0
91 91 0
102 102 0
121 121 0
121 121 0
102 102 0
64 64 0
79 79 0
102 102 0
79 79 0
129 129 0
91 91 0
79 79 0
79 79 0
112 112 0
91 91 0
129 129 0
102 102 0
64 64 0
121 121 0
112 112 0
64 64 0
102 102 0
102 102 0
102 102 0
91 91 0
64 64 0
80 81 0
102 102 0
64 64 0
91 91 0
103 104 0
79 79 0
112 112 0
102 102 0
64 64 0
102 102 0
79 79 0
102 102 0
91 91 0
91 91 0
102 102 0
112 112 0
112 112 0
64 64 0
91 91 0
80 81 0
79 79 0
102 102 0
112 112 0
102 102 0
112 112 0
79 79 0
112 112 0
47 49 0
91 91 0
92 93 0
129 129 0
91 91 0
112 112 0
0 0 0
102 102 0
121 121 0
91 91 0
129 129 0
129 129 0
112 112 0
112 112 0
91 91 0
66 67 0
112 112 0
45 45 0
64 64 0
45 45 0
91 91 0
129 129 0
64 64 0
112 112 0
80 81 0
103 104 0
102 102 0
91 91 0
64 64 0
91 91 0
92 93 0
103 104 0
91 91 0
102 102 0
112 112 0
102 102 0
80 81 0
45 45 0
129 129 0
112 112 0
0 0 0
102 102 0
91 91 0
102 102 0
45 45 0
79 79 0
91 91 0
91 91 0
112 112 0
112 113 0
47 49 0
79 79 0
66 67 0
80 81 0
102 102 0
79 79 0
80 81 0
92 93 0
45 45 0
102 102 0
3 7 0
91 91 0
12 18 0
64 64 0
79 79 0
137 137 0
45 45 0
64 64 0
91 91 0
66 67 0
79 79 0
91 91 0
103 104 0
102 102 0
80 81 0
64 64 0
80 81 0
45 45 0
79 79 0
79 79 0
64 64 0
80 81 0
79 79 0
45 45 0
45 45 0
0 0 0
0 0 0
0 0 0
64 64 0
0 0 0
45 45 0
45 45 0
79 79 0
18 25 0
4 8 0
45 45 0
64 64 0
79 79 0
47 49 0
0 0 0
12 18 0
0 0 0
45 46 0
45 45 0
0 0 0
45 45 0
0 0 0
49 52 0
0 0 0
0 0 0
47 49 0
3 7 0
45 45 0
0 0 0
0 0 0
12 18 0
3 7 0
0 0 0
0 0 0
12 18 0
0 0 0
18 25 0
3 7 0
0 0 0
18 25 0
0 0 0
0 0 0
0 0 0
0 0 0
12 18 0
0 0 0
0 0 0
0 0 0
3 7 0
0 0 0
0 0 0
0 0 0
12 18 0
18 25 0
12 18 0
12 18 0
12 18 0
0 0 0
0 0 0
18 25 0
0 1 0
0 0 0
0 0 0
18 25 0
12 18 0
0 0 0
18 25 0
13 19 0
12 18 0
0 0 0
12 18 0
18 25 0
0 0 0
0 0 0
0 0 0
0 0 0
12 18 0
12 18 0
0 0 0
18 25 0
0 0 0
0 0 0
1 2 0
18 25 0
1 2 0
0 0 0
0 0 0
12 18 0
0 0 0
18 25 0
3 7 0
0 0 0
12 18 0
0 0 0
0 0 0
0 0 0
0 0 0
12 18 0
0 0 0
0 0 0
3 7 0
0 0 0
0 0 0
12 18 0
1 2 0
0 1 0
0 0 0
0 0 0
12 18 0
0 0 0
0 0 0
18 25 0
0 0 0
0 0 0
0 0 0
12 18 0
0 0 0
12 18 0
0 0 0
0 0 0
12 18 0
12 18 0
0 0 0
12 18 0
0 0 0
18 25 0
12 18 0
12 18 0
0 0 0
0 0 0
3 7 0
0 0 0
0 0 0
0 0 0
0 0 0
0 0 0
12 18 0
0 0 0
0 0 0
0 0 0
0 0 0
0 1 0
0 0 0
12 18 0
12 18 0
12 18 0
12 18 0
0 0 0
12 18 0
0 0 0
0 0 0
0 0 0
12 18 0
0 0 0
0 0 0
45 45 0
3 7 0
18 25 0
66 67 0
50 55 0
0 0 0
79 79 0
45 45 0
45 45 0
47 49 0
14 21 0
45 45 0
45 45 0
45 45 0
80 81 0
0 0 0
0 0 0
66 67 0
0 0 0
66 67 0
66 67 0
12 18 0
45 45 0
113 115 0
0 0 0
66 67 0
66 67 0
64 64 0
66 67 0
79 79 0
47 49 0
79 79 0
80 81 0
79 79 0
79 79 0
64 64 0
80 81 0
79 79 0
102 102 0
0 0 0
91 91 0
102 102 0
64 64 0
81 83 0
0 0 0
64 64 0
91 91 0
112 112 0
91 91 0
79 79 0
91 91 0
102 102 0
80 81 0
81 83 0
91 91 0
102 102 0
103 104 0
91 91 0
102 102 0
91 91 0
112 112 0
45 45 0
45 45 0
103 104 0
91 91 0
102 102 0
102 102 0
79 79 0
45 45 0
103 104 0
102 102 0
91 91 0
64 64 0
91 91 0
66 67 0
129 129 0
79 79 0
79 79 0
79 79 0
92 93 0
79 79 0
121 121 0
79 79 0
102 102 0
112 112 0
121 121 0
102 102 0
79 79 0
91 91 0
102 102 0
45 45 0
91 91 0
79 79 0
102 102 0
104 106 0
112 112 0
121 121 0
102 102 0
91 91 0
91 91 0
79 79 0
79 79 0
144 144 0
79 79 0
91 91 0
45 45 0
102 102 0
102 102 0
129 129 0
91 91 0
121 121 0
102 102 0
112 112 0
112 112 0
0 0 0
112 112 0
64 64 0
91 91 0
79 79 0
79 79 0
79 79 0
91 91 0
64 64 0
91 91 0
64 64 0
102 102 0
79 79 0
64 64 0
79 79 0
102 102 0
112 112 0
113 115 0
79 79 0
79 79 0
79 79 0
129 129 0
79 79 0
0 0 0
102 102 0
144 144 0
79 79 0
102 102 0
102 102 0
102 102 0
79 79 0
102 102 0
129 129 0
64 64 0
129 129 0
102 102 0
79 79 0
112 112 0
112 112 0
102 102 0
45 45 0
121 121 0
102 102 0
91 91 0
121 121 0
137 137 0
91 91 0
121 121 0
144 144 0
112 113 0
45 45 0
64 64 0
102 102 0
64 64 0
64 64 0
79 79 0
64 64 0
79 79 0
121 121 0
64 64 0
137 137 0
79 79 0
64 64 0
112 112 0
91 91 0
91 91 0
121 121 0
102 102 0
64 64 0
91 91 0
103 104 0
79 79 0
92 93 0
144 144 0
102 102 0
79 79 0
92 93 0
0 0 0
79 79 0
80 81 0
64 64 0
102 102 0
121 121 0
129 129 0
66 67 0
121 121 0
91 91 0
102 102 0
92 93 0
91 91 0
112 112 0
129 129 0
0 0 0
0 0 0
64 64 0
64 64 0
121 121 0
79 79 0
79 79 0
91 91 0
102 102 0
121 121 0
79 79 0
80 81 0
45 45 0
91 91 0
80 81 0
79 79 0
91 91 0
79 79 0
64 64 0
79 79 0
81 83 0
64 64 0
66 67 0
66 67 0
92 93 0
80 81 0
79 79 0
0 0 0
64 64 0
64 64 0
64 64 0
47 49 0
91 91 0
47 49 0
91 91 0
47 49 0
79 79 0
92 93 0
66 67 0
80 81 0
79 79 0
0 0 0
64 64 0
91 91 0
45 45 0
12 18 0
64 64 0
45 45 0
47 49 0
0 0 0
45 45 0
0 0 0
0 1 0
3 7 0
47 49 0
79 79 0
47 49 0
45 45 0
67 69 0
0 0 0
0 0 0
0 0 0
18 26 0
12 18 0
12 18 0
0 0 0
0 0 0
0 0 0
12 18 0
0 0 0
0 0 0
0 0 0
0 0 0
3 7 0
0 0 0
18 25 0
12 18 0
0 0 0
0 0 0
0 0 0
5 10 0
0 0 0
12 18 0
12 18 0
12 18 0
0 0 0
0 0 0
0 0 0
0 0 0
0 0 0
0 0 0
0 0 0
12 18 0
12 18 0
12 18 0
0 0 0
0 0 0
12 18 0
0 0 0
0 0 0
0 0 0
0 0 0
13 19 0
0 0 0
3 7 0
12 18 0
0 0 0
18 25 0
12 18 0
12 18 0
12 18 0
12 18 0
0 0 0
0 0 0
12 18 0
0 0 0
12 18 0
18 25 0
0 0 0
0 0 0
0 0 0
0 0 0
0 0 0
0 0 0
12 18 0
12 18 0
0 0 0
12 18 0
0 0 0
18 25 0
0 0 0
0 0 0
13 19 0
0 0 0
12 18 0
0 0 0
0 0 0
0 0 0
12 18 0
12 18 0
3 7 0
12 18 0
18 25 0
0 0 0
0 0 0
0 0 0
0 0 0
0 0 0
0 0 0
12 18 0
3 7 0
0 0 0
0 0 0
0 0 0
0 0 0
0 0 0
0 0 0
0 0 0
12 18 0
0 0 0
3 7 0
3 7 0
12 18 0
0 0 0
0 0 0
0 0 0
12 18 0
12 18 0
0 0 0
0 0 0
18 25 0
3 7 0
12 18 0
3 7 0
0 0 0
0 0 0
0 0 0
12 18 0
0 0 0
0 0 0
0 0 0
3 7 0
12 18 0
0 0 0
0 0 0
0 0 0
3 7 0
0 0 0
0 0 0
18 25 0
0 0 0
0 0 0
12 18 0
0 0 0
12 18 0
0 0 0
12 18 0
45 45 0
0 0 0
12 18 0
45 45 0
18 25 0
45 45 0
0 0 0
45 45 0
64 64 0
66 67 0
64 64 0
45 45 0
79 79 0
64 64 0
0 0 0
0 0 0
12 18 0
45 45 0
0 0 0
0 0 0
64 64 0
3 7 0
79 79 0
0 0 0
79 79 0
45 45 0
47 49 0
64 64 0
79 79 0
64 64 0
0 0 0
64 64 0
79 79 0
91 91 0
79 79 0
91 91 0
79 79 0
102 102 0
79 79 0
91 91 0
102 102 0
80 81 0
47 49 0
80 81 0
92 93 0
91 91 0
45 45 0
79 79 0
91 91 0
112 112 0
45 45 0
91 91 0
121 121 0
104 105 0
112 112 0
91 91 0
121 122 0
79 79 0
102 102 0
0 0 0
92 93 0
45 45 0
45 45 0
102 102 0
79 79 0
92 93 0
91 91 0
121 121 0
79 79 0
102 102 0
91 91 0
91 91 0
79 79 0
64 64 0
121 121 0
64 64 0
45 45 0
144 144 0
112 113 0
91 91 0
112 112 0
91 91 0
79 79 0
102 102 0
91 91 0
121 122 0
66 67 0
112 112 0
112 112 0
112 112 0
64 64 0
102 102 0
102 102 0
79 79 0
102 102 0
112 112 0
112 112 0
91 91 0
79 79 0
91 91 0
112 112 0
129 129 0
112 112 0
91 91 0
112 112 0
91 91 0
0 0 0
79 79 0
64 64 0
45 45 0
112 112 0
129 129 0
102 102 0
102 102 0
79 79 0
45 45 0
80 81 0
64 64 0
79 79 0
112 112 0
103 104 0
112 112 0
79 79 0
112 112 0
121 121 0
79 79 0
64 64 0
91 91 0
91 91 0
102 102 0
144 144 0
91 91 0
121 121 0
112 113 0
91 91 0
91 91 0
91 91 0
91 91 0
102 102 0
102 102 0
79 79 0
79 79 0
102 102 0
121 121 0
129 129 0
112 112 0
80 81 0
102 102 0
112 112 0
102 102 0
91 91 0
144 144 0
64 64 0
130 130 0
45 45 0
64 64 0
102 102 0
112 112 0
112 112 0
102 102 0
79 79 0
112 112 0
112 112 0
91 91 0
91 91 0
129 129 0
102 102 0
92 93 0
102 102 0
121 121 0
79 79 0
102 102 0
79 79 0
91 91 0
91 91 0
102 102 0
121 121 0
79 79 0
64 64 0
144 144 0
91 91 0
112 112 0
45 45 0
91 91 0
0 0 0
45 45 0
91 91 0
102 102 0
103 104 0
64 64 0
121 121 0
103 104 0
102 102 0
121 121 0
112 112 0
91 91 0
92 93 0
102 102 0
45 45 0
92 93 0
45 45 0
91 91 0
130 130 0
137 137 0
79 79 0
64 64 0
102 102 0
79 79 0
91 91 0
91 91 0
64 64 0
91 91 0
64 64 0
66 67 0
92 93 0
45 45 0
0 0 0
79 79 0
0 0 0
102 102 0
45 45 0
0 0 0
64 64 0
64 64 0
104 105 0
91 91 0
91 91 0
92 93 0
66 67 0
91 91 0
93 95 0
45 45 0
79 79 0
64 64 0
91 91 0
64 64 0
79 79 0
67 69 0
79 79 0
64 64 0
0 0 0
45 45 0
79 79 0
45 45 0
64 64 0
66 67 0
0 0 0
12 18 0
64 64 0
45 45 0
45 45 0
47 49 0
81 83 0
45 45 0
12 18 0
92 93 0
45 45 0
79 79 0
0 0 0
0 0 0
0 0 0
12 18 0
0 0 0
0 0 0
0 0 0
47 49 0
64 65 0
0 0 0
12 18 0
47 49 0
0 0 0
45 45 0
0 0 0
0 0 0
0 0 0
18 25 0
3 7 0
12 18 0
12 18 0
0 0 0
0 0 0
13 19 0
0 0 0
0 0 0
5 10 0
0 0 0
0 0 0
0 0 0
0 0 0
0 0 0
12 18 0
18 25 0
0 0 0
0 0 0
0 0 0
0 0 0
3 7 0
0 0 0
12 18 0
12 18 0
0 0 0
0 0 0
0 0 0
13 18 0
0 0 0
18 25 0
0 0 0
0 0 0
3 7 0
18 25 0
12 18 0
18 25 0
0 0 0
0 0 0
1 2 0
0 0 0
18 25 0
3 7 0
0 0 0
12 18 0
12 18 0
0 0 0
12 18 0
0 0 0
18 25 0
0 0 0
0 0 0
0 0 0
12 18 0
12 18 0
0 0 0
12 18 0
22 31 0
0 0 0
3 7 0
18 25 0
0 0 0
0 0 0
13 19 0
12 18 0
3 7 0
0 0 0
0 0 0
0 0 0
0 0 0
18 25 0
12 18 0
0 0 0
0 0 0
0 0 0
12 18 0
0 0 0
0 0 0
0 0 0
0 0 0
12 18 0
12 18 0
0 0 0
12 18 0
12 18 0
0 0 0
0 0 0
1 2 0
0 0 0
12 18 0
0 0 0
0 0 0
0 0 0
0 0 0
0 0 0
1 2 0
12 18 0
0 0 0
0 0 0
3 7 0
12 18 0
0 0 0
0 0 0
12 18 0
13 19 0
0 0 0
12 18 0
0 0 0
0 0 0
0 0 0
18 25 0
0 0 0
0 0 0
0 0 0
47 49 0
3 7 0
66 67 0
0 0 0
0 0 0
0 0 0
0 0 0
12 18 0
45 45 0
45 45 0
0 0 0
12 18 0
45 45 0
47 49 0
13 19 0
45 45 0
12 18 0
81 83 0
0 0 0
0 0 0
64 65 0
64 64 0
64 64 0
0 0 0
45 45 0
0 0 0
91 91 0
79 79 0
45 45 0
64 64 0
12 18 0
64 64 0
64 64 0
45 45 0
0 0 0
47 49 0
64 64 0
45 45 0
64 64 0
79 79 0
12 18 0
49 52 0
79 79 0
79 79 0
91 91 0
79 79 0
0 0 0
102 102 0
91 91 0
91 91 0
79 79 0
45 45 0
66 67 0
80 81 0
80 81 0
64 64 0
64 64 0
91 91 0
79 79 0
112 112 0
45 45 0
92 93 0
121 122 0
91 91 0
121 122 0
79 79 0
102 102 0
91 91 0
79 79 0
64 64 0
103 104 0
121 121 0
66 67 0
121 122 0
45 45 0
79 79 0
79 79 0
91 91 0
112 112 0
12 18 0
64 64 0
79 79 0
79 79 0
91 91 0
64 64 0
102 102 0
79 79 0
79 79 0
45 45 0
91 91 0
112 112 0
103 104 0
121 121 0
79 79 0
79 79 0
112 112 0
92 93 0
66 67 0
102 102 0
91 91 0
80 81 0
102 102 0
92 93 0
121 122 0
79 79 0
112 113 0
102 102 0
112 112 0
79 79 0
112 112 0
64 64 0
112 112 0
64 64 0
112 112 0
91 91 0
121 121 0
92 93 0
91 91 0
137 137 0
79 79 0
79 79 0
112 112 0
121 121 0
64 64 0
102 102 0
79 79 0
112 113 0
64 64 0
64 64 0
47 49 0
66 67 0
112 112 0
79 79 0
102 102 0
130 131 0
112 113 0
129 129 0
64 64 0
80 81 0
129 129 0
79 79 0
102 102 0
121 121 0
92 93 0
112 112 0
121 121 0
79 79 0
129 129 0
79 79 0
102 102 0
91 91 0
102 102 0
102 102 0
137 137 0
91 91 0
64 64 0
121 121 0
121 121 0
79 79 0
79 79 0
102 102 0
64 64 0
103 104 0
102 102 0
64 64 0
121 121 0
102 102 0
79 79 0
64 64 0
79 79 0
121 121 0
91 91 0
91 91 0
112 113 0
112 112 0
79 79 0
91 91 0
91 91 0
64 64 0
79 79 0
102 102 0
121 121 0
112 112 0
112 112 0
144 144 0
112 112 0
129 129 0
121 122 0
91 91 0
102 102 0
121 121 0
112 112 0
112 112 0
102 102 0
112 112 0
112 112 0
121 121 0
112 113 0
91 91 0
91 91 0
112 113 0
102 102 0
112 113 0
79 79 0
112 113 0
64 64 0
64 64 0
102 102 0
102 102 0
102 102 0
79 79 0
45 45 0
91 91 0
64 64 0
112 112 0
102 102 0
91 91 0
80 81 0
64 64 0
45 45 0
102 102 0
129 129 0
0 0 0
91 91 0
79 79 0
80 81 0
102 102 0
91 91 0
64 64 0
79 79 0
103 104 0
45 45 0
91 91 0
79 79 0
91 91 0
45 45 0
79 79 0
47 49 0
49 52 0
45 45 0
91 91 0
79 79 0
64 64 0
64 64 0
47 49 0
12 18 0
45 45 0
64 64 0
79 79 0
64 64 0
64 64 0
67 69 0
80 81 0
80 81 0
45 45 0
79 79 0
0 0 0
45 45 0
45 45 0
0 0 0
47 49 0
18 25 0
47 49 0
64 64 0
47 49 0
45 45 0
45 45 0
18 25 0
0 0 0
3 7 0
0 0 0
12 18 0
0 0 0
45 45 0
45 45 0
45 45 0
0 0 0
45 45 0
0 0 0
0 0 0
67 69 0
12 18 0
0 0 0
12 18 0
12 18 0
0 0 0
0 0 0
0 0 0
12 18 0
12 18 0
0 0 0
0 0 0
12 18 0
12 18 0
0 0 0
0 0 0
0 0 0
0 0 0
0 0 0
0 0 0
0 0 0
13 19 0
0 0 0
3 7 0
12 18 0
0 0 0
0 0 0
0 0 0
12 18 0
12 18 0
0 0 0
0 0 0
18 25 0
12 18 0
0 0 0
0 0 0
0 0 0
12 18 0
0 0 0
0 0 0
12 18 0
0 0 0
0 0 0
0 0 0
0 0 0
12 18 0
0 0 0
0 0 0
18 25 0
0 0 0
12 18 0
0 0 0
12 18 0
0 0 0
0 0 0
0 0 0
3 7 0
0 0 0
0 0 0
0 0 0
0 0 0
12 18 0
22 31 0
0 0 0
0 0 0
0 0 0
0 0 0
3 7 0
18 25 0
0 0 0
0 0 0
0 0 0
12 18 0
0 0 0
0 0 0
18 25 0
0 0 0
0 0 0
12 18 0
0 0 0
1 2 0
13 19 0
12 18 0
0 0 0
3 7 0
12 18 0
0 0 0
12 18 0
13 19 0
12 18 0
0 0 0
0 0 0
0 0 0
3 7 0
0 0 0
0 0 0
0 0 0
12 18 0
12 18 0
13 18 0
0 0 0
0 0 0
12 18 0
12 18 0
12 18 0
0 0 0
0 0 0
0 0 0
0 0 0
3 7 0
0 0 0
0 0 0
0 0 0
0 0 0
12 18 0
0 0 0
0 0 0
12 18 0
0 0 0
0 0 0
13 19 0
0 0 0
45 46 0
0 0 0
0 0 0
0 0 0
12 18 0
0 0 0
0 0 0
47 49 0
49 52 0
12 18 0
18 25 0
0 0 0
79 79 0
45 45 0
0 0 0
45 45 0
45 45 0
45 45 0
12 18 0
49 52 0
45 45 0
12 18 0
80 81 0
47 49 0
64 64 0
91 91 0
45 45 0
0 0 0
64 64 0
66 67 0
47 49 0
64 64 0
91 91 0
66 67 0
64 64 0
92 93 0
91 91 0
102 102 0
79 79 0
91 91 0
64 64 0
45 45 0
64 64 0
79 79 0
103 104 0
64 64 0
80 81 0
18 25 0
112 113 0
91 91 0
91 91 0
45 45 0
45 45 0
0 0 0
102 102 0
64 64 0
67 69 0
45 45 0
102 102 0
79 79 0
67 69 0
64 64 0
45 45 0
12 18 0
66 67 0
112 113 0
45 45 0
45 45 0
64 64 0
79 79 0
79 79 0
102 102 0
91 91 0
92 93 0
91 91 0
45 45 0
91 91 0
121 121 0
121 121 0
102 102 0
121 121 0
102 102 0
79 79 0
64 64 0
64 64 0
79 79 0
112 112 0
137 137 0
91 91 0
64 64 0
91 91 0
121 121 0
112 112 0
45 45 0
129 129 0
112 112 0
79 79 0
91 91 0
121 121 0
79 79 0
91 91 0
103 104 0
102 102 0
102 102 0
64 64 0
79 79 0
79 79 0
103 104 0
64 64 0
64 64 0
79 79 0
45 45 0
79 79 0
64 64 0
91 91 0
137 137 0
91 91 0
112 112 0
137 137 0
102 102 0
129 129 0
91 91 0
79 79 0
102 102 0
91 91 0
79 79 0
64 64 0
102 102 0
102 102 0
102 102 0
102 102 0
137 137 0
91 91 0
103 104 0
129 129 0
121 121 0
102 102 0
45 45 0
64 64 0
91 91 0
79 79 0
91 91 0
102 102 0
64 64 0
66 67 0
64 64 0
79 79 0
130 130 0
102 102 0
79 79 0
80 81 0
91 91 0
91 91 0
102 102 0
93 95 0
137 137 0
121 121 0
91 91 0
91 91 0
129 129 0
102 102 0
91 91 0
79 79 0
121 121 0
79 79 0
64 64 0
91 91 0
102 102 0
79 79 0
112 112 0
112 112 0
102 102 0
129 129 0
79 79 0
112 112 0
112 112 0
112 112 0
112 112 0
79 79 0
91 91 0
102 102 0
64 64 0
79 79 0
103 104 0
121 122 0
80 81 0
112 112 0
112 112 0
79 79 0
91 91 0
64 64 0
45 45 0
64 64 0
137 137 0
112 112 0
112 112 0
91 91 0
47 49 0
45 45 0
91 91 0
91 91 0
103 104 0
121 121 0
79 79 0
64 64 0
79 79 0
0 0 0
102 102 0
102 102 0
79 79 0
91 91 0
91 91 0
66 67 0
91 91 0
64 64 0
121 122 0
91 91 0
64 64 0
91 91 0
92 93 0
47 49 0
92 93 0
79 79 0
79 79 0
79 79 0
121 121 0
91 91 0
45 45 0
92 93 0
112 112 0
79 79 0
45 45 0
80 81 0
66 67 0
64 64 0
45 45 0
45 45 0
64 64 0
64 64 0
92 93 0
45 45 0
64 64 0
79 79 0
80 81 0
47 49 0
18 25 0
0 0 0
91 91 0
79 79 0
79 79 0
92 93 0
0 0 0
47 49 0
92 93 0
0 0 0
0 0 0
0 0 0
64 64 0
64 64 0
64 64 0
64 64 0
45 45 0
47 49 0
45 45 0
64 64 0
45 45 0
45 45 0
45 45 0
0 0 0
0 0 0
0 0 0
0 0 0
0 0 0
45 45 0
45 45 0
0 0 0
45 45 0
64 64 0
0 0 0
0 0 0
12 18 0
47 49 0
0 0 0
45 45 0
12 18 0
0 0 0
0 0 0
0 0 0
12 18 0
0 0 0
22 31 0
0 0 0
0 0 0
12 18 0
18 25 0
18 25 0
18 25 0
0 0 0
0 0 0
12 18 0
0 0 0
12 18 0
0 0 0
0 0 0
3 7 0
12 18 0
0 0 0
0 0 0
3 7 0
0 0 0
3 7 0
12 18 0
18 25 0
0 0 0
0 0 0
12 18 0
0 0 0
0 0 0
0 0 0
0 0 0
18 25 0
12 18 0
0 0 0
12 18 0
0 0 0
3 7 0
0 0 0
0 0 0
12 18 0
3 7 0
12 18 0
12 18 0
0 0 0
0 0 0
0 0 0
0 0 0
3 7 0
0 0 0
12 18 0
12 18 0
0 0 0
0 0 0
0 0 0
12 18 0
12 18 0
0 0 0
12 18 0
0 0 0
12 18 0
12 18 0
0 0 0
0 0 0
0 0 0
22 31 0
12 18 0
0 0 0
0 0 0
0 0 0
0 0 0
0 0 0
3 7 0
0 0 0
12 18 0
0 0 0
12 18 0
0 0 0
0 0 0
0 0 0
0 0 0
18 25 0
12 18 0
0 0 0
0 0 0
0 0 0
0 0 0
0 0 0
12 18 0
18 25 0
0 0 0
0 0 0
0 0 0
0 0 0
12 18 0
0 0 0
0 0 0
12 18 0
0 0 0
12 18 0
0 0 0
0 0 0
0 0 0
0 0 0
0 0 0
0 0 0
0 0 0
0 0 0
0 0 0
3 7 0
12 18 0
0 0 0
0 0 0
12 18 0
0 0 0
12 18 0
0 0 0
0 0 0
45 45 0
45 45 0
0 0 0
0 0 0
45 45 0
47 49 0
64 64 0
0 0 0
47 49 0
0 0 0
0 0 0
0 0 0
12 18 0
79 79 0
45 45 0
0 0 0
45 45 0
0 0 0
0 0 0
64 64 0
47 49 0
66 67 0
45 45 0
45 45 0
45 45 0
79 79 0
66 67 0
64 64 0
64 64 0
79 79 0
45 45 0
47 49 0
64 64 0
49 52 0
91 91 0
12 18 0
81 83 0
112 113 0
64 65 0
91 91 0
129 129 0
45 45 0
49 52 0
91 91 0
64 64 0
64 64 0
79 79 0
64 64 0
64 64 0
45 45 0
64 64 0
80 81 0
102 102 0
104 105 0
91 91 0
103 104 0
130 130 0
92 93 0
64 64 0
121 122 0
67 69 0
102 102 0
91 91 0
112 113 0
121 121 0
64 64 0
66 67 0
79 79 0
102 102 0
64 64 0
91 91 0
79 79 0
64 64 0
64 64 0
80 81 0
64 64 0
102 102 0
64 64 0
129 129 0
91 91 0
80 81 0
45 45 0
102 102 0
112 112 0
91 91 0
91 91 0
91 91 0
64 65 0
130 130 0
64 64 0
102 102 0
79 79 0
103 104 0
91 91 0
79 79 0
91 91 0
129 129 0
91 91 0
64 64 0
79 79 0
103 104 0
121 121 0
79 79 0
45 45 0
79 79 0
102 102 0
45 45 0
102 102 0
102 102 0
102 102 0
112 112 0
137 137 0
121 121 0
91 91 0
91 91 0
129 129 0
112 112 0
79 79 0
45 45 0
102 102 0
112 112 0
79 79 0
45 45 0
112 112 0
102 102 0
102 102 0
79 79 0
79 79 0
79 79 0
79 79 0
102 102 0
79 79 0
121 121 0
102 102 0
121 121 0
67 69 0
91 91 0
64 64 0
45 45 0
80 81 0
102 102 0
79 79 0
102 102 0
91 91 0
79 79 0
102 102 0
91 91 0
92 93 0
102 102 0
79 79 0
112 112 0
91 91 0
91 91 0
121 121 0
45 45 0
91 91 0
121 121 0
113 115 0
91 91 0
64 64 0
79 79 0
64 64 0
102 102 0
91 91 0
79 79 0
129 129 0
80 81 0
102 102 0
103 104 0
47 49 0
45 45 0
66 67 0
129 129 0
102 102 0
91 91 0
79 79 0
102 102 0
121 121 0
45 45 0
79 79 0
102 102 0
121 121 0
64 64 0
91 91 0
80 81 0
102 102 0
102 102 0
66 67 0
79 79 0
91 91 0
79 79 0
64 64 0
64 64 0
79 79 0
91 91 0
129 129 0
45 46 0
112 112 0
102 102 0
79 79 0
91 91 0
91 91 0
102 102 0
91 91 0
92 93 0
91 91 0
112 112 0
91 91 0
79 79 0
102 102 0
93 95 0
121 122 0
112 112 0
66 67 0
47 49 0
103 104 0
112 112 0
66 67 0
92 93 0
64 64 0
45 45 0
64 64 0
45 45 0
91 91 0
45 45 0
47 49 0
91 91 0
79 79 0
45 45 0
93 95 0
91 91 0
91 91 0
64 64 0
64 64 0
47 49 0
64 64 0
45 45 0
79 79 0
45 45 0
79 79 0
121 121 0
64 64 0
45 45 0
64 64 0
79 79 0
0 0 0
79 79 0
47 49 0
64 64 0
91 91 0
80 81 0
0 0 0
102 102 0
45 46 0
47 49 0
12 18 0
80 81 0
64 64 0
66 67 0
12 18 0
45 45 0
67 69 0
66 67 0
64 64 0
45 45 0
0 0 0
12 18 0
0 0 0
45 45 0
47 49 0
0 0 0
0 0 0
45 45 0
47 49 0
0 0 0
0 0 0
12 18 0
0 0 0
0 0 0
0 0 0
0 0 0
13 19 0
0 0 0
0 0 0
12 18 0
0 0 0
3 7 0
18 25 0
0 0 0
0 0 0
0 0 0
0 0 0
12 18 0
0 0 0
0 0 0
0 0 0
0 0 0
12 18 0
12 18 0
12 18 0
0 0 0
0 0 0
0 0 0
0 0 0
1 2 0
0 0 0
0 0 0
0 0 0
0 0 0
0 0 0
12 18 0
0 0 0
0 0 0
0 0 0
0 0 0
18 25 0
0 0 0
18 25 0
0 0 0
12 18 0
0 0 0
12 18 0
0 0 0
0 0 0
0 0 0
12 18 0
3 7 0
3 7 0
12 18 0
12 18 0
0 0 0
13 19 0
12 18 0
12 18 0
0 0 0
12 18 0
12 18 0
0 0 0
0 0 0
0 0 0
0 0 0
0 0 0
0 0 0
12 18 0
0 0 0
0 0 0
12 18 0
12 18 0
12 18 0
0 0 0
18 25 0
12 18 0
18 25 0
0 0 0
0 0 0
0 0 0
0 0 0
0 0 0
0 0 0
12 18 0
3 7 0
0 0 0
12 18 0
0 0 0
18 25 0
12 18 0
12 18 0
0 0 0
0 0 0
12 18 0
12 18 0
0 0 0
0 0 0
0 0 0
0 0 0
0 0 0
1 2 0
0 0 0
12 18 0
0 0 0
0 0 0
0 0 0
0 0 0
0 0 0
0 0 0
0 0 0
0 0 0
0 0 0
0 0 0
0 0 0
18 25 0
0 0 0
45 45 0
12 18 0
0 0 0
0 0 0
13 19 0
45 45 0
3 7 0
3 7 0
0 0 0
0 0 0
0 0 0
12 18 0
0 0 0
0 0 0
0 0 0
47 49 0
0 0 0
0 0 0
45 45 0
0 0 0
64 64 0
3 7 0
12 18 0
66 67 0
91 91 0
79 79 0
79 79 0
47 49 0
92 93 0
0 0 0
0 0 0
80 81 0
79 79 0
0 0 0
64 65 0
45 45 0
64 64 0
45 45 0
64 64 0
45 45 0
0 0 0
66 67 0
45 45 0
102 102 0
66 67 0
112 112 0
81 83 0
64 64 0
64 64 0
45 45 0
64 64 0
112 112 0
45 45 0
129 129 0
0 0 0
64 64 0
45 46 0
91 91 0
91 91 0
45 45 0
0 0 0
64 64 0
80 81 0
103 104 0
102 102 0
91 91 0
64 64 0
64 64 0
129 129 0
79 79 0
94 96 0
64 64 0
102 102 0
79 79 0
102 102 0
91 91 0
64 64 0
91 91 0
0 0 0
103 104 0
79 79 0
113 114 0
91 91 0
45 45 0
64 64 0
79 79 0
64 64 0
112 112 0
79 79 0
121 121 0
64 64 0
64 64 0
91 91 0
152 153 0
121 121 0
112 112 0
137 137 0
102 102 0
102 102 0
64 64 0
91 91 0
102 102 0
102 102 0
102 102 0
112 112 0
45 45 0
137 137 0
102 102 0
91 91 0
102 102 0
92 93 0
102 102 0
121 121 0
112 112 0
91 91 0
64 64 0
80 81 0
121 121 0
102 102 0
45 45 0
79 79 0
45 45 0
129 129 0
112 112 0
45 45 0
64 64 0
64 64 0
129 129 0
102 102 0
102 102 0
79 79 0
144 144 0
45 45 0
91 91 0
79 79 0
79 79 0
45 45 0
121 121 0
102 102 0
79 79 0
112 112 0
121 121 0
112 112 0
91 91 0
102 102 0
64 64 0
47 49 0
64 64 0
64 64 0
102 102 0
64 64 0
79 79 0
121 121 0
91 91 0
102 102 0
112 112 0
112 112 0
137 137 0
79 79 0
102 102 0
102 102 0
79 79 0
129 129 0
79 79 0
102 102 0
102 102 0
91 91 0
112 112 0
64 64 0
102 102 0
102 102 0
112 112 0
112 112 0
79 79 0
91 91 0
79 79 0
112 112 0
102 102 0
122 122 0
121 121 0
113 114 0
80 81 0
102 102 0
102 102 0
92 93 0
102 102 0
91 91 0
79 79 0
92 93 0
79 79 0
129 129 0
91 91 0
79 79 0
92 93 0
45 45 0
79 79 0
47 49 0
102 102 0
112 112 0
64 64 0
102 102 0
64 64 0
79 79 0
79 79 0
91 91 0
130 130 0
64 64 0
112 112 0
91 91 0
112 112 0
79 79 0
80 81 0
66 67 0
102 102 0
102 102 0
121 121 0
91 91 0
64 64 0
102 102 0
64 64 0
64 64 0
104 107 0
64 64 0
45 45 0
64 64 0
80 81 0
92 93 0
91 91 0
102 102 0
64 64 0
102 102 0
64 64 0
64 64 0
80 81 0
64 64 0
64 64 0
79 79 0
45 45 0
45 45 0
0 0 0
79 79 0
80 81 0
80 81 0
45 45 0
66 67 0
91 91 0
92 93 0
45 45 0
64 64 0
68 72 0
45 45 0
0 0 0
0 0 0
45 45 0
12 18 0
0 0 0
64 65 0
64 65 0
45 45 0
47 49 0
0 0 0
3 7 0
79 79 0
12 18 0
45 45 0
79 79 0
45 45 0
0 0 0
18 26 0
64 64 0
45 45 0
12 18 0
0 0 0
64 64 0
18 25 0
67 69 0
0 0 0
0 0 0
45 45 0
45 45 0
49 52 0
18 25 0
12 18 0
12 18 0
12 18 0
45 45 0
0 0 0
0 0 0
45 45 0
3 7 0
0 0 0
18 25 0
0 0 0
0 0 0
0 0 0
12 18 0
0 0 0
0 0 0
5 10 0
18 25 0
0 0 0
0 0 0
0 0 0
0 0 0
0 0 0
0 0 0
12 18 0
0 0 0
12 18 0
12 18 0
12 18 0
0 0 0
0 0 0
0 0 0
12 18 0
3 7 0
0 0 0
0 0 0
0 0 0
0 0 0
3 7 0
12 18 0
0 0 0
0 0 0
13 19 0
0 0 0
0 0 0
3 7 0
0 0 0
12 18 0
0 0 0
12 18 0
18 25 0
0 0 0
18 25 0
12 18 0
12 18 0
18 25 0
0 0 0
0 0 0
3 7 0
0 0 0
0 0 0
18 25 0
22 31 0
12 18 0
0 0 0
3 7 0
0 0 0
0 0 0
0 0 0
12 18 0
0 0 0
0 0 0
0 0 0
0 0 0
0 0 0
12 18 0
0 0 0
0 0 0
0 0 0
0 0 0
18 25 0
0 0 0
12 18 0
0 0 0
3 7 0
0 0 0
12 18 0
18 25 0
0 0 0
0 0 0
0 0 0
0 0 0
0 0 0
0 0 0
0 0 0
0 0 0
0 0 0
12 18 0
0 0 0
12 18 0
0 0 0
0 1 0
0 0 0
0 0 0
12 18 0
0 0 0
0 0 0
18 25 0
0 0 0
0 0 0
0 0 0
0 0 0
12 18 0
0 0 0
12 18 0
0 0 0
0 0 0
18 26 0
0 0 0
0 0 0
12 18 0
0 0 0
47 49 0
47 49 0
45 45 0
0 0 0
0 0 0
47 49 0
45 45 0
67 70 0
0 0 0
12 18 0
45 45 0
64 64 0
45 45 0
45 45 0
47 49 0
79 79 0
0 0 0
79 79 0
64 64 0
0 0 0
66 67 0
45 45 0
0 0 0
64 64 0
66 67 0
45 45 0
12 18 0
45 45 0
45 46 0
47 49 0
0 0 0
91 91 0
45 45 0
45 45 0
47 49 0
64 64 0
45 45 0
64 65 0
45 45 0
0 0 0
47 49 0
79 79 0
64 64 0
113 115 0
79 79 0
80 81 0
64 64 0
79 79 0
79 79 0
45 45 0
64 64 0
64 64 0
67 69 0
102 102 0
64 64 0
102 102 0
91 91 0
92 93 0
64 64 0
112 113 0
103 104 0
102 102 0
80 81 0
103 104 0
64 64 0
80 81 0
91 91 0
121 121 0
45 45 0
45 45 0
112 112 0
91 91 0
102 102 0
64 64 0
79 79 0
121 121 0
79 79 0
112 112 0
64 64 0
79 79 0
137 137 0
64 64 0
129 129 0
92 93 0
102 102 0
64 64 0
121 121 0
102 102 0
79 79 0
79 79 0
112 112 0
91 91 0
64 64 0
121 121 0
64 64 0
64 64 0
91 91 0
102 102 0
64 64 0
103 104 0
64 64 0
91 91 0
91 91 0
91 91 0
91 91 0
102 102 0
103 104 0
91 91 0
102 102 0
102 102 0
103 104 0
112 113 0
137 137 0
102 102 0
91 91 0
91 91 0
102 102 0
112 112 0
102 102 0
91 91 0
92 93 0
79 79 0
112 112 0
121 121 0
91 91 0
45 45 0
102 102 0
102 102 0
103 104 0
91 91 0
91 91 0
79 79 0
45 45 0
91 91 0
121 121 0
112 112 0
129 129 0
91 91 0
79 79 0
47 49 0
112 112 0
112 112 0
79 79 0
79 79 0
0 0 0
45 45 0
145 147 0
91 91 0
0 0 0
79 79 0
79 79 0
91 91 0
102 102 0
137 137 0
102 102 0
91 91 0
79 79 0
102 102 0
121 121 0
91 91 0
91 91 0
91 91 0
112 112 0
45 45 0
129 129 0
79 79 0
64 64 0
79 79 0
79 79 0
91 91 0
102 102 0
0 0 0
102 102 0
102 102 0
80 81 0
102 102 0
102 102 0
91 91 0
80 81 0
144 144 0
103 104 0
112 113 0
102 102 0
91 91 0
64 64 0
129 129 0
91 91 0
103 104 0
92 93 0
91 91 0
91 91 0
64 64 0
79 79 0
91 91 0
81 83 0
64 64 0
64 64 0
91 91 0
79 79 0
121 121 0
12 18 0
91 91 0
64 64 0
91 91 0
64 64 0
102 102 0
64 64 0
64 64 0
92 93 0
121 121 0
112 112 0
91 91 0
64 64 0
102 102 0
80 81 0
66 67 0
102 102 0
79 79 0
12 18 0
91 91 0
64 64 0
80 81 0
103 104 0
103 104 0
79 79 0
112 112 0
66 67 0
45 45 0
64 64 0
91 91 0
102 102 0
121 122 0
45 45 0
79 79 0
64 64 0
64 64 0
79 79 0
112 112 0
102 102 0
64 64 0
102 102 0
0 0 0
66 67 0
45 45 0
66 67 0
92 93 0
66 67 0
45 45 0
45 45 0
67 69 0
45 45 0
79 79 0
47 49 0
66 67 0
12 18 0
45 45 0
79 79 0
64 64 0
0 0 0
79 79 0
68 72 0
0 0 0
0 0 0
3 7 0
0 0 0
45 45 0
47 49 0
45 45 0
0 0 0
12 18 0
0 0 0
1 2 0
0 0 0
0 0 0
0 0 0
64 64 0
0 0 0
45 45 0
0 0 0
12 18 0
0 0 0
0 0 0
12 18 0
0 0 0
47 49 0
0 0 0
3 7 0
0 0 0
12 18 0
12 18 0
12 18 0
12 18 0
0 0 0
3 7 0
0 0 0
0 0 0
12 18 0
0 1 0
0 0 0
12 18 0
0 0 0
12 18 0
12 18 0
0 0 0
12 18 0
0 0 0
0 0 0
18 25 0
0 0 0
0 0 0
12 18 0
3 7 0
12 18 0
0 0 0
0 0 0
0 0 0
0 0 0
0 0 0
0 0 0
0 0 0
0 0 0
12 18 0
0 0 0
0 0 0
0 0 0
0 0 0
0 0 0
1 2 0
12 18 0
12 18 0
1 2 0
0 0 0
12 18 0
18 25 0
0 0 0
0 0 0
0 0 0
0 0 0
0 0 0
0 0 0
0 0 0
18 25 0
1 2 0
12 18 0
12 18 0
0 0 0
12 18 0
18 25 0
0 0 0
0 0 0
12 18 0
0 0 0
18 25 0
0 0 0
3 7 0
12 18 0
3 7 0
12 18 0
12 18 0
12 18 0
18 26 0
13 19 0
0 0 0
0 0 0
12 18 0
12 18 0
0 0 0
0 0 0
0 1 0
0 0 0
12 18 0
0 0 0
18 25 0
12 18 0
0 0 0
0 0 0
12 18 0
0 0 0
0 0 0
0 0 0
22 31 0
12 18 0
12 18 0
0 0 0
0 0 0
0 0 0
3 7 0
12 18 0
12 18 0
0 0 0
0 0 0
12 18 0
0 0 0
0 0 0
18 25 0
45 45 0
0 0 0
49 52 0
45 45 0
3 7 0
12 18 0
0 0 0
49 52 0
45 45 0
3 7 0
12 18 0
3 7 0
66 67 0
45 45 0
47 49 0
0 0 0
45 45 0
45 45 0
45 45 0
64 64 0
79 79 0
45 45 0
45 45 0
64 64 0
12 18 0
12 18 0
0 0 0
64 64 0
79 79 0
3 7 0
91 91 0
45 45 0
45 45 0
79 79 0
64 64 0
92 93 0
47 49 0
64 64 0
0 0 0
45 45 0
47 49 0
91 91 0
66 67 0
45 45 0
0 0 0
12 18 0
47 49 0
66 67 0
45 45 0
80 81 0
82 85 0
112 112 0
80 81 0
91 91 0
102 102 0
91 91 0
112 112 0
102 102 0
64 64 0
121 121 0
45 45 0
64 64 0
103 104 0
66 67 0
0 0 0
112 112 0
80 81 0
45 45 0
91 91 0
79 79 0
79 79 0
91 91 0
92 93 0
64 64 0
91 91 0
102 102 0
79 79 0
80 81 0
79 79 0
80 81 0
91 91 0
102 102 0
64 64 0
91 91 0
79 79 0
92 93 0
130 130 0
64 64 0
103 104 0
79 79 0
121 121 0
112 112 0
79 79 0
79 79 0
91 91 0
47 49 0
66 67 0
79 79 0
79 79 0
102 102 0
91 91 0
79 79 0
121 121 0
79 79 0
91 91 0
137 137 0
102 102 0
102 102 0
91 91 0
79 79 0
93 95 0
137 137 0
112 112 0
91 91 0
91 91 0
80 81 0
79 79 0
102 102 0
130 130 0
112 113 0
112 112 0
102 102 0
121 122 0
64 64 0
102 102 0
102 102 0
102 102 0
91 91 0
102 102 0
64 64 0
91 91 0
112 112 0
121 121 0
102 102 0
79 79 0
102 102 0
103 104 0
79 79 0
64 64 0
45 45 0
79 79 0
91 91 0
102 102 0
129 129 0
129 129 0
102 102 0
92 93 0
91 91 0
129 129 0
121 122 0
103 104 0
79 79 0
91 91 0
112 112 0
121 121 0
113 114 0
91 91 0
64 64 0
112 112 0
64 64 0
121 121 0
112 112 0
64 64 0
121 121 0
91 91 0
64 64 0
121 122 0
92 93 0
137 137 0
79 79 0
79 79 0
102 102 0
92 93 0
79 79 0
102 102 0
79 79 0
92 93 0
91 91 0
112 112 0
91 91 0
64 64 0
112 112 0
79 79 0
121 121 0
102 102 0
79 79 0
91 91 0
64 64 0
64 64 0
137 137 0
92 93 0
112 112 0
79 79 0
64 64 0
91 91 0
92 93 0
66 67 0
91 91 0
91 91 0
121 121 0
64 64 0
112 112 0
79 79 0
102 102 0
102 102 0
121 122 0
144 144 0
112 112 0
64 65 0
91 91 0
49 52 0
66 67 0
121 121 0
130 130 0
64 64 0
80 81 0
45 45 0
102 102 0
64 64 0
64 64 0
91 91 0
64 64 0
47 49 0
79 79 0
79 79 0
80 81 0
112 112 0
91 91 0
64 64 0
91 91 0
91 91 0
64 64 0
92 93 0
102 102 0
79 79 0
64 64 0
47 49 0
64 64 0
64 64 0
79 79 0
64 64 0
0 0 0
64 64 0
45 45 0
64 64 0
79 79 0
79 79 0
102 102 0
45 45 0
64 65 0
12 18 0
12 18 0
64 65 0
45 45 0
80 81 0
45 45 0
45 45 0
64 65 0
81 83 0
112 112 0
45 45 0
45 45 0
67 69 0
64 65 0
79 79 0
66 67 0
64 64 0
64 64 0
13 19 0
45 45 0
12 18 0
79 79 0
104 107 0
45 45 0
12 18 0
0 0 0
64 64 0
45 45 0
0 0 0
64 65 0
0 0 0
45 45 0
0 0 0
12 18 0
0 0 0
0 0 0
0 0 0
0 0 0
12 18 0
0 0 0
0 0 0
0 0 0
0 0 0
0 0 0
0 0 0
12 18 0
12 18 0
0 0 0
18 25 0
12 18 0
12 18 0
0 0 0
0 0 0
0 0 0
0 0 0
0 0 0
12 18 0
0 0 0
0 0 0
3 7 0
0 0 0
0 0 0
0 0 0
3 7 0
0 0 0
0 0 0
0 0 0
12 18 0
18 25 0
0 0 0
0 0 0
0 0 0
0 0 0
3 7 0
0 0 0
0 0 0
12 18 0
0 0 0
12 18 0
0 0 0
0 0 0
0 0 0
0 0 0
3 7 0
12 18 0
0 0 0
0 0 0
12 18 0
0 0 0
12 18 0
0 0 0
0 0 0
0 0 0
0 0 0
12 18 0
0 0 0
12 18 0
0 0 0
0 0 0
0 0 0
0 0 0
0 0 0
12 18 0
0 0 0
0 0 0
0 0 0
12 18 0
0 0 0
12 18 0
13 19 0
3 7 0
0 0 0
12 18 0
12 18 0
18 25 0
0 0 0
0 0 0
18 25 0
0 0 0
0 0 0
12 18 0
0 0 0
12 18 0
12 18 0
0 0 0
3 7 0
12 18 0
0 0 0
0 0 0
0 0 0
0 0 0
0 0 0
0 0 0
0 0 0
12 18 0
0 0 0
3 7 0
0 0 0
0 0 0
0 0 0
0 0 0
0 0 0
3 7 0
0 0 0
12 18 0
12 18 0
0 0 0
12 18 0
0 0 0
12 18 0
0 0 0
49 52 0
18 25 0
12 18 0
0 0 0
0 0 0
0 0 0
0 0 0
0 0 0
45 45 0
12 18 0
0 0 0
80 81 0
64 64 0
0 0 0
0 0 0
49 52 0
45 45 0
47 49 0
64 64 0
45 45 0
18 25 0
45 45 0
45 45 0
45 45 0
0 0 0
45 45 0
45 45 0
45 45 0
0 0 0
66 67 0
45 45 0
92 93 0
12 18 0
91 91 0
45 45 0
81 83 0
0 0 0
47 49 0
79 79 0
92 93 0
64 64 0
80 81 0
64 64 0
91 91 0
112 113 0
91 91 0
45 46 0
45 45 0
79 79 0
45 45 0
79 79 0
47 49 0
45 45 0
64 64 0
103 104 0
64 64 0
79 79 0
102 102 0
103 104 0
45 45 0
91 91 0
12 18 0
80 81 0
102 102 0
64 65 0
64 64 0
47 49 0
129 129 0
66 67 0
91 91 0
66 67 0
45 45 0
112 112 0
79 79 0
64 64 0
79 79 0
102 102 0
79 79 0
91 91 0
102 102 0
102 102 0
64 64 0
64 64 0
79 79 0
91 91 0
64 64 0
91 91 0
112 112 0
91 91 0
91 91 0
112 113 0
112 113 0
79 79 0
64 64 0
45 45 0
47 49 0
91 91 0
129 129 0
121 121 0
112 112 0
121 121 0
112 112 0
102 102 0
112 112 0
79 79 0
112 112 0
102 102 0
121 122 0
64 64 0
79 79 0
102 102 0
102 102 0
102 102 0
91 91 0
121 121 0
79 79 0
102 102 0
102 102 0
79 79 0
45 45 0
112 112 0
102 102 0
64 64 0
79 79 0
64 64 0
91 91 0
79 79 0
102 102 0
79 79 0
102 102 0
45 45 0
112 112 0
91 91 0
112 112 0
79 79 0
91 91 0
112 112 0
79 79 0
144 144 0
91 91 0
91 91 0
79 79 0
102 102 0
112 112 0
112 112 0
79 79 0
64 64 0
79 79 0
137 137 0
102 102 0
112 112 0
91 91 0
158 158 0
0 0 0
112 112 0
91 91 0
103 104 0
92 93 0
79 79 0
47 49 0
79 79 0
64 64 0
91 91 0
102 102 0
91 91 0
112 112 0
64 64 0
121 121 0
64 64 0
91 91 0
91 91 0
121 121 0
102 102 0
121 121 0
112 112 0
102 102 0
79 79 0
91 91 0
45 45 0
91 91 0
79 79 0
91 91 0
112 113 0
91 91 0
102 102 0
121 121 0
79 79 0
79 79 0
102 102 0
102 102 0
102 102 0
121 121 0
112 112 0
102 102 0
91 91 0
64 64 0
121 121 0
79 79 0
112 112 0
92 93 0
121 121 0
64 64 0
112 112 0
79 79 0
121 121 0
79 79 0
91 91 0
47 49 0
102 102 0
102 102 0
112 112 0
112 112 0
66 67 0
102 102 0
102 102 0
79 79 0
64 64 0
121 121 0
80 81 0
64 64 0
79 79 0
66 67 0
137 138 0
64 64 0
102 102 0
66 67 0
0 0 0
91 91 0
66 67 0
49 52 0
64 64 0
79 79 0
0 0 0
45 45 0
79 79 0
80 81 0
79 79 0
121 121 0
12 18 0
91 91 0
64 64 0
121 121 0
64 64 0
64 64 0
112 113 0
49 52 0
64 64 0
64 64 0
66 67 0
81 83 0
79 79 0
79 79 0
0 0 0
64 64 0
79 79 0
47 49 0
12 18 0
66 67 0
64 64 0
64 64 0
49 52 0
47 49 0
0 0 0
0 0 0
45 45 0
66 67 0
64 64 0
45 45 0
47 49 0
0 0 0
18 25 0
0 0 0
45 45 0
0 0 0
47 49 0
45 45 0
45 45 0
0 0 0
0 0 0
0 0 0
0 0 0
0 0 0
45 45 0
0 0 0
0 0 0
0 0 0
45 45 0
12 18 0
0 0 0
12 18 0
0 0 0
49 52 0
13 19 0
12 18 0
18 25 0
12 18 0
12 18 0
12 18 0
0 0 0
0 0 0
18 25 0
12 18 0
12 18 0
12 18 0
0 0 0
13 19 0
0 0 0
22 31 0
0 0 0
0 0 0
12 18 0
18 25 0
12 18 0
0 0 0
0 0 0
0 0 0
0 0 0
0 0 0
0 0 0
12 18 0
0 0 0
12 18 0
18 25 0
0 0 0
0 0 0
0 0 0
0 0 0
12 18 0
0 0 0
0 0 0
0 0 0
0 0 0
0 0 0
0 0 0
12 18 0
0 0 0
12 18 0
0 0 0
18 25 0
0 0 0
12 18 0
0 0 0
12 18 0
0 0 0
0 0 0
0 0 0
0 0 0
12 18 0
3 7 0
3 7 0
12 18 0
12 18 0
12 18 0
0 0 0
12 18 0
3 7 0
0 0 0
0 0 0
0 0 0
0 0 0
0 0 0
0 0 0
12 18 0
0 0 0
12 18 0
0 0 0
0 0 0
0 0 0
0 0 0
0 0 0
0 0 0
0 0 0
12 18 0
0 0 0
0 0 0
0 0 0
12 18 0
3 7 0
0 0 0
0 0 0
0 0 0
0 0 0
0 0 0
0 0 0
0 0 0
0 0 0
12 18 0
0 0 0
0 0 0
12 18 0
13 19 0
0 0 0
12 18 0
3 7 0
47 49 0
45 45 0
25 36 0
12 18 0
47 49 0
0 0 0
12 18 0
12 18 0
12 18 0
0 0 0
64 64 0
0 0 0
12 18 0
0 0 0
45 45 0
0 0 0
64 64 0
64 64 0
12 18 0
0 0 0
0 0 0
12 18 0
64 64 0
0 0 0
66 67 0
64 64 0
45 45 0
45 45 0
47 49 0
45 45 0
45 45 0
64 64 0
45 45 0
12 18 0
45 45 0
45 45 0
81 83 0
64 64 0
79 79 0
91 91 0
64 64 0
45 45 0
79 79 0
80 81 0
80 81 0
12 18 0
45 46 0
91 91 0
64 64 0
64 64 0
91 91 0
79 79 0
64 64 0
66 67 0
0 0 0
121 121 0
0 0 0
80 81 0
91 91 0
66 67 0
79 79 0
66 67 0
47 49 0
79 79 0
67 69 0
64 64 0
80 81 0
45 45 0
79 79 0
79 79 0
79 79 0
79 79 0
64 64 0
103 104 0
91 91 0
79 79 0
112 113 0
79 79 0
47 49 0
93 95 0
112 112 0
102 102 0
80 81 0
91 91 0
91 91 0
102 102 0
102 102 0
92 93 0
79 79 0
112 112 0
137 137 0
45 45 0
112 113 0
79 79 0
91 91 0
79 79 0
91 91 0
92 93 0
64 64 0
91 91 0
64 64 0
47 49 0
112 112 0
112 112 0
79 79 0
64 64 0
112 113 0
79 79 0
64 64 0
102 102 0
102 102 0
91 91 0
64 64 0
112 112 0
91 91 0
121 121 0
91 91 0
64 64 0
64 64 0
102 102 0
103 104 0
45 45 0
112 112 0
129 129 0
79 79 0
121 121 0
121 121 0
91 91 0
64 64 0
137 137 0
79 79 0
129 129 0
91 91 0
79 79 0
64 64 0
45 45 0
129 129 0
81 83 0
129 129 0
112 112 0
79 79 0
121 121 0
121 121 0
112 112 0
79 79 0
121 121 0
79 79 0
112 112 0
121 121 0
0 0 0
121 121 0
92 93 0
104 105 0
102 102 0
121 121 0
45 45 0
64 64 0
112 112 0
102 102 0
91 91 0
129 129 0
112 112 0
79 79 0
79 79 0
121 121 0
64 64 0
45 45 0
112 112 0
91 91 0
129 129 0
144 144 0
102 102 0
64 64 0
91 91 0
112 112 0
102 102 0
121 121 0
45 45 0
112 113 0
91 91 0
91 91 0
45 45 0
64 64 0
64 64 0
112 112 0
91 91 0
91 91 0
112 113 0
102 102 0
102 102 0
102 102 0
79 79 0
80 81 0
79 79 0
91 91 0
121 121 0
102 102 0
112 112 0
103 104 0
112 112 0
91 91 0
47 49 0
121 121 0
91 91 0
91 91 0
64 64 0
64 64 0
91 91 0
79 79 0
102 102 0
91 91 0
121 122 0
91 91 0
64 64 0
64 64 0
102 102 0
121 121 0
91 91 0
64 64 0
80 81 0
121 121 0
102 102 0
12 18 0
79 79 0
91 91 0
79 79 0
66 67 0
102 102 0
64 64 0
81 83 0
64 64 0
79 79 0
79 79 0
80 81 0
121 121 0
80 81 0
0 0 0
91 91 0
45 45 0
91 91 0
64 64 0
102 102 0
45 45 0
102 102 0
45 45 0
112 112 0
64 64 0
47 49 0
91 91 0
64 64 0
64 64 0
47 49 0
79 79 0
64 64 0
91 91 0
79 79 0
45 45 0
45 45 0
66 67 0
0 0 0
79 79 0
45 45 0
79 79 0
64 64 0
79 79 0
80 81 0
47 49 0
79 79 0
66 67 0
79 79 0
12 18 0
12 18 0
0 0 0
66 67 0
47 49 0
3 7 0
0 0 0
12 18 0
18 25 0
12 18 0
47 49 0
66 67 0
0 0 0
0 0 0
0 0 0
0 0 0
45 45 0
0 0 0
0 0 0
12 18 0
47 49 0
45 45 0
12 18 0
0 0 0
0 0 0
47 49 0
0 0 0
12 18 0
0 0 0
13 19 0
0 0 0
0 0 0
0 0 0
18 25 0
13 19 0
0 0 0
0 0 0
0 0 0
0 0 0
3 7 0
0 0 0
18 25 0
0 0 0
0 0 0
0 0 0
0 0 0
0 0 0
0 0 0
0 0 0
0 0 0
0 0 0
0 0 0
0 0 0
0 0 0
0 0 0
0 0 0
12 18 0
0 0 0
0 0 0
0 0 0
12 18 0
12 18 0
0 0 0
0 0 0
0 0 0
0 0 0
12 18 0
12 18 0
0 0 0
0 0 0
0 0 0
0 0 0
0 0 0
13 20 0
0 0 0
18 25 0
0 0 0
12 18 0
0 0 0
12 18 0
18 25 0
18 25 0
0 0 0
0 0 0
0 0 0
12 18 0
0 0 0
0 0 0
18 26 0
0 0 0
3 7 0
0 0 0
0 0 0
12 18 0
0 0 0
0 0 0
12 18 0
0 0 0
18 25 0
0 0 0
12 18 0
12 18 0
0 0 0
0 0 0
18 25 0
12 18 0
18 26 0
12 18 0
0 0 0
3 7 0
0 0 0
0 0 0
12 18 0
13 19 0
0 0 0
0 0 0
12 18 0
12 18 0
12 18 0
3 7 0
0 0 0
12 18 0
0 0 0
0 0 0
12 18 0
0 0 0
13 19 0
12 18 0
0 0 0
0 0 0
0 0 0
0 0 0
13 19 0
45 45 0
0 0 0
0 0 0
64 64 0
0 0 0
12 18 0
64 64 0
0 0 0
47 49 0
0 0 0
0 0 0
0 0 0
45 45 0
12 18 0
12 18 0
12 18 0
102 102 0
45 45 0
0 0 0
80 81 0
80 81 0
64 64 0
47 49 0
66 67 0
47 49 0
47 49 0
79 79 0
45 45 0
64 64 0
64 64 0
66 67 0
0 0 0
47 49 0
47 49 0
0 0 0
45 45 0
45 45 0
64 64 0
92 93 0
66 67 0
45 45 0
45 45 0
64 64 0
79 79 0
0 0 0
64 64 0
64 64 0
79 79 0
0 0 0
79 79 0
92 93 0
45 45 0
102 102 0
112 112 0
64 64 0
91 91 0
64 64 0
45 45 0
102 102 0
79 79 0
103 104 0
79 79 0
64 64 0
45 45 0
102 102 0
12 18 0
91 91 0
91 91 0
45 45 0
47 49 0
92 93 0
12 18 0
47 49 0
102 102 0
121 121 0
129 129 0
102 102 0
91 91 0
64 64 0
45 45 0
91 91 0
103 104 0
112 112 0
64 64 0
64 64 0
102 102 0
102 102 0
79 79 0
121 121 0
112 112 0
79 79 0
45 45 0
79 79 0
45 46 0
79 79 0
79 79 0
91 91 0
64 64 0
112 112 0
102 102 0
64 64 0
64 64 0
91 91 0
79 79 0
121 122 0
79 79 0
91 91 0
79 79 0
64 64 0
91 91 0
64 64 0
64 64 0
45 45 0
64 64 0
64 64 0
91 91 0
103 104 0
137 137 0
47 49 0
64 64 0
103 104 0
102 102 0
102 102 0
103 104 0
64 64 0
112 112 0
92 93 0
112 112 0
129 129 0
121 121 0
129 129 0
102 102 0
121 121 0
64 64 0
121 122 0
91 91 0
137 137 0
102 102 0
151 151 0
91 91 0
102 102 0
112 112 0
121 121 0
64 64 0
102 102 0
112 112 0
129 129 0
102 102 0
64 64 0
102 102 0
91 91 0
91 91 0
144 144 0
91 91 0
91 91 0
121 121 0
121 121 0
144 144 0
79 79 0
112 112 0
121 122 0
79 79 0
102 102 0
102 102 0
112 112 0
121 122 0
121 121 0
112 112 0
79 79 0
91 91 0
91 91 0
102 102 0
121 121 0
121 121 0
121 122 0
80 81 0
79 79 0
45 45 0
79 79 0
80 81 0
79 79 0
45 45 0
91 91 0
112 112 0
121 121 0
121 121 0
79 79 0
102 102 0
91 91 0
64 64 0
64 64 0
102 102 0
64 64 0
112 112 0
121 121 0
79 79 0
91 91 0
92 93 0
91 91 0
64 64 0
91 91 0
129 129 0
112 113 0
112 112 0
121 122 0
79 79 0
121 122 0
79 79 0
45 45 0
102 102 0
45 45 0
91 91 0
91 91 0
112 112 0
121 121 0
91 91 0
103 104 0
79 79 0
64 64 0
102 102 0
91 91 0
92 93 0
103 104 0
79 79 0
79 79 0
91 91 0
81 83 0
64 64 0
45 45 0
64 64 0
91 91 0
45 45 0
121 121 0
64 64 0
64 64 0
112 112 0
45 45 0
92 93 0
45 45 0
79 79 0
102 102 0
122 123 0
91 91 0
79 79 0
66 67 0
64 64 0
45 45 0
79 79 0
67 69 0
45 45 0
66 67 0
91 91 0
80 81 0
64 64 0
12 18 0
79 79 0
64 64 0
0 0 0
0 0 0
64 65 0
0 0 0
64 64 0
12 18 0
0 0 0
80 81 0
79 79 0
64 64 0
47 49 0
64 64 0
12 18 0
47 49 0
102 102 0
45 45 0
12 18 0
91 91 0
0 0 0
45 45 0
12 18 0
66 67 0
0 0 0
12 18 0
0 0 0
45 45 0
0 0 0
0 0 0
0 0 0
12 18 0
12 18 0
0 0 0
12 18 0
3 7 0
64 64 0
18 26 0
12 18 0
0 0 0
12 18 0
12 18 0
0 0 0
0 0 0
12 18 0
0 0 0
0 0 0
0 0 0
0 0 0
0 0 0
12 18 0
3 7 0
0 0 0
0 0 0
13 19 0
0 0 0
0 0 0
0 0 0
0 0 0
3 7 0
0 0 0
0 0 0
12 18 0
0 0 0
12 18 0
12 18 0
0 0 0
18 25 0
0 0 0
12 18 0
0 0 0
0 0 0
0 0 0
0 0 0
0 0 0
12 18 0
0 0 0
0 0 0
0 0 0
0 0 0
18 26 0
0 0 0
0 0 0
0 0 0
0 0 0
18 26 0
12 18 0
1 4 0
12 18 0
12 18 0
12 18 0
0 0 0
12 18 0
0 0 0
12 18 0
12 18 0
0 0 0
12 18 0
0 0 0
0 0 0
0 0 0
0 0 0
0 0 0
0 0 0
0 0 0
0 0 0
12 18 0
12 18 0
18 25 0
3 7 0
0 0 0
12 18 0
3 7 0
12 18 0
0 0 0
0 0 0
3 7 0
0 0 0
0 0 0
0 0 0
0 0 0
12 18 0
0 0 0
0 0 0
0 0 0
18 25 0
0 0 0
0 0 0
0 0 0
0 0 0
3 7 0
0 0 0
12 18 0
12 18 0
0 0 0
0 0 0
0 0 0
12 18 0
0 0 0
12 18 0
0 0 0
12 18 0
45 45 0
0 0 0
0 0 0
0 0 0
0 0 0
0 0 0
79 79 0
47 49 0
0 0 0
47 49 0
0 0 0
0 0 0
0 0 0
0 0 0
3 7 0
0 0 0
0 0 0
0 0 0
0 0 0
0 0 0
12 18 0
45 45 0
0 0 0
66 67 0
64 64 0
64 64 0
64 64 0
45 45 0
79 79 0
64 64 0
79 79 0
64 64 0
45 45 0
66 67 0
64 64 0
66 67 0
91 91 0
45 45 0
66 67 0
0 0 0
64 64 0
67 69 0
0 0 0
0 0 0
91 91 0
64 64 0
79 79 0
80 81 0
79 79 0
64 64 0
45 45 0
79 79 0
64 64 0
0 0 0
64 64 0
79 79 0
91 91 0
79 79 0
80 81 0
112 112 0
102 102 0
102 102 0
0 0 0
45 45 0
79 79 0
64 64 0
92 93 0
102 102 0
91 91 0
64 64 0
45 45 0
112 112 0
64 64 0
151 151 0
91 91 0
79 79 0
91 91 0
64 64 0
79 79 0
64 64 0
121 121 0
64 64 0
64 64 0
129 129 0
79 79 0
91 91 0
112 112 0
79 79 0
64 64 0
64 64 0
80 81 0
102 102 0
64 64 0
91 91 0
91 91 0
112 112 0
91 91 0
102 102 0
121 121 0
45 45 0
92 93 0
64 64 0
79 79 0
112 113 0
79 79 0
64 64 0
112 112 0
66 67 0
112 112 0
47 49 0
102 102 0
79 79 0
91 91 0
137 137 0
91 91 0
91 91 0
66 67 0
64 64 0
79 79 0
45 45 0
121 121 0
66 67 0
79 79 0
80 81 0
79 79 0
129 129 0
45 45 0
91 91 0
102 102 0
91 91 0
91 91 0
121 121 0
91 91 0
112 112 0
112 112 0
45 45 0
64 64 0
79 79 0
79 79 0
112 112 0
102 102 0
45 45 0
45 45 0
91 91 0
66 67 0
79 79 0
112 113 0
91 91 0
102 102 0
112 112 0
102 102 0
112 112 0
0 0 0
45 45 0
112 113 0
91 91 0
129 129 0
102 102 0
129 129 0
45 45 0
45 45 0
112 113 0
102 102 0
91 91 0
91 91 0
64 64 0
91 91 0
121 121 0
91 91 0
80 81 0
79 79 0
91 91 0
92 93 0
102 102 0
112 112 0
129 129 0
64 64 0
112 112 0
102 102 0
129 129 0
91 91 0
91 91 0
112 112 0
103 104 0
91 91 0
64 64 0
112 112 0
66 67 0
121 121 0
79 79 0
91 91 0
80 81 0
80 81 0
64 64 0
64 64 0
102 102 0
91 91 0
102 102 0
64 64 0
102 102 0
165 165 0
112 112 0
91 91 0
91 91 0
0 0 0
79 79 0
103 104 0
64 64 0
64 64 0
129 129 0
102 102 0
79 79 0
91 91 0
112 113 0
79 79 0
92 93 0
91 91 0
66 67 0
64 64 0
112 112 0
129 129 0
103 104 0
66 67 0
79 79 0
112 112 0
103 104 0
64 64 0
64 64 0
92 93 0
66 67 0
64 64 0
45 45 0
79 79 0
64 64 0
45 45 0
45 45 0
64 64 0
91 91 0
66 67 0
45 46 0
112 112 0
64 64 0
79 79 0
91 91 0
66 67 0
102 102 0
79 79 0
102 102 0
67 69 0
45 45 0
112 112 0
64 64 0
45 45 0
45 45 0
64 64 0
64 64 0
64 64 0
92 93 0
45 45 0
45 45 0
64 64 0
79 79 0
79 79 0
64 64 0
64 64 0
64 64 0
64 64 0
45 45 0
18 25 0
45 45 0
64 64 0
91 91 0
0 0 0
0 0 0
0 0 0
45 45 0
64 64 0
45 45 0
45 45 0
0 0 0
45 45 0
0 0 0
50 55 0
0 0 0
45 46 0
0 0 0
0 0 0
0 0 0
12 18 0
45 45 0
0 0 0
45 45 0
0 0 0
0 0 0
0 0 0
45 45 0
0 0 0
12 18 0
18 25 0
12 18 0
49 52 0
12 18 0
0 0 0
0 0 0
0 0 0
49 52 0
3 7 0
12 18 0
0 0 0
0 0 0
0 0 0
12 18 0
0 0 0
18 25 0
12 18 0
0 0 0
22 31 0
0 0 0
12 18 0
0 0 0
12 18 0
12 18 0
18 25 0
0 0 0
12 18 0
0 0 0
0 0 0
12 18 0
0 0 0
0 0 0
0 0 0
0 0 0
18 25 0
0 0 0
3 7 0
0 0 0
0 0 0
0 0 0
0 0 0
12 18 0
12 18 0
1 2 0
0 0 0
0 0 0
12 18 0
0 0 0
0 0 0
0 0 0
12 18 0
0 0 0
0 0 0
12 18 0
0 0 0
0 0 0
0 0 0
12 18 0
0 0 0
0 0 0
12 18 0
3 7 0
3 7 0
0 0 0
12 18 0
1 2 0
12 18 0
0 0 0
0 0 0
0 0 0
12 18 0
0 0 0
3 7 0
12 18 0
12 18 0
0 0 0
0 0 0
12 18 0
12 18 0
0 0 0
12 18 0
0 0 0
12 18 0
0 0 0
18 25 0
0 0 0
18 25 0
0 0 0
0 0 0
0 0 0
12 18 0
12 18 0
0 0 0
0 0 0
0 0 0
0 0 0
18 25 0
0 0 0
3 7 0
12 18 0
0 0 0
0 0 0
0 0 0
0 0 0
45 45 0
0 0 0
64 64 0
18 25 0
45 45 0
64 64 0
0 0 0
49 52 0
0 0 0
64 64 0
47 49 0
45 45 0
3 7 0
0 0 0
64 64 0
66 67 0
45 45 0
0 0 0
45 45 0
0 0 0
64 64 0
47 49 0
45 45 0
47 49 0
79 79 0
47 49 0
81 83 0
64 64 0
64 64 0
47 49 0
0 0 0
45 45 0
47 49 0
45 45 0
79 79 0
1 2 0
91 91 0
45 45 0
93 95 0
45 46 0
79 79 0
64 64 0
45 45 0
45 46 0
45 45 0
112 112 0
91 91 0
103 104 0
66 67 0
45 45 0
64 64 0
45 45 0
64 64 0
64 64 0
91 91 0
64 64 0
112 112 0
64 64 0
0 0 0
91 91 0
45 45 0
66 67 0
102 102 0
0 0 0
79 79 0
66 67 0
45 45 0
66 67 0
112 113 0
92 93 0
79 79 0
80 81 0
92 93 0
102 102 0
121 121 0
79 79 0
79 79 0
112 112 0
112 112 0
103 104 0
112 113 0
64 64 0
112 112 0
102 102 0
121 121 0
92 93 0
91 91 0
64 64 0
64 64 0
64 64 0
103 104 0
112 113 0
45 45 0
79 79 0
79 79 0
91 91 0
45 45 0
91 91 0
129 129 0
144 144 0
91 91 0
79 79 0
91 91 0
79 79 0
91 91 0
91 91 0
64 64 0
102 102 0
64 64 0
112 113 0
102 102 0
79 79 0
91 91 0
91 91 0
121 121 0
121 121 0
137 137 0
91 91 0
121 121 0
103 104 0
102 102 0
79 79 0
91 91 0
66 67 0
121 121 0
92 93 0
92 93 0
91 91 0
112 112 0
91 91 0
112 112 0
79 79 0
91 91 0
64 64 0
112 112 0
121 122 0
102 102 0
129 129 0
121 121 0
66 67 0
102 102 0
129 129 0
91 91 0
79 79 0
91 91 0
79 79 0
79 79 0
91 91 0
102 102 0
112 112 0
91 91 0
80 81 0
137 137 0
91 91 0
121 121 0
102 102 0
112 112 0
121 121 0
64 64 0
91 91 0
91 91 0
64 64 0
121 121 0
121 121 0
121 121 0
79 79 0
112 112 0
112 112 0
79 79 0
112 112 0
102 102 0
112 112 0
102 102 0
102 102 0
102 102 0
121 121 0
64 64 0
64 64 0
79 79 0
91 91 0
121 121 0
79 79 0
102 102 0
67 69 0
102 102 0
102 102 0
91 91 0
45 45 0
91 91 0
45 45 0
92 93 0
66 67 0
64 64 0
79 79 0
91 91 0
121 122 0
91 91 0
102 102 0
64 64 0
91 91 0
102 102 0
91 91 0
102 102 0
92 93 0
64 64 0
80 81 0
79 79 0
91 91 0
91 91 0
91 91 0
45 45 0
112 112 0
91 91 0
91 91 0
112 113 0
91 91 0
79 79 0
79 79 0
137 137 0
102 102 0
64 64 0
91 91 0
103 104 0
121 121 0
79 79 0
112 112 0
79 79 0
79 79 0
45 45 0
92 93 0
47 49 0
67 69 0
103 104 0
64 64 0
79 79 0
79 79 0
79 79 0
92 93 0
0 0 0
102 102 0
79 79 0
79 79 0
103 104 0
64 64 0
45 45 0
45 45 0
12 18 0
0 0 0
91 91 0
66 67 0
45 45 0
64 64 0
91 91 0
79 79 0
79 79 0
0 0 0
45 45 0
47 49 0
45 45 0
64 64 0
64 64 0
0 0 0
45 45 0
64 64 0
79 79 0
64 64 0
67 69 0
45 45 0
45 45 0
45 45 0
18 25 0
0 0 0
80 81 0
64 64 0
45 45 0
45 45 0
47 49 0
0 0 0
0 0 0
45 45 0
49 52 0
0 0 0
0 0 0
45 46 0
45 45 0
0 0 0
45 45 0
45 45 0
12 18 0
0 0 0
22 31 0
0 0 0
0 0 0
0 0 0
0 0 0
0 0 0
0 0 0
12 18 0
0 0 0
0 0 0
12 18 0
0 0 0
3 7 0
12 18 0
0 0 0
12 18 0
0 0 0
12 18 0
12 18 0
0 0 0
0 0 0
12 18 0
0 0 0
4 8 0
0 0 0
0 0 0
12 18 0
0 0 0
0 0 0
0 0 0
12 18 0
12 18 0
0 0 0
12 18 0
0 0 0
12 18 0
0 0 0
0 0 0
0 0 0
0 0 0
0 0 0
3 7 0
12 18 0
0 0 0
12 18 0
0 0 0
12 18 0
0 0 0
3 7 0
12 18 0
0 0 0
0 0 0
18 26 0
12 18 0
0 0 0
0 0 0
0 0 0
0 0 0
12 18 0
12 18 0
0 0 0
12 18 0
0 0 0
12 18 0
13 19 0
18 25 0
3 7 0
0 0 0
0 0 0
0 0 0
0 0 0
3 7 0
0 0 0
0 0 0
0 0 0
22 31 0
0 0 0
0 0 0
0 0 0
0 0 0
0 0 0
0 0 0
0 0 0
3 7 0
0 0 0
0 0 0
0 0 0
0 0 0
0 0 0
0 0 0
0 0 0
0 0 0
18 26 0
0 0 0
3 7 0
0 0 0
0 0 0
0 0 0
0 0 0
3 7 0
12 18 0
18 25 0
0 0 0
0 0 0
45 45 0
12 18 0
0 0 0
13 19 0
45 45 0
66 67 0
0 0 0
45 45 0
12 18 0
12 18 0
45 45 0
18 25 0
0 0 0
0 0 0
47 49 0
0 0 0
45 46 0
47 49 0
66 67 0
47 49 0
49 52 0
92 93 0
0 0 0
13 19 0
64 64 0
64 64 0
64 64 0
80 81 0
0 0 0
3 7 0
45 45 0
64 64 0
45 45 0
45 45 0
79 79 0
64 64 0
12 18 0
12 18 0
12 18 0
64 64 0
64 64 0
102 102 0
79 79 0
102 102 0
47 49 0
64 64 0
67 69 0
64 64 0
64 64 0
64 64 0
79 79 0
64 64 0
64 64 0
80 81 0
66 67 0
92 93 0
79 79 0
64 64 0
79 79 0
91 91 0
64 64 0
92 93 0
79 79 0
45 45 0
102 102 0
64 64 0
112 112 0
45 45 0
64 64 0
91 91 0
47 49 0
47 49 0
79 79 0
45 45 0
79 79 0
91 91 0
79 79 0
102 102 0
64 64 0
79 79 0
64 64 0
79 79 0
66 67 0
47 49 0
112 112 0
79 79 0
47 49 0
64 64 0
79 79 0
79 79 0
112 112 0
14 20 0
92 93 0
92 93 0
79 79 0
64 64 0
91 91 0
64 64 0
79 79 0
91 91 0
102 102 0
129 129 0
91 91 0
64 64 0
47 49 0
121 121 0
79 79 0
79 79 0
64 64 0
45 45 0
129 129 0
80 81 0
102 102 0
64 64 0
64 64 0
121 121 0
102 102 0
102 102 0
91 91 0
45 45 0
129 129 0
79 79 0
80 81 0
92 93 0
130 130 0
102 102 0
91 91 0
103 104 0
66 67 0
64 64 0
129 129 0
91 91 0
103 104 0
45 45 0
91 91 0
91 91 0
91 91 0
79 79 0
79 79 0
64 64 0
93 95 0
112 112 0
121 121 0
121 121 0
79 79 0
103 104 0
66 67 0
121 121 0
112 112 0
45 45 0
64 64 0
64 64 0
129 129 0
79 79 0
64 64 0
79 79 0
102 102 0
102 102 0
92 93 0
66 67 0
102 102 0
79 79 0
64 64 0
91 91 0
45 45 0
112 112 0
112 112 0
79 79 0
137 137 0
79 79 0
64 64 0
121 122 0
102 102 0
137 137 0
91 91 0
112 112 0
79 79 0
79 79 0
64 64 0
64 64 0
112 112 0
64 64 0
64 64 0
79 79 0
112 112 0
112 112 0
79 79 0
102 102 0
91 91 0
45 45 0
91 91 0
102 102 0
121 121 0
45 45 0
112 112 0
129 129 0
64 64 0
91 91 0
80 81 0
121 121 0
91 91 0
66 67 0
91 91 0
64 64 0
92 93 0
79 79 0
79 79 0
91 91 0
64 64 0
45 45 0
45 45 0
121 121 0
112 113 0
91 91 0
66 67 0
92 93 0
91 91 0
0 0 0
64 64 0
79 79 0
64 65 0
92 93 0
91 91 0
112 112 0
92 93 0
79 79 0
45 45 0
64 64 0
112 112 0
80 81 0
91 91 0
64 64 0
79 79 0
47 49 0
64 64 0
64 64 0
80 81 0
121 121 0
92 93 0
80 81 0
64 64 0
103 104 0
103 104 0
47 49 0
64 64 0
79 79 0
79 79 0
64 64 0
64 64 0
79 79 0
47 49 0
64 64 0
0 0 0
79 79 0
79 79 0
79 79 0
45 45 0
79 79 0
102 102 0
12 18 0
0 0 0
47 49 0
47 49 0
0 0 0
79 79 0
0 0 0
79 79 0
79 79 0
80 81 0
64 65 0
64 64 0
64 64 0
64 64 0
64 64 0
45 45 0
0 0 0
45 45 0
18 25 0
45 45 0
45 45 0
79 79 0
80 81 0
64 64 0
45 45 0
66 67 0
45 45 0
45 45 0
47 49 0
0 0 0
91 91 0
18 25 0
0 0 0
45 45 0
47 49 0
45 45 0
45 45 0
79 79 0
45 45 0
45 45 0
0 0 0
13 19 0
0 0 0
0 0 0
45 45 0
3 7 0
18 25 0
0 0 0
18 25 0
0 0 0
3 7 0
18 25 0
1 2 0
0 0 0
3 7 0
0 0 0
0 0 0
12 18 0
0 0 0
12 18 0
18 25 0
12 18 0
12 18 0
0 0 0
22 31 0
12 18 0
18 25 0
12 18 0
0 1 0
4 8 0
0 0 0
0 0 0
0 0 0
0 0 0
0 0 0
1 2 0
0 0 0
18 25 0
0 0 0
0 0 0
12 18 0
0 0 0
12 18 0
0 0 0
0 0 0
12 18 0
0 0 0
0 1 0
0 0 0
0 0 0
18 25 0
0 0 0
12 18 0
0 0 0
12 18 0
12 18 0
12 18 0
0 0 0
0 0 0
12 18 0
12 18 0
0 0 0
0 0 0
0 0 0
0 0 0
0 0 0
0 0 0
0 0 0
12 18 0
0 0 0
13 19 0
0 0 0
12 18 0
12 18 0
0 0 0
0 0 0
0 0 0
0 0 0
0 0 0
0 0 0
0 0 0
4 8 0
0 0 0
18 25 0
1 2 0
12 18 0
0 0 0
0 0 0
3 7 0
18 25 0
0 0 0
0 0 0
18 25 0
12 18 0
0 0 0
18 25 0
12 18 0
0 0 0
12 18 0
0 0 0
47 49 0
12 18 0
0 0 0
45 45 0
45 45 0
0 0 0
45 45 0
0 0 0
45 45 0
0 0 0
18 25 0
3 7 0
45 45 0
18 25 0
66 67 0
45 45 0
0 0 0
45 45 0
47 49 0
45 45 0
64 65 0
68 72 0
79 79 0
47 49 0
80 81 0
12 18 0
64 64 0
0 0 0
67 69 0
12 18 0
79 79 0
64 64 0
0 0 0
0 0 0
64 64 0
91 91 0
79 79 0
12 18 0
79 79 0
92 93 0
66 67 0
79 79 0
64 64 0
47 49 0
91 91 0
79 79 0
64 64 0
0 0 0
45 45 0
64 64 0
45 45 0
80 81 0
45 45 0
64 64 0
45 45 0
80 81 0
91 91 0
103 104 0
64 64 0
64 64 0
64 64 0
64 64 0
91 91 0
91 91 0
79 79 0
64 64 0
102 102 0
80 81 0
79 79 0
102 102 0
45 45 0
91 91 0
64 64 0
79 79 0
144 144 0
92 93 0
112 113 0
79 79 0
64 64 0
79 79 0
66 67 0
64 64 0
91 91 0
64 64 0
47 49 0
102 102 0
79 79 0
64 64 0
103 104 0
129 129 0
112 112 0
91 91 0
91 91 0
64 64 0
121 122 0
91 91 0
79 79 0
64 64 0
121 121 0
93 95 0
79 79 0
93 95 0
45 45 0
91 91 0
112 112 0
112 112 0
102 102 0
79 79 0
112 112 0
102 102 0
102 102 0
91 91 0
112 112 0
0 0 0
92 93 0
112 113 0
112 112 0
80 81 0
79 79 0
91 91 0
64 64 0
102 102 0
79 79 0
64 64 0
79 79 0
64 64 0
80 81 0
91 91 0
79 79 0
79 79 0
79 79 0
121 121 0
121 121 0
112 113 0
79 79 0
102 102 0
79 79 0
91 91 0
112 112 0
91 91 0
102 102 0
129 129 0
112 112 0
102 102 0
121 121 0
79 79 0
91 91 0
102 102 0
91 91 0
112 112 0
129 129 0
121 121 0
79 79 0
112 112 0
79 79 0
64 64 0
144 144 0
112 112 0
91 91 0
64 64 0
91 91 0
121 121 0
64 64 0
64 64 0
102 102 0
64 64 0
91 91 0
64 64 0
103 104 0
112 112 0
121 121 0
80 81 0
91 91 0
91 91 0
91 91 0
112 112 0
112 112 0
91 91 0
91 91 0
137 137 0
79 79 0
79 79 0
112 112 0
64 64 0
0 0 0
92 93 0
102 102 0
102 102 0
112 113 0
121 121 0
91 91 0
91 91 0
45 45 0
121 121 0
92 93 0
112 112 0
102 102 0
80 81 0
91 91 0
45 45 0
79 79 0
79 79 0
64 64 0
91 91 0
64 64 0
45 45 0
102 102 0
91 91 0
92 93 0
91 91 0
137 137 0
45 45 0
79 79 0
64 64 0
0 0 0
91 91 0
64 64 0
91 91 0
91 91 0
112 112 0
79 79 0
64 64 0
64 64 0
91 91 0
102 102 0
121 121 0
45 46 0
79 79 0
12 18 0
102 102 0
64 64 0
92 93 0
79 79 0
112 112 0
45 45 0
92 93 0
81 83 0
79 79 0
103 104 0
64 64 0
45 45 0
64 64 0
79 79 0
102 102 0
45 45 0
47 49 0
91 91 0
79 79 0
102 102 0
91 91 0
45 45 0
93 95 0
79 79 0
0 0 0
64 64 0
45 45 0
137 137 0
64 64 0
45 45 0
64 64 0
79 79 0
64 64 0
103 104 0
47 49 0
47 49 0
79 79 0
91 91 0
49 52 0
64 64 0
0 0 0
64 64 0
49 52 0
47 49 0
45 45 0
0 0 0
79 79 0
47 49 0
18 25 0
0 0 0
45 45 0
3 7 0
45 45 0
0 0 0
80 81 0
12 18 0
0 0 0
12 18 0
66 67 0
47 49 0
47 49 0
47 49 0
12 18 0
45 45 0
47 49 0
12 18 0
45 45 0
0 0 0
47 49 0
0 0 0
22 31 0
45 46 0
0 0 0
0 0 0
0 0 0
45 45 0
13 19 0
0 0 0
12 18 0
0 0 0
0 0 0
47 49 0
0 0 0
0 0 0
0 0 0
45 45 0
0 0 0
12 18 0
0 0 0
0 0 0
0 0 0
12 18 0
12 18 0
0 0 0
12 18 0
12 18 0
0 0 0
12 18 0
12 18 0
12 18 0
12 18 0
12 18 0
12 18 0
0 0 0
0 0 0
12 18 0
0 0 0
0 0 0
0 0 0
0 0 0
0 0 0
5 10 0
0 0 0
12 18 0
18 25 0
12 18 0
18 26 0
12 18 0
12 18 0
12 18 0
0 0 0
0 0 0
0 0 0
12 18 0
0 0 0
0 0 0
0 0 0
12 18 0
0 0 0
0 0 0
12 18 0
12 18 0
0 0 0
12 18 0
0 0 0
0 0 0
12 18 0
0 0 0
0 0 0
0 0 0
0 0 0
22 31 0
18 25 0
12 18 0
0 0 0
0 0 0
0 0 0
0 0 0
18 25 0
0 0 0
12 18 0
0 0 0
18 25 0
18 25 0
0 0 0
0 0 0
0 0 0
12 18 0
0 0 0
0 0 0
0 0 0
0 0 0
0 0 0
12 18 0
0 0 0
0 0 0
18 25 0
45 45 0
12 18 0
12 18 0
12 18 0
0 0 0
12 18 0
1 2 0
12 18 0
47 49 0
45 45 0
64 64 0
47 49 0
0 0 0
64 64 0
12 18 0
0 0 0
0 0 0
0 0 0
12 18 0
47 49 0
0 0 0
0 0 0
47 49 0
64 64 0
45 45 0
45 45 0
45 45 0
64 64 0
12 18 0
47 49 0
45 45 0
0 0 0
67 69 0
0 0 0
45 45 0
64 64 0
81 83 0
66 67 0
64 64 0
45 45 0
45 45 0
93 95 0
0 0 0
79 79 0
45 45 0
102 102 0
45 45 0
45 45 0
91 91 0
103 104 0
45 45 0
79 79 0
102 102 0
102 102 0
79 79 0
79 79 0
103 104 0
112 112 0
64 64 0
0 0 0
121 122 0
91 91 0
47 49 0
91 91 0
79 79 0
64 64 0
79 79 0
91 91 0
79 79 0
79 79 0
64 64 0
12 18 0
79 79 0
102 102 0
91 91 0
102 102 0
102 102 0
91 91 0
91 91 0
91 91 0
45 45 0
64 64 0
102 102 0
102 102 0
79 79 0
64 64 0
102 102 0
121 121 0
79 79 0
80 81 0
64 65 0
79 79 0
45 45 0
91 91 0
92 93 0
112 112 0
112 113 0
102 102 0
79 79 0
112 112 0
102 102 0
66 67 0
91 91 0
102 102 0
12 18 0
129 129 0
102 102 0
64 64 0
91 91 0
137 137 0
64 64 0
64 64 0
80 81 0
0 0 0
102 102 0
92 93 0
79 79 0
137 137 0
64 64 0
45 45 0
91 91 0
121 121 0
79 79 0
93 95 0
79 79 0
112 112 0
64 64 0
112 112 0
79 79 0
112 112 0
79 79 0
112 112 0
112 112 0
112 112 0
91 91 0
112 112 0
144 144 0
64 64 0
45 45 0
102 102 0
91 91 0
91 91 0
79 79 0
102 102 0
79 79 0
112 112 0
91 91 0
121 121 0
79 79 0
102 102 0
91 91 0
45 45 0
79 79 0
129 129 0
129 129 0
79 79 0
129 129 0
91 91 0
102 102 0
112 112 0
102 102 0
91 91 0
151 151 0
112 112 0
45 45 0
102 102 0
102 102 0
121 121 0
64 64 0
144 144 0
64 64 0
79 79 0
91 91 0
112 112 0
112 112 0
80 81 0
112 112 0
112 112 0
165 165 0
91 91 0
79 79 0
112 112 0
121 121 0
47 49 0
102 102 0
121 121 0
102 102 0
112 112 0
102 102 0
103 104 0
129 129 0
129 129 0
91 91 0
129 129 0
91 91 0
91 91 0
102 102 0
121 121 0
91 91 0
91 91 0
121 121 0
92 93 0
91 91 0
112 112 0
92 93 0
91 91 0
112 112 0
91 91 0
80 81 0
64 64 0
112 112 0
103 104 0
112 112 0
79 79 0
79 79 0
91 91 0
102 102 0
66 67 0
112 112 0
112 112 0
102 102 0
129 129 0
91 91 0
80 81 0
66 67 0
64 64 0
91 91 0
64 64 0
80 81 0
112 112 0
91 91 0
0 0 0
79 79 0
45 45 0
64 64 0
79 79 0
64 64 0
64 64 0
64 64 0
102 102 0
64 64 0
79 79 0
80 81 0
91 91 0
64 64 0
92 93 0
66 67 0
79 79 0
92 93 0
12 18 0
79 79 0
91 91 0
103 104 0
47 49 0
91 91 0
79 79 0
64 64 0
64 64 0
66 67 0
79 79 0
64 64 0
112 113 0
79 79 0
91 91 0
64 64 0
80 81 0
12 18 0
79 79 0
79 79 0
12 18 0
45 45 0
64 64 0
81 83 0
102 102 0
45 45 0
79 79 0
49 52 0
66 67 0
91 91 0
66 67 0
79 79 0
18 25 0
81 83 0
0 0 0
45 45 0
0 0 0
64 64 0
0 0 0
45 45 0
47 49 0
18 25 0
12 18 0
47 49 0
0 0 0
66 67 0
0 0 0
0 0 0
47 49 0
64 64 0
0 0 0
45 45 0
47 49 0
47 49 0
45 45 0
47 49 0
0 0 0
3 7 0
0 0 0
45 45 0
45 45 0
0 0 0
45 45 0
12 18 0
45 45 0
45 45 0
12 18 0
12 18 0
0 0 0
0 0 0
45 45 0
22 32 0
12 18 0
45 45 0
0 0 0
64 64 0
0 0 0
0 0 0
3 7 0
0 0 0
0 0 0
0 0 0
0 0 0
12 18 0
0 0 0
0 0 0
13 19 0
12 18 0
0 0 0
0 0 0
0 0 0
0 0 0
0 0 0
0 0 0
0 0 0
0 0 0
0 0 0
0 0 0
0 0 0
18 25 0
12 18 0
0 0 0
0 0 0
12 18 0
0 0 0
0 0 0
0 0 0
12 18 0
12 18 0
12 18 0
12 18 0
0 0 0
12 18 0
0 0 0
12 18 0
0 0 0
18 25 0
12 18 0
0 0 0
0 0 0
0 0 0
13 19 0
12 18 0
0 0 0
12 18 0
12 18 0
0 0 0
13 19 0
0 0 0
0 0 0
12 18 0
18 25 0
3 7 0
12 18 0
12 18 0
0 0 0
0 0 0
0 0 0
12 18 0
0 0 0
0 0 0
0 0 0
0 0 0
18 25 0
0 0 0
0 0 0
0 0 0
12 18 0
12 18 0
0 0 0
18 25 0
0 0 0
64 64 0
18 25 0
12 18 0
18 25 0
45 45 0
0 0 0
12 18 0
0 0 0
0 0 0
64 64 0
12 18 0
0 0 0
0 0 0
45 45 0
12 18 0
47 49 0
47 49 0
47 49 0
12 18 0
12 18 0
0 0 0
12 18 0
67 69 0
0 0 0
49 52 0
45 45 0
47 49 0
45 45 0
45 45 0
64 64 0
0 0 0
47 49 0
0 0 0
0 0 0
47 49 0
45 46 0
45 45 0
13 19 0
45 45 0
64 64 0
92 93 0
0 0 0
64 65 0
91 91 0
66 67 0
0 0 0
47 49 0
91 91 0
64 64 0
79 79 0
79 79 0
137 137 0
79 79 0
47 49 0
102 102 0
112 112 0
79 79 0
92 93 0
64 64 0
79 79 0
64 64 0
102 102 0
45 45 0
0 0 0
45 45 0
45 45 0
121 121 0
91 91 0
64 64 0
79 79 0
121 121 0
102 102 0
0 0 0
64 64 0
0 0 0
102 102 0
79 79 0
64 64 0
137 138 0
91 91 0
137 137 0
49 52 0
102 102 0
47 49 0
92 93 0
45 45 0
45 45 0
45 45 0
91 91 0
121 121 0
91 91 0
45 45 0
112 112 0
91 91 0
64 64 0
102 102 0
91 91 0
0 0 0
102 102 0
79 79 0
103 104 0
103 104 0
79 79 0
91 91 0
79 79 0
0 0 0
91 91 0
64 64 0
91 91 0
102 102 0
129 129 0
112 112 0
64 64 0
80 81 0
103 104 0
112 112 0
79 79 0
64 64 0
64 64 0
79 79 0
112 112 0
91 91 0
102 102 0
102 102 0
102 102 0
79 79 0
121 121 0
121 121 0
144 144 0
112 112 0
79 79 0
79 79 0
102 102 0
91 91 0
91 91 0
112 112 0
91 91 0
64 64 0
112 112 0
91 91 0
91 91 0
79 79 0
91 91 0
129 129 0
91 91 0
91 91 0
64 64 0
79 79 0
79 79 0
66 67 0
79 79 0
91 91 0
112 112 0
91 91 0
121 121 0
112 112 0
91 91 0
79 79 0
112 112 0
79 79 0
112 112 0
112 112 0
112 112 0
45 45 0
102 102 0
91 91 0
91 91 0
112 112 0
112 112 0
91 91 0
79 79 0
64 64 0
144 144 0
0 0 0
79 79 0
121 121 0
121 121 0
91 91 0
79 79 0
102 102 0
64 64 0
92 93 0
129 129 0
91 91 0
80 81 0
92 93 0
112 112 0
102 102 0
102 102 0
91 91 0
79 79 0
112 112 0
64 64 0
64 64 0
112 112 0
79 79 0
79 79 0
79 79 0
64 64 0
102 102 0
64 65 0
0 0 0
102 102 0
91 91 0
112 112 0
129 129 0
79 79 0
91 91 0
121 122 0
80 81 0
112 112 0
80 81 0
0 0 0
64 64 0
79 79 0
121 121 0
79 79 0
91 91 0
102 102 0
91 91 0
79 79 0
45 45 0
45 45 0
92 93 0
64 64 0
102 102 0
91 91 0
112 112 0
79 79 0
92 93 0
79 79 0
91 91 0
79 79 0
91 91 0
121 121 0
112 112 0
66 67 0
80 81 0
0 0 0
79 79 0
66 67 0
92 93 0
91 91 0
66 67 0
92 93 0
64 64 0
64 64 0
45 45 0
80 81 0
130 130 0
0 0 0
91 91 0
66 67 0
64 64 0
79 79 0
91 91 0
64 64 0
91 91 0
64 64 0
64 64 0
47 49 0
91 91 0
49 52 0
45 45 0
66 67 0
12 18 0
91 91 0
64 64 0
64 64 0
80 81 0
0 0 0
79 79 0
102 102 0
64 64 0
64 64 0
0 0 0
67 69 0
79 79 0
47 49 0
0 0 0
64 64 0
66 67 0
79 79 0
64 64 0
91 91 0
45 45 0
49 52 0
47 49 0
0 0 0
47 49 0
45 46 0
47 49 0
0 0 0
45 45 0
0 0 0
12 18 0
0 0 0
47 49 0
3 7 0
92 93 0
0 0 0
12 18 0
0 0 0
0 0 0
47 49 0
45 45 0
45 45 0
79 79 0
0 0 0
45 45 0
49 52 0
0 0 0
12 18 0
0 0 0
0 0 0
12 18 0
13 21 0
0 0 0
0 0 0
0 0 0
0 0 0
3 7 0
0 0 0
0 0 0
0 0 0
0 0 0
0 0 0
0 0 0
0 0 0
0 0 0
12 18 0
0 0 0
0 0 0
0 0 0
0 0 0
0 0 0
0 0 0
12 18 0
0 0 0
0 0 0
0 0 0
0 0 0
12 18 0
0 0 0
12 18 0
12 18 0
0 0 0
0 0 0
0 0 0
12 18 0
12 18 0
13 19 0
18 25 0
3 7 0
12 18 0
0 0 0
18 25 0
0 0 0
0 0 0
12 18 0
12 18 0
0 0 0
0 0 0
0 0 0
0 0 0
0 0 0
0 0 0
13 19 0
12 18 0
0 0 0
0 0 0
0 0 0
0 1 0
12 18 0
0 0 0
3 7 0
3 7 0
0 0 0
0 0 0
0 0 0
0 0 0
12 18 0
0 0 0
12 18 0
0 0 0
0 0 0
3 7 0
0 0 0
0 0 0
12 18 0
3 7 0
0 0 0
18 25 0
0 0 0
12 18 0
12 18 0
45 45 0
0 0 0
0 0 0
18 25 0
0 0 0
0 0 0
12 18 0
0 0 0
45 45 0
12 18 0
45 45 0
45 45 0
12 18 0
0 0 0
0 0 0
0 0 0
0 0 0
12 18 0
64 64 0
12 18 0
12 18 0
47 49 0
13 19 0
0 0 0
47 49 0
0 0 0
79 79 0
64 65 0
22 31 0
0 0 0
12 18 0
12 18 0
12 18 0
0 0 0
112 113 0
45 45 0
45 45 0
12 18 0
0 0 0
45 46 0
12 18 0
64 65 0
45 45 0
45 45 0
66 67 0
12 18 0
79 79 0
79 79 0
45 45 0
45 45 0
45 46 0
92 93 0
45 45 0
91 91 0
64 64 0
79 79 0
66 67 0
79 79 0
45 45 0
64 64 0
0 0 0
91 91 0
45 45 0
91 91 0
79 79 0
81 83 0
80 81 0
64 64 0
45 45 0
45 45 0
49 52 0
103 104 0
66 67 0
45 45 0
64 65 0
129 129 0
79 79 0
104 105 0
92 93 0
79 79 0
91 91 0
92 93 0
79 79 0
91 91 0
79 79 0
91 91 0
102 102 0
121 121 0
80 81 0
45 45 0
64 64 0
102 102 0
64 64 0
64 64 0
45 45 0
79 79 0
102 102 0
102 102 0
45 45 0
102 102 0
91 91 0
64 64 0
151 151 0
79 79 0
79 79 0
102 102 0
102 102 0
112 112 0
66 67 0
66 67 0
91 91 0
103 104 0
144 144 0
45 45 0
79 79 0
79 79 0
80 81 0
79 79 0
121 121 0
64 64 0
0 0 0
92 93 0
121 121 0
64 64 0
91 91 0
64 64 0
45 45 0
79 79 0
102 102 0
112 112 0
79 79 0
144 144 0
64 64 0
79 79 0
102 102 0
45 45 0
102 102 0
91 91 0
112 112 0
91 91 0
112 112 0
112 112 0
102 102 0
121 121 0
121 121 0
0 0 0
91 91 0
91 91 0
64 64 0
79 79 0
102 102 0
64 64 0
121 122 0
45 45 0
92 93 0
79 79 0
129 129 0
91 91 0
121 121 0
102 102 0
81 83 0
91 91 0
91 91 0
64 64 0
102 102 0
79 79 0
151 151 0
0 0 0
102 102 0
112 112 0
79 79 0
102 102 0
79 79 0
45 45 0
121 121 0
112 112 0
121 121 0
45 45 0
112 112 0
79 79 0
45 45 0
112 112 0
92 93 0
64 64 0
91 91 0
64 64 0
79 79 0
102 102 0
91 91 0
45 45 0
64 64 0
91 91 0
102 102 0
64 64 0
79 79 0
112 112 0
45 45 0
91 91 0
66 67 0
64 64 0
64 64 0
91 91 0
79 79 0
91 91 0
102 102 0
112 112 0
64 64 0
137 137 0
64 64 0
45 45 0
121 121 0
79 79 0
79 79 0
112 112 0
121 122 0
45 45 0
79 79 0
102 102 0
102 102 0
91 91 0
130 130 0
121 121 0
91 91 0
112 113 0
91 91 0
91 91 0
64 64 0
103 104 0
64 64 0
66 67 0
102 102 0
91 91 0
79 79 0
121 121 0
45 45 0
91 91 0
64 64 0
45 45 0
80 81 0
91 91 0
91 91 0
47 49 0
121 121 0
64 64 0
102 102 0
92 93 0
91 91 0
64 64 0
102 102 0
112 112 0
112 112 0
92 93 0
102 102 0
79 79 0
45 45 0
91 91 0
80 81 0
64 64 0
79 79 0
91 91 0
0 0 0
81 83 0
79 79 0
49 52 0
79 79 0
64 64 0
66 67 0
80 81 0
0 0 0
102 102 0
12 18 0
80 81 0
91 91 0
47 49 0
79 79 0
0 0 0
45 45 0
45 45 0
64 64 0
64 64 0
45 45 0
45 45 0
0 0 0
47 49 0
47 49 0
47 49 0
47 49 0
64 64 0
0 0 0
64 64 0
92 93 0
45 45 0
45 45 0
64 64 0
68 72 0
0 0 0
45 45 0
45 45 0
79 79 0
66 67 0
0 0 0
3 7 0
18 25 0
45 45 0
45 45 0
3 7 0
0 0 0
0 0 0
0 0 0
64 64 0
64 64 0
47 49 0
47 49 0
0 0 0
12 18 0
64 64 0
0 0 0
12 18 0
0 0 0
0 0 0
0 0 0
12 18 0
0 0 0
0 0 0
0 0 0
0 0 0
3 7 0
47 49 0
0 0 0
12 18 0
0 0 0
12 18 0
12 18 0
0 0 0
0 0 0
0 0 0
0 0 0
3 7 0
0 0 0
0 0 0
12 18 0
12 18 0
12 18 0
0 0 0
0 0 0
0 0 0
0 0 0
0 0 0
0 0 0
12 18 0
0 0 0
0 0 0
0 0 0
0 0 0
3 7 0
0 0 0
0 0 0
3 7 0
12 18 0
0 0 0
0 0 0
0 0 0
0 0 0
0 0 0
0 0 0
0 0 0
0 0 0
12 18 0
12 18 0
0 0 0
13 19 0
12 18 0
12 18 0
0 0 0
0 0 0
0 0 0
12 18 0
12 18 0
22 31 0
12 18 0
0 0 0
0 0 0
18 25 0
0 0 0
0 0 0
0 0 0
12 18 0
12 18 0
0 0 0
12 18 0
3 7 0
0 0 0
12 18 0
0 0 0
13 19 0
12 18 0
18 27 0
0 0 0
0 0 0
0 0 0
45 45 0
45 45 0
12 18 0
0 0 0
12 18 0
0 0 0
49 52 0
0 0 0
18 25 0
45 45 0
0 0 0
12 18 0
12 18 0
0 0 0
0 0 0
12 18 0
80 81 0
12 18 0
0 0 0
45 45 0
47 49 0
12 18 0
45 45 0
81 83 0
18 25 0
45 45 0
49 52 0
45 45 0
79 79 0
66 67 0
47 49 0
0 0 0
0 0 0
45 45 0
64 64 0
45 45 0
0 0 0
64 64 0
47 49 0
91 91 0
112 113 0
45 45 0
45 45 0
47 49 0
64 64 0
79 79 0
0 0 0
45 45 0
0 0 0
45 45 0
47 49 0
92 93 0
80 81 0
64 64 0
79 79 0
0 0 0
64 64 0
66 67 0
91 91 0
92 93 0
47 49 0
64 64 0
47 49 0
0 0 0
121 122 0
102 102 0
45 45 0
0 0 0
102 102 0
45 45 0
91 91 0
45 45 0
102 102 0
66 67 0
102 102 0
80 81 0
91 91 0
91 91 0
102 102 0
45 45 0
79 79 0
79 79 0
66 67 0
80 81 0
64 64 0
129 129 0
79 79 0
79 79 0
129 129 0
45 45 0
112 112 0
112 112 0
79 79 0
45 45 0
66 67 0
64 64 0
112 112 0
80 81 0
102 102 0
91 91 0
64 64 0
79 79 0
66 67 0
91 91 0
79 79 0
137 137 0
121 121 0
80 81 0
80 81 0
45 45 0
64 64 0
64 64 0
102 102 0
64 64 0
102 102 0
91 91 0
64 64 0
112 112 0
79 79 0
91 91 0
91 91 0
0 0 0
112 112 0
12 18 0
121 121 0
45 45 0
45 46 0
102 102 0
80 81 0
159 159 0
129 129 0
102 102 0
79 79 0
79 79 0
102 102 0
91 91 0
91 91 0
79 79 0
112 112 0
112 112 0
121 121 0
91 91 0
45 45 0
91 91 0
79 79 0
112 112 0
112 112 0
112 112 0
91 91 0
91 91 0
79 79 0
121 121 0
129 129 0
112 112 0
102 102 0
91 91 0
102 102 0
79 79 0
112 112 0
102 102 0
91 91 0
47 49 0
103 104 0
64 64 0
112 112 0
121 122 0
91 91 0
112 112 0
112 112 0
64 64 0
137 137 0
129 129 0
129 129 0
91 91 0
64 64 0
64 64 0
91 91 0
102 102 0
91 91 0
64 64 0
91 91 0
91 91 0
112 112 0
80 81 0
103 104 0
102 102 0
121 121 0
64 64 0
79 79 0
79 79 0
102 102 0
64 64 0
103 104 0
64 64 0
79 79 0
79 79 0
12 18 0
91 91 0
102 102 0
165 165 0
121 121 0
102 102 0
112 112 0
80 81 0
64 64 0
91 91 0
102 102 0
121 121 0
102 102 0
64 64 0
102 102 0
121 121 0
103 104 0
112 112 0
112 113 0
112 112 0
64 64 0
102 102 0
121 121 0
112 112 0
79 79 0
79 79 0
130 130 0
102 102 0
144 144 0
64 64 0
102 102 0
64 64 0
64 64 0
79 79 0
64 64 0
91 91 0
91 91 0
64 64 0
12 18 0
66 67 0
93 95 0
0 0 0
112 112 0
79 79 0
102 102 0
112 112 0
103 104 0
79 79 0
102 102 0
64 64 0
79 79 0
102 102 0
92 93 0
45 45 0
45 45 0
102 102 0
45 45 0
45 45 0
102 102 0
79 79 0
80 81 0
64 64 0
102 102 0
45 45 0
79 79 0
64 64 0
64 64 0
47 49 0
79 79 0
64 64 0
0 0 0
64 64 0
112 113 0
0 0 0
66 67 0
64 64 0
66 67 0
45 45 0
0 0 0
64 64 0
45 46 0
45 45 0
80 81 0
45 45 0
0 0 0
45 45 0
64 64 0
91 91 0
45 45 0
45 45 0
45 45 0
0 0 0
12 18 0
64 64 0
80 81 0
79 79 0
64 64 0
45 45 0
66 67 0
45 45 0
0 0 0
12 18 0
0 0 0
0 0 0
64 64 0
0 0 0
3 7 0
0 0 0
12 18 0
47 49 0
0 0 0
64 64 0
45 45 0
0 0 0
47 49 0
45 45 0
45 45 0
12 18 0
0 0 0
12 18 0
0 0 0
12 18 0
0 0 0
0 0 0
12 18 0
12 18 0
0 0 0
45 45 0
0 0 0
12 18 0
0 0 0
0 0 0
0 0 0
47 49 0
0 0 0
47 49 0
0 0 0
0 0 0
0 0 0
0 0 0
0 0 0
47 49 0
5 10 0
12 18 0
12 18 0
0 0 0
13 19 0
0 0 0
0 0 0
0 0 0
0 0 0
18 25 0
12 18 0
12 18 0
0 0 0
0 0 0
13 19 0
0 0 0
0 0 0
0 0 0
12 18 0
0 0 0
18 25 0
0 0 0
12 18 0
0 0 0
12 18 0
0 0 0
0 0 0
0 0 0
0 0 0
0 0 0
0 0 0
0 0 0
12 18 0
0 0 0
0 0 0
0 0 0
12 18 0
12 18 0
0 0 0
49 52 0
0 0 0
0 0 0
12 18 0
0 0 0
12 18 0
12 18 0
0 0 0
12 18 0
12 18 0
0 0 0
12 18 0
0 0 0
0 0 0
0 0 0
0 0 0
0 0 0
18 25 0
12 18 0
45 45 0
12 18 0
0 0 0
45 45 0
12 18 0
0 0 0
0 0 0
12 18 0
0 0 0
0 0 0
0 0 0
49 52 0
0 0 0
45 45 0
79 79 0
0 0 0
0 0 0
47 49 0
66 67 0
0 0 0
45 45 0
0 0 0
0 0 0
12 18 0
45 45 0
0 0 0
45 45 0
64 64 0
80 81 0
12 18 0
79 79 0
47 49 0
45 46 0
13 19 0
79 79 0
102 102 0
102 102 0
0 0 0
12 18 0
12 18 0
80 81 0
45 45 0
92 93 0
12 18 0
79 79 0
79 79 0
0 0 0
45 45 0
80 81 0
64 64 0
0 0 0
12 18 0
45 45 0
121 121 0
45 45 0
47 49 0
0 0 0
45 45 0
121 121 0
102 102 0
79 79 0
79 79 0
91 91 0
79 79 0
45 45 0
64 64 0
79 79 0
66 67 0
79 79 0
64 64 0
80 81 0
112 113 0
47 49 0
121 121 0
64 64 0
103 104 0
79 79 0
64 64 0
129 129 0
91 91 0
79 79 0
91 91 0
64 64 0
102 102 0
102 102 0
112 112 0
66 67 0
0 0 0
64 64 0
112 112 0
91 91 0
91 91 0
79 79 0
79 79 0
64 64 0
91 91 0
80 81 0
45 45 0
91 91 0
79 79 0
121 121 0
121 121 0
45 45 0
92 93 0
91 91 0
102 102 0
45 46 0
80 81 0
64 64 0
92 93 0
102 102 0
102 102 0
79 79 0
64 64 0
121 121 0
112 112 0
64 64 0
91 91 0
79 79 0
129 129 0
79 79 0
66 67 0
103 104 0
137 137 0
64 64 0
79 79 0
91 91 0
103 104 0
91 91 0
129 129 0
64 64 0
91 91 0
102 102 0
80 81 0
64 64 0
64 64 0
112 112 0
102 102 0
112 112 0
64 64 0
91 91 0
79 79 0
91 91 0
102 102 0
80 81 0
92 93 0
102 102 0
102 102 0
102 102 0
103 104 0
91 91 0
79 79 0
112 112 0
79 79 0
103 104 0
91 91 0
79 79 0
91 91 0
102 102 0
79 79 0
112 112 0
112 113 0
45 45 0
112 112 0
45 45 0
